(G-code generated by FlatCAM Evo vUnstable - Version Date: 2023/6/31)

(Name: Alignment Drills_exc_cnc_cnc)
(Type: G-code from Geometry)
(Units: MM)

(Created on Wednesday, 24 September 2025 at 14:46)

(This preprocessor is the default preprocessor.)
(It is made to work with MACH3 compatible motion controllers.)

(TOOL DIAMETER: 3.0 mm)
(Feedrate_XY: 100.0 mm/min)
(Feedrate_Z: 50.0 mm/min)
(Feedrate rapids 1500.0 mm/min)

(Z_Cut: -5.7 mm)
(Z_Move: 2.0 mm)
(Z Start: None mm)
(Z End: 2.0 mm)
(X,Y End: None mm)
(Steps per circle: 16)
(Preprocessor Geometry: default)

(X range:    1.0000 ...   37.0000  mm)
(Y range:   -4.5000 ...   29.0000  mm)

(Spindle Speed: 0.0 RPM)
G21
G90
G94

G01 F100.00
G00 Z2.0000

M03
G4 P1.0
G01 F100.00
G00 X3.4982 Y-2.5000
G01 F50.00
G01 Z-5.7000
G01 F100.00
G01 X3.4886 Y-2.5972
G01 X3.4603 Y-2.6906
G01 X3.4142 Y-2.7768
G01 X3.3523 Y-2.8523
G01 X3.2768 Y-2.9142
G01 X3.1906 Y-2.9603
G01 X3.0972 Y-2.9886
G01 X3.0000 Y-2.9982
G01 X2.9028 Y-2.9886
G01 X2.8094 Y-2.9603
G01 X2.7232 Y-2.9142
G01 X2.6477 Y-2.8523
G01 X2.5858 Y-2.7768
G01 X2.5397 Y-2.6906
G01 X2.5114 Y-2.5972
G01 X2.5018 Y-2.5000
G01 X2.5114 Y-2.4028
G01 X2.5397 Y-2.3094
G01 X2.5858 Y-2.2232
G01 X2.6477 Y-2.1477
G01 X2.7232 Y-2.0858
G01 X2.8094 Y-2.0397
G01 X2.9028 Y-2.0114
G01 X3.0000 Y-2.0018
G01 X3.0972 Y-2.0114
G01 X3.1906 Y-2.0397
G01 X3.2768 Y-2.0858
G01 X3.3523 Y-2.1477
G01 X3.4142 Y-2.2232
G01 X3.4603 Y-2.3094
G01 X3.4886 Y-2.4028
G01 X3.4982 Y-2.5000
G00 Z2.0000
G00 X3.4982 Y27.0000
G01 F50.00
G01 Z-5.7000
G01 F100.00
G01 X3.4886 Y26.9028
G01 X3.4603 Y26.8094
G01 X3.4142 Y26.7232
G01 X3.3523 Y26.6477
G01 X3.2768 Y26.5858
G01 X3.1906 Y26.5397
G01 X3.0972 Y26.5114
G01 X3.0000 Y26.5018
G01 X2.9028 Y26.5114
G01 X2.8094 Y26.5397
G01 X2.7232 Y26.5858
G01 X2.6477 Y26.6477
G01 X2.5858 Y26.7232
G01 X2.5397 Y26.8094
G01 X2.5114 Y26.9028
G01 X2.5018 Y27.0000
G01 X2.5114 Y27.0972
G01 X2.5397 Y27.1906
G01 X2.5858 Y27.2768
G01 X2.6477 Y27.3523
G01 X2.7232 Y27.4142
G01 X2.8094 Y27.4603
G01 X2.9028 Y27.4886
G01 X3.0000 Y27.4982
G01 X3.0972 Y27.4886
G01 X3.1906 Y27.4603
G01 X3.2768 Y27.4142
G01 X3.3523 Y27.3523
G01 X3.4142 Y27.2768
G01 X3.4603 Y27.1906
G01 X3.4886 Y27.0972
G01 X3.4982 Y27.0000
G00 Z2.0000
G00 X35.4982 Y27.0000
G01 F50.00
G01 Z-5.7000
G01 F100.00
G01 X35.4886 Y26.9028
G01 X35.4603 Y26.8094
G01 X35.4142 Y26.7232
G01 X35.3523 Y26.6477
G01 X35.2768 Y26.5858
G01 X35.1906 Y26.5397
G01 X35.0972 Y26.5114
G01 X35.0000 Y26.5018
G01 X34.9028 Y26.5114
G01 X34.8094 Y26.5397
G01 X34.7232 Y26.5858
G01 X34.6477 Y26.6477
G01 X34.5858 Y26.7232
G01 X34.5397 Y26.8094
G01 X34.5114 Y26.9028
G01 X34.5018 Y27.0000
G01 X34.5114 Y27.0972
G01 X34.5397 Y27.1906
G01 X34.5858 Y27.2768
G01 X34.6477 Y27.3523
G01 X34.7232 Y27.4142
G01 X34.8094 Y27.4603
G01 X34.9028 Y27.4886
G01 X35.0000 Y27.4982
G01 X35.0972 Y27.4886
G01 X35.1906 Y27.4603
G01 X35.2768 Y27.4142
G01 X35.3523 Y27.3523
G01 X35.4142 Y27.2768
G01 X35.4603 Y27.1906
G01 X35.4886 Y27.0972
G01 X35.4982 Y27.0000
G00 Z2.0000
G00 X35.4982 Y-2.5000
G01 F50.00
G01 Z-5.7000
G01 F100.00
G01 X35.4886 Y-2.5972
G01 X35.4603 Y-2.6906
G01 X35.4142 Y-2.7768
G01 X35.3523 Y-2.8523
G01 X35.2768 Y-2.9142
G01 X35.1906 Y-2.9603
G01 X35.0972 Y-2.9886
G01 X35.0000 Y-2.9982
G01 X34.9028 Y-2.9886
G01 X34.8094 Y-2.9603
G01 X34.7232 Y-2.9142
G01 X34.6477 Y-2.8523
G01 X34.5858 Y-2.7768
G01 X34.5397 Y-2.6906
G01 X34.5114 Y-2.5972
G01 X34.5018 Y-2.5000
G01 X34.5114 Y-2.4028
G01 X34.5397 Y-2.3094
G01 X34.5858 Y-2.2232
G01 X34.6477 Y-2.1477
G01 X34.7232 Y-2.0858
G01 X34.8094 Y-2.0397
G01 X34.9028 Y-2.0114
G01 X35.0000 Y-2.0018
G01 X35.0972 Y-2.0114
G01 X35.1906 Y-2.0397
G01 X35.2768 Y-2.0858
G01 X35.3523 Y-2.1477
G01 X35.4142 Y-2.2232
G01 X35.4603 Y-2.3094
G01 X35.4886 Y-2.4028
G01 X35.4982 Y-2.5000
G00 Z2.0000
M05
G00 Z2.0000
G00 Z2.00


