(G-code generated by FlatCAM Evo vUnstable - Version Date: 2023/6/31)

(Name: Alignment Drills_exc_cnc_cnc)
(Type: G-code from Geometry)
(Units: MM)

(Created on Thursday, 25 September 2025 at 14:43)

(This preprocessor is the default preprocessor.)
(It is made to work with MACH3 compatible motion controllers.)

(TOOL DIAMETER: 2.4 mm)
(Feedrate_XY: 100.0 mm/min)
(Feedrate_Z: 50.0 mm/min)
(Feedrate rapids 1500.0 mm/min)

(Z_Cut: -5.7 mm)
(DepthPerCut: 0.8 mm <=>8 passes)
(Z_Move: 2.0 mm)
(Z Start: None mm)
(Z End: 2.0 mm)
(X,Y End: None mm)
(Steps per circle: 16)
(Preprocessor Geometry: default)

(X range:    1.0000 ...   37.0000  mm)
(Y range:    0.5000 ...   34.0000  mm)

(Spindle Speed: 0.0 RPM)
G21
G90
G94

G01 F100.00
G00 Z2.0000

M03
G4 P1.0
G01 F100.00
G00 X3.7986 Y2.5000
G01 F50.00
G01 Z-0.8000
G01 F100.00
G01 X3.7832 Y2.3442
G01 X3.7378 Y2.1944
G01 X3.6640 Y2.0563
G01 X3.5647 Y1.9353
G01 X3.4437 Y1.8360
G01 X3.3056 Y1.7622
G01 X3.1558 Y1.7168
G01 X3.0000 Y1.7014
G01 X2.8442 Y1.7168
G01 X2.6944 Y1.7622
G01 X2.5563 Y1.8360
G01 X2.4353 Y1.9353
G01 X2.3360 Y2.0563
G01 X2.2622 Y2.1944
G01 X2.2168 Y2.3442
G01 X2.2014 Y2.5000
G01 X2.2168 Y2.6558
G01 X2.2622 Y2.8056
G01 X2.3360 Y2.9437
G01 X2.4353 Y3.0647
G01 X2.5563 Y3.1640
G01 X2.6944 Y3.2378
G01 X2.8442 Y3.2832
G01 X3.0000 Y3.2986
G01 X3.1558 Y3.2832
G01 X3.3056 Y3.2378
G01 X3.4437 Y3.1640
G01 X3.5647 Y3.0647
G01 X3.6640 Y2.9437
G01 X3.7378 Y2.8056
G01 X3.7832 Y2.6558
G01 X3.7986 Y2.5000
G00 X3.7986 Y2.5000
G01 F50.00
G01 Z-1.6000
G01 F100.00
G01 X3.7832 Y2.6558
G01 X3.7378 Y2.8056
G01 X3.6640 Y2.9437
G01 X3.5647 Y3.0647
G01 X3.4437 Y3.1640
G01 X3.3056 Y3.2378
G01 X3.1558 Y3.2832
G01 X3.0000 Y3.2986
G01 X2.8442 Y3.2832
G01 X2.6944 Y3.2378
G01 X2.5563 Y3.1640
G01 X2.4353 Y3.0647
G01 X2.3360 Y2.9437
G01 X2.2622 Y2.8056
G01 X2.2168 Y2.6558
G01 X2.2014 Y2.5000
G01 X2.2168 Y2.3442
G01 X2.2622 Y2.1944
G01 X2.3360 Y2.0563
G01 X2.4353 Y1.9353
G01 X2.5563 Y1.8360
G01 X2.6944 Y1.7622
G01 X2.8442 Y1.7168
G01 X3.0000 Y1.7014
G01 X3.1558 Y1.7168
G01 X3.3056 Y1.7622
G01 X3.4437 Y1.8360
G01 X3.5647 Y1.9353
G01 X3.6640 Y2.0563
G01 X3.7378 Y2.1944
G01 X3.7832 Y2.3442
G01 X3.7986 Y2.5000
G00 X3.7986 Y2.5000
G01 F50.00
G01 Z-2.4000
G01 F100.00
G01 X3.7832 Y2.3442
G01 X3.7378 Y2.1944
G01 X3.6640 Y2.0563
G01 X3.5647 Y1.9353
G01 X3.4437 Y1.8360
G01 X3.3056 Y1.7622
G01 X3.1558 Y1.7168
G01 X3.0000 Y1.7014
G01 X2.8442 Y1.7168
G01 X2.6944 Y1.7622
G01 X2.5563 Y1.8360
G01 X2.4353 Y1.9353
G01 X2.3360 Y2.0563
G01 X2.2622 Y2.1944
G01 X2.2168 Y2.3442
G01 X2.2014 Y2.5000
G01 X2.2168 Y2.6558
G01 X2.2622 Y2.8056
G01 X2.3360 Y2.9437
G01 X2.4353 Y3.0647
G01 X2.5563 Y3.1640
G01 X2.6944 Y3.2378
G01 X2.8442 Y3.2832
G01 X3.0000 Y3.2986
G01 X3.1558 Y3.2832
G01 X3.3056 Y3.2378
G01 X3.4437 Y3.1640
G01 X3.5647 Y3.0647
G01 X3.6640 Y2.9437
G01 X3.7378 Y2.8056
G01 X3.7832 Y2.6558
G01 X3.7986 Y2.5000
G00 X3.7986 Y2.5000
G01 F50.00
G01 Z-3.2000
G01 F100.00
G01 X3.7832 Y2.6558
G01 X3.7378 Y2.8056
G01 X3.6640 Y2.9437
G01 X3.5647 Y3.0647
G01 X3.4437 Y3.1640
G01 X3.3056 Y3.2378
G01 X3.1558 Y3.2832
G01 X3.0000 Y3.2986
G01 X2.8442 Y3.2832
G01 X2.6944 Y3.2378
G01 X2.5563 Y3.1640
G01 X2.4353 Y3.0647
G01 X2.3360 Y2.9437
G01 X2.2622 Y2.8056
G01 X2.2168 Y2.6558
G01 X2.2014 Y2.5000
G01 X2.2168 Y2.3442
G01 X2.2622 Y2.1944
G01 X2.3360 Y2.0563
G01 X2.4353 Y1.9353
G01 X2.5563 Y1.8360
G01 X2.6944 Y1.7622
G01 X2.8442 Y1.7168
G01 X3.0000 Y1.7014
G01 X3.1558 Y1.7168
G01 X3.3056 Y1.7622
G01 X3.4437 Y1.8360
G01 X3.5647 Y1.9353
G01 X3.6640 Y2.0563
G01 X3.7378 Y2.1944
G01 X3.7832 Y2.3442
G01 X3.7986 Y2.5000
G00 X3.7986 Y2.5000
G01 F50.00
G01 Z-4.0000
G01 F100.00
G01 X3.7832 Y2.3442
G01 X3.7378 Y2.1944
G01 X3.6640 Y2.0563
G01 X3.5647 Y1.9353
G01 X3.4437 Y1.8360
G01 X3.3056 Y1.7622
G01 X3.1558 Y1.7168
G01 X3.0000 Y1.7014
G01 X2.8442 Y1.7168
G01 X2.6944 Y1.7622
G01 X2.5563 Y1.8360
G01 X2.4353 Y1.9353
G01 X2.3360 Y2.0563
G01 X2.2622 Y2.1944
G01 X2.2168 Y2.3442
G01 X2.2014 Y2.5000
G01 X2.2168 Y2.6558
G01 X2.2622 Y2.8056
G01 X2.3360 Y2.9437
G01 X2.4353 Y3.0647
G01 X2.5563 Y3.1640
G01 X2.6944 Y3.2378
G01 X2.8442 Y3.2832
G01 X3.0000 Y3.2986
G01 X3.1558 Y3.2832
G01 X3.3056 Y3.2378
G01 X3.4437 Y3.1640
G01 X3.5647 Y3.0647
G01 X3.6640 Y2.9437
G01 X3.7378 Y2.8056
G01 X3.7832 Y2.6558
G01 X3.7986 Y2.5000
G00 X3.7986 Y2.5000
G01 F50.00
G01 Z-4.8000
G01 F100.00
G01 X3.7832 Y2.6558
G01 X3.7378 Y2.8056
G01 X3.6640 Y2.9437
G01 X3.5647 Y3.0647
G01 X3.4437 Y3.1640
G01 X3.3056 Y3.2378
G01 X3.1558 Y3.2832
G01 X3.0000 Y3.2986
G01 X2.8442 Y3.2832
G01 X2.6944 Y3.2378
G01 X2.5563 Y3.1640
G01 X2.4353 Y3.0647
G01 X2.3360 Y2.9437
G01 X2.2622 Y2.8056
G01 X2.2168 Y2.6558
G01 X2.2014 Y2.5000
G01 X2.2168 Y2.3442
G01 X2.2622 Y2.1944
G01 X2.3360 Y2.0563
G01 X2.4353 Y1.9353
G01 X2.5563 Y1.8360
G01 X2.6944 Y1.7622
G01 X2.8442 Y1.7168
G01 X3.0000 Y1.7014
G01 X3.1558 Y1.7168
G01 X3.3056 Y1.7622
G01 X3.4437 Y1.8360
G01 X3.5647 Y1.9353
G01 X3.6640 Y2.0563
G01 X3.7378 Y2.1944
G01 X3.7832 Y2.3442
G01 X3.7986 Y2.5000
G00 X3.7986 Y2.5000
G01 F50.00
G01 Z-5.6000
G01 F100.00
G01 X3.7832 Y2.3442
G01 X3.7378 Y2.1944
G01 X3.6640 Y2.0563
G01 X3.5647 Y1.9353
G01 X3.4437 Y1.8360
G01 X3.3056 Y1.7622
G01 X3.1558 Y1.7168
G01 X3.0000 Y1.7014
G01 X2.8442 Y1.7168
G01 X2.6944 Y1.7622
G01 X2.5563 Y1.8360
G01 X2.4353 Y1.9353
G01 X2.3360 Y2.0563
G01 X2.2622 Y2.1944
G01 X2.2168 Y2.3442
G01 X2.2014 Y2.5000
G01 X2.2168 Y2.6558
G01 X2.2622 Y2.8056
G01 X2.3360 Y2.9437
G01 X2.4353 Y3.0647
G01 X2.5563 Y3.1640
G01 X2.6944 Y3.2378
G01 X2.8442 Y3.2832
G01 X3.0000 Y3.2986
G01 X3.1558 Y3.2832
G01 X3.3056 Y3.2378
G01 X3.4437 Y3.1640
G01 X3.5647 Y3.0647
G01 X3.6640 Y2.9437
G01 X3.7378 Y2.8056
G01 X3.7832 Y2.6558
G01 X3.7986 Y2.5000
G00 X3.7986 Y2.5000
G01 F50.00
G01 Z-5.7000
G01 F100.00
G01 X3.7832 Y2.6558
G01 X3.7378 Y2.8056
G01 X3.6640 Y2.9437
G01 X3.5647 Y3.0647
G01 X3.4437 Y3.1640
G01 X3.3056 Y3.2378
G01 X3.1558 Y3.2832
G01 X3.0000 Y3.2986
G01 X2.8442 Y3.2832
G01 X2.6944 Y3.2378
G01 X2.5563 Y3.1640
G01 X2.4353 Y3.0647
G01 X2.3360 Y2.9437
G01 X2.2622 Y2.8056
G01 X2.2168 Y2.6558
G01 X2.2014 Y2.5000
G01 X2.2168 Y2.3442
G01 X2.2622 Y2.1944
G01 X2.3360 Y2.0563
G01 X2.4353 Y1.9353
G01 X2.5563 Y1.8360
G01 X2.6944 Y1.7622
G01 X2.8442 Y1.7168
G01 X3.0000 Y1.7014
G01 X3.1558 Y1.7168
G01 X3.3056 Y1.7622
G01 X3.4437 Y1.8360
G01 X3.5647 Y1.9353
G01 X3.6640 Y2.0563
G01 X3.7378 Y2.1944
G01 X3.7832 Y2.3442
G01 X3.7986 Y2.5000
G00 Z2.0000
G00 X3.7986 Y32.0000
G01 F50.00
G01 Z-0.8000
G01 F100.00
G01 X3.7832 Y31.8442
G01 X3.7378 Y31.6944
G01 X3.6640 Y31.5563
G01 X3.5647 Y31.4353
G01 X3.4437 Y31.3360
G01 X3.3056 Y31.2622
G01 X3.1558 Y31.2168
G01 X3.0000 Y31.2014
G01 X2.8442 Y31.2168
G01 X2.6944 Y31.2622
G01 X2.5563 Y31.3360
G01 X2.4353 Y31.4353
G01 X2.3360 Y31.5563
G01 X2.2622 Y31.6944
G01 X2.2168 Y31.8442
G01 X2.2014 Y32.0000
G01 X2.2168 Y32.1558
G01 X2.2622 Y32.3056
G01 X2.3360 Y32.4437
G01 X2.4353 Y32.5647
G01 X2.5563 Y32.6640
G01 X2.6944 Y32.7378
G01 X2.8442 Y32.7832
G01 X3.0000 Y32.7986
G01 X3.1558 Y32.7832
G01 X3.3056 Y32.7378
G01 X3.4437 Y32.6640
G01 X3.5647 Y32.5647
G01 X3.6640 Y32.4437
G01 X3.7378 Y32.3056
G01 X3.7832 Y32.1558
G01 X3.7986 Y32.0000
G00 X3.7986 Y32.0000
G01 F50.00
G01 Z-1.6000
G01 F100.00
G01 X3.7832 Y32.1558
G01 X3.7378 Y32.3056
G01 X3.6640 Y32.4437
G01 X3.5647 Y32.5647
G01 X3.4437 Y32.6640
G01 X3.3056 Y32.7378
G01 X3.1558 Y32.7832
G01 X3.0000 Y32.7986
G01 X2.8442 Y32.7832
G01 X2.6944 Y32.7378
G01 X2.5563 Y32.6640
G01 X2.4353 Y32.5647
G01 X2.3360 Y32.4437
G01 X2.2622 Y32.3056
G01 X2.2168 Y32.1558
G01 X2.2014 Y32.0000
G01 X2.2168 Y31.8442
G01 X2.2622 Y31.6944
G01 X2.3360 Y31.5563
G01 X2.4353 Y31.4353
G01 X2.5563 Y31.3360
G01 X2.6944 Y31.2622
G01 X2.8442 Y31.2168
G01 X3.0000 Y31.2014
G01 X3.1558 Y31.2168
G01 X3.3056 Y31.2622
G01 X3.4437 Y31.3360
G01 X3.5647 Y31.4353
G01 X3.6640 Y31.5563
G01 X3.7378 Y31.6944
G01 X3.7832 Y31.8442
G01 X3.7986 Y32.0000
G00 X3.7986 Y32.0000
G01 F50.00
G01 Z-2.4000
G01 F100.00
G01 X3.7832 Y31.8442
G01 X3.7378 Y31.6944
G01 X3.6640 Y31.5563
G01 X3.5647 Y31.4353
G01 X3.4437 Y31.3360
G01 X3.3056 Y31.2622
G01 X3.1558 Y31.2168
G01 X3.0000 Y31.2014
G01 X2.8442 Y31.2168
G01 X2.6944 Y31.2622
G01 X2.5563 Y31.3360
G01 X2.4353 Y31.4353
G01 X2.3360 Y31.5563
G01 X2.2622 Y31.6944
G01 X2.2168 Y31.8442
G01 X2.2014 Y32.0000
G01 X2.2168 Y32.1558
G01 X2.2622 Y32.3056
G01 X2.3360 Y32.4437
G01 X2.4353 Y32.5647
G01 X2.5563 Y32.6640
G01 X2.6944 Y32.7378
G01 X2.8442 Y32.7832
G01 X3.0000 Y32.7986
G01 X3.1558 Y32.7832
G01 X3.3056 Y32.7378
G01 X3.4437 Y32.6640
G01 X3.5647 Y32.5647
G01 X3.6640 Y32.4437
G01 X3.7378 Y32.3056
G01 X3.7832 Y32.1558
G01 X3.7986 Y32.0000
G00 X3.7986 Y32.0000
G01 F50.00
G01 Z-3.2000
G01 F100.00
G01 X3.7832 Y32.1558
G01 X3.7378 Y32.3056
G01 X3.6640 Y32.4437
G01 X3.5647 Y32.5647
G01 X3.4437 Y32.6640
G01 X3.3056 Y32.7378
G01 X3.1558 Y32.7832
G01 X3.0000 Y32.7986
G01 X2.8442 Y32.7832
G01 X2.6944 Y32.7378
G01 X2.5563 Y32.6640
G01 X2.4353 Y32.5647
G01 X2.3360 Y32.4437
G01 X2.2622 Y32.3056
G01 X2.2168 Y32.1558
G01 X2.2014 Y32.0000
G01 X2.2168 Y31.8442
G01 X2.2622 Y31.6944
G01 X2.3360 Y31.5563
G01 X2.4353 Y31.4353
G01 X2.5563 Y31.3360
G01 X2.6944 Y31.2622
G01 X2.8442 Y31.2168
G01 X3.0000 Y31.2014
G01 X3.1558 Y31.2168
G01 X3.3056 Y31.2622
G01 X3.4437 Y31.3360
G01 X3.5647 Y31.4353
G01 X3.6640 Y31.5563
G01 X3.7378 Y31.6944
G01 X3.7832 Y31.8442
G01 X3.7986 Y32.0000
G00 X3.7986 Y32.0000
G01 F50.00
G01 Z-4.0000
G01 F100.00
G01 X3.7832 Y31.8442
G01 X3.7378 Y31.6944
G01 X3.6640 Y31.5563
G01 X3.5647 Y31.4353
G01 X3.4437 Y31.3360
G01 X3.3056 Y31.2622
G01 X3.1558 Y31.2168
G01 X3.0000 Y31.2014
G01 X2.8442 Y31.2168
G01 X2.6944 Y31.2622
G01 X2.5563 Y31.3360
G01 X2.4353 Y31.4353
G01 X2.3360 Y31.5563
G01 X2.2622 Y31.6944
G01 X2.2168 Y31.8442
G01 X2.2014 Y32.0000
G01 X2.2168 Y32.1558
G01 X2.2622 Y32.3056
G01 X2.3360 Y32.4437
G01 X2.4353 Y32.5647
G01 X2.5563 Y32.6640
G01 X2.6944 Y32.7378
G01 X2.8442 Y32.7832
G01 X3.0000 Y32.7986
G01 X3.1558 Y32.7832
G01 X3.3056 Y32.7378
G01 X3.4437 Y32.6640
G01 X3.5647 Y32.5647
G01 X3.6640 Y32.4437
G01 X3.7378 Y32.3056
G01 X3.7832 Y32.1558
G01 X3.7986 Y32.0000
G00 X3.7986 Y32.0000
G01 F50.00
G01 Z-4.8000
G01 F100.00
G01 X3.7832 Y32.1558
G01 X3.7378 Y32.3056
G01 X3.6640 Y32.4437
G01 X3.5647 Y32.5647
G01 X3.4437 Y32.6640
G01 X3.3056 Y32.7378
G01 X3.1558 Y32.7832
G01 X3.0000 Y32.7986
G01 X2.8442 Y32.7832
G01 X2.6944 Y32.7378
G01 X2.5563 Y32.6640
G01 X2.4353 Y32.5647
G01 X2.3360 Y32.4437
G01 X2.2622 Y32.3056
G01 X2.2168 Y32.1558
G01 X2.2014 Y32.0000
G01 X2.2168 Y31.8442
G01 X2.2622 Y31.6944
G01 X2.3360 Y31.5563
G01 X2.4353 Y31.4353
G01 X2.5563 Y31.3360
G01 X2.6944 Y31.2622
G01 X2.8442 Y31.2168
G01 X3.0000 Y31.2014
G01 X3.1558 Y31.2168
G01 X3.3056 Y31.2622
G01 X3.4437 Y31.3360
G01 X3.5647 Y31.4353
G01 X3.6640 Y31.5563
G01 X3.7378 Y31.6944
G01 X3.7832 Y31.8442
G01 X3.7986 Y32.0000
G00 X3.7986 Y32.0000
G01 F50.00
G01 Z-5.6000
G01 F100.00
G01 X3.7832 Y31.8442
G01 X3.7378 Y31.6944
G01 X3.6640 Y31.5563
G01 X3.5647 Y31.4353
G01 X3.4437 Y31.3360
G01 X3.3056 Y31.2622
G01 X3.1558 Y31.2168
G01 X3.0000 Y31.2014
G01 X2.8442 Y31.2168
G01 X2.6944 Y31.2622
G01 X2.5563 Y31.3360
G01 X2.4353 Y31.4353
G01 X2.3360 Y31.5563
G01 X2.2622 Y31.6944
G01 X2.2168 Y31.8442
G01 X2.2014 Y32.0000
G01 X2.2168 Y32.1558
G01 X2.2622 Y32.3056
G01 X2.3360 Y32.4437
G01 X2.4353 Y32.5647
G01 X2.5563 Y32.6640
G01 X2.6944 Y32.7378
G01 X2.8442 Y32.7832
G01 X3.0000 Y32.7986
G01 X3.1558 Y32.7832
G01 X3.3056 Y32.7378
G01 X3.4437 Y32.6640
G01 X3.5647 Y32.5647
G01 X3.6640 Y32.4437
G01 X3.7378 Y32.3056
G01 X3.7832 Y32.1558
G01 X3.7986 Y32.0000
G00 X3.7986 Y32.0000
G01 F50.00
G01 Z-5.7000
G01 F100.00
G01 X3.7832 Y32.1558
G01 X3.7378 Y32.3056
G01 X3.6640 Y32.4437
G01 X3.5647 Y32.5647
G01 X3.4437 Y32.6640
G01 X3.3056 Y32.7378
G01 X3.1558 Y32.7832
G01 X3.0000 Y32.7986
G01 X2.8442 Y32.7832
G01 X2.6944 Y32.7378
G01 X2.5563 Y32.6640
G01 X2.4353 Y32.5647
G01 X2.3360 Y32.4437
G01 X2.2622 Y32.3056
G01 X2.2168 Y32.1558
G01 X2.2014 Y32.0000
G01 X2.2168 Y31.8442
G01 X2.2622 Y31.6944
G01 X2.3360 Y31.5563
G01 X2.4353 Y31.4353
G01 X2.5563 Y31.3360
G01 X2.6944 Y31.2622
G01 X2.8442 Y31.2168
G01 X3.0000 Y31.2014
G01 X3.1558 Y31.2168
G01 X3.3056 Y31.2622
G01 X3.4437 Y31.3360
G01 X3.5647 Y31.4353
G01 X3.6640 Y31.5563
G01 X3.7378 Y31.6944
G01 X3.7832 Y31.8442
G01 X3.7986 Y32.0000
G00 Z2.0000
G00 X35.7986 Y32.0000
G01 F50.00
G01 Z-0.8000
G01 F100.00
G01 X35.7832 Y31.8442
G01 X35.7378 Y31.6944
G01 X35.6640 Y31.5563
G01 X35.5647 Y31.4353
G01 X35.4437 Y31.3360
G01 X35.3056 Y31.2622
G01 X35.1558 Y31.2168
G01 X35.0000 Y31.2014
G01 X34.8442 Y31.2168
G01 X34.6944 Y31.2622
G01 X34.5563 Y31.3360
G01 X34.4353 Y31.4353
G01 X34.3360 Y31.5563
G01 X34.2622 Y31.6944
G01 X34.2168 Y31.8442
G01 X34.2014 Y32.0000
G01 X34.2168 Y32.1558
G01 X34.2622 Y32.3056
G01 X34.3360 Y32.4437
G01 X34.4353 Y32.5647
G01 X34.5563 Y32.6640
G01 X34.6944 Y32.7378
G01 X34.8442 Y32.7832
G01 X35.0000 Y32.7986
G01 X35.1558 Y32.7832
G01 X35.3056 Y32.7378
G01 X35.4437 Y32.6640
G01 X35.5647 Y32.5647
G01 X35.6640 Y32.4437
G01 X35.7378 Y32.3056
G01 X35.7832 Y32.1558
G01 X35.7986 Y32.0000
G00 X35.7986 Y32.0000
G01 F50.00
G01 Z-1.6000
G01 F100.00
G01 X35.7832 Y32.1558
G01 X35.7378 Y32.3056
G01 X35.6640 Y32.4437
G01 X35.5647 Y32.5647
G01 X35.4437 Y32.6640
G01 X35.3056 Y32.7378
G01 X35.1558 Y32.7832
G01 X35.0000 Y32.7986
G01 X34.8442 Y32.7832
G01 X34.6944 Y32.7378
G01 X34.5563 Y32.6640
G01 X34.4353 Y32.5647
G01 X34.3360 Y32.4437
G01 X34.2622 Y32.3056
G01 X34.2168 Y32.1558
G01 X34.2014 Y32.0000
G01 X34.2168 Y31.8442
G01 X34.2622 Y31.6944
G01 X34.3360 Y31.5563
G01 X34.4353 Y31.4353
G01 X34.5563 Y31.3360
G01 X34.6944 Y31.2622
G01 X34.8442 Y31.2168
G01 X35.0000 Y31.2014
G01 X35.1558 Y31.2168
G01 X35.3056 Y31.2622
G01 X35.4437 Y31.3360
G01 X35.5647 Y31.4353
G01 X35.6640 Y31.5563
G01 X35.7378 Y31.6944
G01 X35.7832 Y31.8442
G01 X35.7986 Y32.0000
G00 X35.7986 Y32.0000
G01 F50.00
G01 Z-2.4000
G01 F100.00
G01 X35.7832 Y31.8442
G01 X35.7378 Y31.6944
G01 X35.6640 Y31.5563
G01 X35.5647 Y31.4353
G01 X35.4437 Y31.3360
G01 X35.3056 Y31.2622
G01 X35.1558 Y31.2168
G01 X35.0000 Y31.2014
G01 X34.8442 Y31.2168
G01 X34.6944 Y31.2622
G01 X34.5563 Y31.3360
G01 X34.4353 Y31.4353
G01 X34.3360 Y31.5563
G01 X34.2622 Y31.6944
G01 X34.2168 Y31.8442
G01 X34.2014 Y32.0000
G01 X34.2168 Y32.1558
G01 X34.2622 Y32.3056
G01 X34.3360 Y32.4437
G01 X34.4353 Y32.5647
G01 X34.5563 Y32.6640
G01 X34.6944 Y32.7378
G01 X34.8442 Y32.7832
G01 X35.0000 Y32.7986
G01 X35.1558 Y32.7832
G01 X35.3056 Y32.7378
G01 X35.4437 Y32.6640
G01 X35.5647 Y32.5647
G01 X35.6640 Y32.4437
G01 X35.7378 Y32.3056
G01 X35.7832 Y32.1558
G01 X35.7986 Y32.0000
G00 X35.7986 Y32.0000
G01 F50.00
G01 Z-3.2000
G01 F100.00
G01 X35.7832 Y32.1558
G01 X35.7378 Y32.3056
G01 X35.6640 Y32.4437
G01 X35.5647 Y32.5647
G01 X35.4437 Y32.6640
G01 X35.3056 Y32.7378
G01 X35.1558 Y32.7832
G01 X35.0000 Y32.7986
G01 X34.8442 Y32.7832
G01 X34.6944 Y32.7378
G01 X34.5563 Y32.6640
G01 X34.4353 Y32.5647
G01 X34.3360 Y32.4437
G01 X34.2622 Y32.3056
G01 X34.2168 Y32.1558
G01 X34.2014 Y32.0000
G01 X34.2168 Y31.8442
G01 X34.2622 Y31.6944
G01 X34.3360 Y31.5563
G01 X34.4353 Y31.4353
G01 X34.5563 Y31.3360
G01 X34.6944 Y31.2622
G01 X34.8442 Y31.2168
G01 X35.0000 Y31.2014
G01 X35.1558 Y31.2168
G01 X35.3056 Y31.2622
G01 X35.4437 Y31.3360
G01 X35.5647 Y31.4353
G01 X35.6640 Y31.5563
G01 X35.7378 Y31.6944
G01 X35.7832 Y31.8442
G01 X35.7986 Y32.0000
G00 X35.7986 Y32.0000
G01 F50.00
G01 Z-4.0000
G01 F100.00
G01 X35.7832 Y31.8442
G01 X35.7378 Y31.6944
G01 X35.6640 Y31.5563
G01 X35.5647 Y31.4353
G01 X35.4437 Y31.3360
G01 X35.3056 Y31.2622
G01 X35.1558 Y31.2168
G01 X35.0000 Y31.2014
G01 X34.8442 Y31.2168
G01 X34.6944 Y31.2622
G01 X34.5563 Y31.3360
G01 X34.4353 Y31.4353
G01 X34.3360 Y31.5563
G01 X34.2622 Y31.6944
G01 X34.2168 Y31.8442
G01 X34.2014 Y32.0000
G01 X34.2168 Y32.1558
G01 X34.2622 Y32.3056
G01 X34.3360 Y32.4437
G01 X34.4353 Y32.5647
G01 X34.5563 Y32.6640
G01 X34.6944 Y32.7378
G01 X34.8442 Y32.7832
G01 X35.0000 Y32.7986
G01 X35.1558 Y32.7832
G01 X35.3056 Y32.7378
G01 X35.4437 Y32.6640
G01 X35.5647 Y32.5647
G01 X35.6640 Y32.4437
G01 X35.7378 Y32.3056
G01 X35.7832 Y32.1558
G01 X35.7986 Y32.0000
G00 X35.7986 Y32.0000
G01 F50.00
G01 Z-4.8000
G01 F100.00
G01 X35.7832 Y32.1558
G01 X35.7378 Y32.3056
G01 X35.6640 Y32.4437
G01 X35.5647 Y32.5647
G01 X35.4437 Y32.6640
G01 X35.3056 Y32.7378
G01 X35.1558 Y32.7832
G01 X35.0000 Y32.7986
G01 X34.8442 Y32.7832
G01 X34.6944 Y32.7378
G01 X34.5563 Y32.6640
G01 X34.4353 Y32.5647
G01 X34.3360 Y32.4437
G01 X34.2622 Y32.3056
G01 X34.2168 Y32.1558
G01 X34.2014 Y32.0000
G01 X34.2168 Y31.8442
G01 X34.2622 Y31.6944
G01 X34.3360 Y31.5563
G01 X34.4353 Y31.4353
G01 X34.5563 Y31.3360
G01 X34.6944 Y31.2622
G01 X34.8442 Y31.2168
G01 X35.0000 Y31.2014
G01 X35.1558 Y31.2168
G01 X35.3056 Y31.2622
G01 X35.4437 Y31.3360
G01 X35.5647 Y31.4353
G01 X35.6640 Y31.5563
G01 X35.7378 Y31.6944
G01 X35.7832 Y31.8442
G01 X35.7986 Y32.0000
G00 X35.7986 Y32.0000
G01 F50.00
G01 Z-5.6000
G01 F100.00
G01 X35.7832 Y31.8442
G01 X35.7378 Y31.6944
G01 X35.6640 Y31.5563
G01 X35.5647 Y31.4353
G01 X35.4437 Y31.3360
G01 X35.3056 Y31.2622
G01 X35.1558 Y31.2168
G01 X35.0000 Y31.2014
G01 X34.8442 Y31.2168
G01 X34.6944 Y31.2622
G01 X34.5563 Y31.3360
G01 X34.4353 Y31.4353
G01 X34.3360 Y31.5563
G01 X34.2622 Y31.6944
G01 X34.2168 Y31.8442
G01 X34.2014 Y32.0000
G01 X34.2168 Y32.1558
G01 X34.2622 Y32.3056
G01 X34.3360 Y32.4437
G01 X34.4353 Y32.5647
G01 X34.5563 Y32.6640
G01 X34.6944 Y32.7378
G01 X34.8442 Y32.7832
G01 X35.0000 Y32.7986
G01 X35.1558 Y32.7832
G01 X35.3056 Y32.7378
G01 X35.4437 Y32.6640
G01 X35.5647 Y32.5647
G01 X35.6640 Y32.4437
G01 X35.7378 Y32.3056
G01 X35.7832 Y32.1558
G01 X35.7986 Y32.0000
G00 X35.7986 Y32.0000
G01 F50.00
G01 Z-5.7000
G01 F100.00
G01 X35.7832 Y32.1558
G01 X35.7378 Y32.3056
G01 X35.6640 Y32.4437
G01 X35.5647 Y32.5647
G01 X35.4437 Y32.6640
G01 X35.3056 Y32.7378
G01 X35.1558 Y32.7832
G01 X35.0000 Y32.7986
G01 X34.8442 Y32.7832
G01 X34.6944 Y32.7378
G01 X34.5563 Y32.6640
G01 X34.4353 Y32.5647
G01 X34.3360 Y32.4437
G01 X34.2622 Y32.3056
G01 X34.2168 Y32.1558
G01 X34.2014 Y32.0000
G01 X34.2168 Y31.8442
G01 X34.2622 Y31.6944
G01 X34.3360 Y31.5563
G01 X34.4353 Y31.4353
G01 X34.5563 Y31.3360
G01 X34.6944 Y31.2622
G01 X34.8442 Y31.2168
G01 X35.0000 Y31.2014
G01 X35.1558 Y31.2168
G01 X35.3056 Y31.2622
G01 X35.4437 Y31.3360
G01 X35.5647 Y31.4353
G01 X35.6640 Y31.5563
G01 X35.7378 Y31.6944
G01 X35.7832 Y31.8442
G01 X35.7986 Y32.0000
G00 Z2.0000
G00 X35.7986 Y2.5000
G01 F50.00
G01 Z-0.8000
G01 F100.00
G01 X35.7832 Y2.3442
G01 X35.7378 Y2.1944
G01 X35.6640 Y2.0563
G01 X35.5647 Y1.9353
G01 X35.4437 Y1.8360
G01 X35.3056 Y1.7622
G01 X35.1558 Y1.7168
G01 X35.0000 Y1.7014
G01 X34.8442 Y1.7168
G01 X34.6944 Y1.7622
G01 X34.5563 Y1.8360
G01 X34.4353 Y1.9353
G01 X34.3360 Y2.0563
G01 X34.2622 Y2.1944
G01 X34.2168 Y2.3442
G01 X34.2014 Y2.5000
G01 X34.2168 Y2.6558
G01 X34.2622 Y2.8056
G01 X34.3360 Y2.9437
G01 X34.4353 Y3.0647
G01 X34.5563 Y3.1640
G01 X34.6944 Y3.2378
G01 X34.8442 Y3.2832
G01 X35.0000 Y3.2986
G01 X35.1558 Y3.2832
G01 X35.3056 Y3.2378
G01 X35.4437 Y3.1640
G01 X35.5647 Y3.0647
G01 X35.6640 Y2.9437
G01 X35.7378 Y2.8056
G01 X35.7832 Y2.6558
G01 X35.7986 Y2.5000
G00 X35.7986 Y2.5000
G01 F50.00
G01 Z-1.6000
G01 F100.00
G01 X35.7832 Y2.6558
G01 X35.7378 Y2.8056
G01 X35.6640 Y2.9437
G01 X35.5647 Y3.0647
G01 X35.4437 Y3.1640
G01 X35.3056 Y3.2378
G01 X35.1558 Y3.2832
G01 X35.0000 Y3.2986
G01 X34.8442 Y3.2832
G01 X34.6944 Y3.2378
G01 X34.5563 Y3.1640
G01 X34.4353 Y3.0647
G01 X34.3360 Y2.9437
G01 X34.2622 Y2.8056
G01 X34.2168 Y2.6558
G01 X34.2014 Y2.5000
G01 X34.2168 Y2.3442
G01 X34.2622 Y2.1944
G01 X34.3360 Y2.0563
G01 X34.4353 Y1.9353
G01 X34.5563 Y1.8360
G01 X34.6944 Y1.7622
G01 X34.8442 Y1.7168
G01 X35.0000 Y1.7014
G01 X35.1558 Y1.7168
G01 X35.3056 Y1.7622
G01 X35.4437 Y1.8360
G01 X35.5647 Y1.9353
G01 X35.6640 Y2.0563
G01 X35.7378 Y2.1944
G01 X35.7832 Y2.3442
G01 X35.7986 Y2.5000
G00 X35.7986 Y2.5000
G01 F50.00
G01 Z-2.4000
G01 F100.00
G01 X35.7832 Y2.3442
G01 X35.7378 Y2.1944
G01 X35.6640 Y2.0563
G01 X35.5647 Y1.9353
G01 X35.4437 Y1.8360
G01 X35.3056 Y1.7622
G01 X35.1558 Y1.7168
G01 X35.0000 Y1.7014
G01 X34.8442 Y1.7168
G01 X34.6944 Y1.7622
G01 X34.5563 Y1.8360
G01 X34.4353 Y1.9353
G01 X34.3360 Y2.0563
G01 X34.2622 Y2.1944
G01 X34.2168 Y2.3442
G01 X34.2014 Y2.5000
G01 X34.2168 Y2.6558
G01 X34.2622 Y2.8056
G01 X34.3360 Y2.9437
G01 X34.4353 Y3.0647
G01 X34.5563 Y3.1640
G01 X34.6944 Y3.2378
G01 X34.8442 Y3.2832
G01 X35.0000 Y3.2986
G01 X35.1558 Y3.2832
G01 X35.3056 Y3.2378
G01 X35.4437 Y3.1640
G01 X35.5647 Y3.0647
G01 X35.6640 Y2.9437
G01 X35.7378 Y2.8056
G01 X35.7832 Y2.6558
G01 X35.7986 Y2.5000
G00 X35.7986 Y2.5000
G01 F50.00
G01 Z-3.2000
G01 F100.00
G01 X35.7832 Y2.6558
G01 X35.7378 Y2.8056
G01 X35.6640 Y2.9437
G01 X35.5647 Y3.0647
G01 X35.4437 Y3.1640
G01 X35.3056 Y3.2378
G01 X35.1558 Y3.2832
G01 X35.0000 Y3.2986
G01 X34.8442 Y3.2832
G01 X34.6944 Y3.2378
G01 X34.5563 Y3.1640
G01 X34.4353 Y3.0647
G01 X34.3360 Y2.9437
G01 X34.2622 Y2.8056
G01 X34.2168 Y2.6558
G01 X34.2014 Y2.5000
G01 X34.2168 Y2.3442
G01 X34.2622 Y2.1944
G01 X34.3360 Y2.0563
G01 X34.4353 Y1.9353
G01 X34.5563 Y1.8360
G01 X34.6944 Y1.7622
G01 X34.8442 Y1.7168
G01 X35.0000 Y1.7014
G01 X35.1558 Y1.7168
G01 X35.3056 Y1.7622
G01 X35.4437 Y1.8360
G01 X35.5647 Y1.9353
G01 X35.6640 Y2.0563
G01 X35.7378 Y2.1944
G01 X35.7832 Y2.3442
G01 X35.7986 Y2.5000
G00 X35.7986 Y2.5000
G01 F50.00
G01 Z-4.0000
G01 F100.00
G01 X35.7832 Y2.3442
G01 X35.7378 Y2.1944
G01 X35.6640 Y2.0563
G01 X35.5647 Y1.9353
G01 X35.4437 Y1.8360
G01 X35.3056 Y1.7622
G01 X35.1558 Y1.7168
G01 X35.0000 Y1.7014
G01 X34.8442 Y1.7168
G01 X34.6944 Y1.7622
G01 X34.5563 Y1.8360
G01 X34.4353 Y1.9353
G01 X34.3360 Y2.0563
G01 X34.2622 Y2.1944
G01 X34.2168 Y2.3442
G01 X34.2014 Y2.5000
G01 X34.2168 Y2.6558
G01 X34.2622 Y2.8056
G01 X34.3360 Y2.9437
G01 X34.4353 Y3.0647
G01 X34.5563 Y3.1640
G01 X34.6944 Y3.2378
G01 X34.8442 Y3.2832
G01 X35.0000 Y3.2986
G01 X35.1558 Y3.2832
G01 X35.3056 Y3.2378
G01 X35.4437 Y3.1640
G01 X35.5647 Y3.0647
G01 X35.6640 Y2.9437
G01 X35.7378 Y2.8056
G01 X35.7832 Y2.6558
G01 X35.7986 Y2.5000
G00 X35.7986 Y2.5000
G01 F50.00
G01 Z-4.8000
G01 F100.00
G01 X35.7832 Y2.6558
G01 X35.7378 Y2.8056
G01 X35.6640 Y2.9437
G01 X35.5647 Y3.0647
G01 X35.4437 Y3.1640
G01 X35.3056 Y3.2378
G01 X35.1558 Y3.2832
G01 X35.0000 Y3.2986
G01 X34.8442 Y3.2832
G01 X34.6944 Y3.2378
G01 X34.5563 Y3.1640
G01 X34.4353 Y3.0647
G01 X34.3360 Y2.9437
G01 X34.2622 Y2.8056
G01 X34.2168 Y2.6558
G01 X34.2014 Y2.5000
G01 X34.2168 Y2.3442
G01 X34.2622 Y2.1944
G01 X34.3360 Y2.0563
G01 X34.4353 Y1.9353
G01 X34.5563 Y1.8360
G01 X34.6944 Y1.7622
G01 X34.8442 Y1.7168
G01 X35.0000 Y1.7014
G01 X35.1558 Y1.7168
G01 X35.3056 Y1.7622
G01 X35.4437 Y1.8360
G01 X35.5647 Y1.9353
G01 X35.6640 Y2.0563
G01 X35.7378 Y2.1944
G01 X35.7832 Y2.3442
G01 X35.7986 Y2.5000
G00 X35.7986 Y2.5000
G01 F50.00
G01 Z-5.6000
G01 F100.00
G01 X35.7832 Y2.3442
G01 X35.7378 Y2.1944
G01 X35.6640 Y2.0563
G01 X35.5647 Y1.9353
G01 X35.4437 Y1.8360
G01 X35.3056 Y1.7622
G01 X35.1558 Y1.7168
G01 X35.0000 Y1.7014
G01 X34.8442 Y1.7168
G01 X34.6944 Y1.7622
G01 X34.5563 Y1.8360
G01 X34.4353 Y1.9353
G01 X34.3360 Y2.0563
G01 X34.2622 Y2.1944
G01 X34.2168 Y2.3442
G01 X34.2014 Y2.5000
G01 X34.2168 Y2.6558
G01 X34.2622 Y2.8056
G01 X34.3360 Y2.9437
G01 X34.4353 Y3.0647
G01 X34.5563 Y3.1640
G01 X34.6944 Y3.2378
G01 X34.8442 Y3.2832
G01 X35.0000 Y3.2986
G01 X35.1558 Y3.2832
G01 X35.3056 Y3.2378
G01 X35.4437 Y3.1640
G01 X35.5647 Y3.0647
G01 X35.6640 Y2.9437
G01 X35.7378 Y2.8056
G01 X35.7832 Y2.6558
G01 X35.7986 Y2.5000
G00 X35.7986 Y2.5000
G01 F50.00
G01 Z-5.7000
G01 F100.00
G01 X35.7832 Y2.6558
G01 X35.7378 Y2.8056
G01 X35.6640 Y2.9437
G01 X35.5647 Y3.0647
G01 X35.4437 Y3.1640
G01 X35.3056 Y3.2378
G01 X35.1558 Y3.2832
G01 X35.0000 Y3.2986
G01 X34.8442 Y3.2832
G01 X34.6944 Y3.2378
G01 X34.5563 Y3.1640
G01 X34.4353 Y3.0647
G01 X34.3360 Y2.9437
G01 X34.2622 Y2.8056
G01 X34.2168 Y2.6558
G01 X34.2014 Y2.5000
G01 X34.2168 Y2.3442
G01 X34.2622 Y2.1944
G01 X34.3360 Y2.0563
G01 X34.4353 Y1.9353
G01 X34.5563 Y1.8360
G01 X34.6944 Y1.7622
G01 X34.8442 Y1.7168
G01 X35.0000 Y1.7014
G01 X35.1558 Y1.7168
G01 X35.3056 Y1.7622
G01 X35.4437 Y1.8360
G01 X35.5647 Y1.9353
G01 X35.6640 Y2.0563
G01 X35.7378 Y2.1944
G01 X35.7832 Y2.3442
G01 X35.7986 Y2.5000
G00 Z2.0000
M05
G00 Z2.0000
G00 Z2.00


