(G-code generated by FlatCAM Evo vUnstable - Version Date: 2023/6/31)

(Name: Toolhead PCB-F_Cu.gbr_iso_combined_cnc)
(Type: G-code from Geometry)
(Units: MM)

(Created on Wednesday, 24 September 2025 at 14:48)

(This preprocessor is the default preprocessor.)
(It is made to work with MACH3 compatible motion controllers.)

(TOOL DIAMETER: 0.2536 mm)
(Feedrate_XY: 100.0 mm/min)
(Feedrate_Z: 50.0 mm/min)
(Feedrate rapids 1500.0 mm/min)

(Z_Cut: -0.1 mm)
(Z_Move: 2.0 mm)
(Z Start: None mm)
(Z End: 2.0 mm)
(X,Y End: None mm)
(Steps per circle: 16)
(Preprocessor Geometry: default)

(X range:    1.1253 ...   36.8297  mm)
(Y range:    2.3303 ...   23.9302  mm)

(Spindle Speed: 0.0 RPM)
G21
G90
G94

G01 F100.00
G00 Z2.0000

M03
G4 P1.0
G01 F100.00
G00 X3.0158 Y4.9102
G01 F50.00
G01 Z-0.1000
G01 F100.00
G01 X2.8876 Y4.9411
G01 X2.7786 Y4.9801
G01 X2.6739 Y5.0296
G01 X2.5614 Y5.0984
G01 X2.4694 Y5.1687
G01 X2.3287 Y5.3094
G01 X2.2491 Y5.4146
G01 X2.1896 Y5.5139
G01 X2.1401 Y5.6186
G01 X2.0968 Y5.7432
G01 X2.0580 Y5.9383
G01 X2.0507 Y6.0538
G01 X2.0560 Y6.1856
G01 X2.0730 Y6.3001
G01 X2.1011 Y6.4124
G01 X2.1401 Y6.5214
G01 X2.1896 Y6.6261
G01 X2.2491 Y6.7254
G01 X2.3181 Y6.8184
G01 X2.4076 Y6.9153
G01 X2.4944 Y6.9919
G01 X2.6598 Y7.1024
G01 X2.7786 Y7.1599
G01 X2.8722 Y7.1938
G01 X2.9999 Y7.2270
G01 X3.1144 Y7.2440
G01 X3.5381 Y7.2496
G01 X3.6456 Y7.2440
G01 X3.7601 Y7.2270
G01 X3.8724 Y7.1989
G01 X3.9814 Y7.1599
G01 X4.0861 Y7.1104
G01 X4.1854 Y7.0509
G01 X4.2784 Y6.9819
G01 X4.3642 Y6.9042
G01 X4.4419 Y6.8184
G01 X4.5109 Y6.7254
G01 X4.5704 Y6.6261
G01 X4.6199 Y6.5214
G01 X4.6589 Y6.4124
G01 X4.6870 Y6.3001
G01 X4.7040 Y6.1856
G01 X4.7097 Y6.0700
G01 X4.7040 Y5.9544
G01 X4.6870 Y5.8399
G01 X4.6589 Y5.7276
G01 X4.6199 Y5.6186
G01 X4.5704 Y5.5139
G01 X4.5109 Y5.4146
G01 X4.4419 Y5.3216
G01 X4.3642 Y5.2358
G01 X4.2784 Y5.1581
G01 X4.1854 Y5.0891
G01 X4.0861 Y5.0296
G01 X3.9814 Y4.9801
G01 X3.8724 Y4.9411
G01 X3.7759 Y4.9165
G01 X3.6295 Y4.8948
G01 X3.2219 Y4.8904
G01 X3.0158 Y4.9102
G00 Z2.0000
G00 X3.0456 Y5.1109
G01 F50.00
G01 Z-0.1000
G01 F100.00
G01 X2.9464 Y5.1353
G01 X2.8505 Y5.1701
G01 X2.7641 Y5.2116
G01 X2.6152 Y5.3111
G01 X2.5393 Y5.3793
G01 X2.4749 Y5.4503
G01 X2.4178 Y5.5273
G01 X2.3657 Y5.6151
G01 X2.3253 Y5.7020
G01 X2.2733 Y5.8734
G01 X2.2579 Y5.9743
G01 X2.2532 Y6.0700
G01 X2.2579 Y6.1657
G01 X2.2733 Y6.2666
G01 X2.3253 Y6.4380
G01 X2.3685 Y6.5305
G01 X2.4749 Y6.6897
G01 X2.5393 Y6.7607
G01 X2.6152 Y6.8289
G01 X2.7641 Y6.9284
G01 X2.8505 Y6.9699
G01 X3.0334 Y7.0267
G01 X3.2269 Y7.0468
G01 X3.6257 Y7.0421
G01 X3.8136 Y7.0047
G01 X3.9905 Y6.9315
G01 X4.1497 Y6.8251
G01 X4.2851 Y6.6897
G01 X4.3915 Y6.5305
G01 X4.4647 Y6.3536
G01 X4.5021 Y6.1657
G01 X4.5021 Y5.9743
G01 X4.4647 Y5.7864
G01 X4.3915 Y5.6095
G01 X4.2851 Y5.4503
G01 X4.1544 Y5.3190
G01 X3.9959 Y5.2116
G01 X3.8980 Y5.1653
G01 X3.7266 Y5.1133
G01 X3.6195 Y5.0974
G01 X3.2269 Y5.0932
G01 X3.0456 Y5.1109
G00 Z2.0000
G00 X4.3021 Y4.5051
G01 F50.00
G01 Z-0.1000
G01 F100.00
G01 X4.3738 Y4.4572
G01 X4.4433 Y4.3793
G01 X4.4886 Y4.2853
G01 X4.5054 Y4.2007
G01 X4.5050 Y2.9331
G01 X4.4906 Y2.8606
G01 X4.4651 Y2.7979
G01 X4.3919 Y2.6993
G01 X4.3393 Y2.6567
G01 X4.2799 Y2.6244
G01 X4.1607 Y2.5946
G01 X2.6300 Y2.5932
G01 X2.5565 Y2.6004
G01 X2.4858 Y2.6219
G01 X2.4207 Y2.6567
G01 X2.3593 Y2.7081
G01 X2.3167 Y2.7607
G01 X2.2844 Y2.8201
G01 X2.2546 Y2.9393
G01 X2.2532 Y4.1700
G01 X2.2604 Y4.2435
G01 X2.2819 Y4.3142
G01 X2.3167 Y4.3793
G01 X2.3681 Y4.4407
G01 X2.4207 Y4.4833
G01 X2.4858 Y4.5181
G01 X2.5565 Y4.5396
G01 X2.6269 Y4.5468
G01 X4.1331 Y4.5468
G01 X4.2096 Y4.5382
G01 X4.3021 Y4.5051
G00 Z2.0000
G00 X4.3888 Y4.6885
G01 F50.00
G01 Z-0.1000
G01 F100.00
G01 X4.5100 Y4.6075
G01 X4.5675 Y4.5500
G01 X4.6120 Y4.4921
G01 X4.6485 Y4.4288
G01 X4.6796 Y4.3536
G01 X4.7081 Y4.2107
G01 X4.7069 Y2.9132
G01 X4.6847 Y2.8017
G01 X4.6485 Y2.7112
G01 X4.6027 Y2.6347
G01 X4.5399 Y2.5601
G01 X4.4521 Y2.4880
G01 X4.3518 Y2.4344
G01 X4.2431 Y2.4015
G01 X4.1300 Y2.3903
G01 X2.5732 Y2.3931
G01 X2.4617 Y2.4153
G01 X2.3712 Y2.4515
G01 X2.2947 Y2.4973
G01 X2.2201 Y2.5601
G01 X2.1480 Y2.6479
G01 X2.0944 Y2.7482
G01 X2.0615 Y2.8569
G01 X2.0503 Y2.9700
G01 X2.0531 Y4.2268
G01 X2.0753 Y4.3383
G01 X2.1115 Y4.4288
G01 X2.1573 Y4.5053
G01 X2.2201 Y4.5799
G01 X2.3079 Y4.6520
G01 X2.3934 Y4.6990
G01 X2.5011 Y4.7350
G01 X2.5893 Y4.7481
G01 X4.1381 Y4.7496
G01 X4.2589 Y4.7350
G01 X4.3888 Y4.6885
G00 Z2.0000
G00 X3.1271 Y12.2051
G01 F50.00
G01 Z-0.1000
G01 F100.00
G01 X3.2100 Y12.1471
G01 X3.8129 Y12.1471
G01 X3.8130 Y16.4081
G01 X3.8167 Y16.4726
G01 X3.8383 Y16.5810
G01 X3.8870 Y16.7006
G01 X3.9222 Y16.7585
G01 X3.9966 Y16.8484
G01 X6.8627 Y19.7145
G01 X6.8960 Y19.8138
G01 X6.9607 Y19.9338
G01 X7.0072 Y19.9958
G01 X7.0992 Y20.0878
G01 X7.2170 Y20.1679
G01 X7.2927 Y20.2037
G01 X7.4232 Y20.2428
G01 X7.5619 Y20.2568
G01 X8.1862 Y20.2533
G01 X8.3260 Y20.2255
G01 X8.3931 Y20.2015
G01 X8.4811 Y20.1571
G01 X11.3262 Y20.1571
G01 X11.4029 Y20.2038
G01 X11.5290 Y20.2555
G01 X11.6626 Y20.2825
G01 X11.7400 Y20.2868
G01 X11.8174 Y20.2825
G01 X11.9510 Y20.2555
G01 X12.0771 Y20.2038
G01 X12.1438 Y20.1643
G01 X12.2058 Y20.1178
G01 X12.2978 Y20.0258
G01 X12.3810 Y19.9026
G01 X12.4137 Y19.8323
G01 X12.4515 Y19.7079
G01 X12.4666 Y19.5538
G01 X12.4539 Y19.4243
G01 X12.4355 Y19.3490
G01 X12.4090 Y19.2762
G01 X12.3476 Y19.1615
G01 X12.2494 Y19.0418
G01 X12.1962 Y18.9943
G01 X12.0880 Y18.9221
G01 X11.9450 Y18.8628
G01 X11.8757 Y18.8461
G01 X11.7462 Y18.8334
G01 X11.5982 Y18.8472
G01 X11.5231 Y18.8664
G01 X11.4310 Y18.9029
G01 X8.4811 Y18.9029
G01 X8.3319 Y18.8364
G01 X8.1924 Y18.8075
G01 X7.7250 Y18.8032
G01 X5.0671 Y16.1453
G01 X5.0671 Y11.7797
G01 X5.9745 Y10.8723
G01 X6.0681 Y10.8415
G01 X6.1380 Y10.8079
G01 X6.2462 Y10.7357
G01 X6.3039 Y10.6839
G01 X6.3976 Y10.5685
G01 X6.4590 Y10.4538
G01 X6.4855 Y10.3810
G01 X6.5133 Y10.2412
G01 X6.5133 Y10.0988
G01 X6.4855 Y9.9590
G01 X6.4615 Y9.8919
G01 X6.4171 Y9.8039
G01 X6.4171 Y7.3097
G01 X9.3297 Y4.3971
G01 X13.4503 Y4.3971
G01 X14.2229 Y5.1697
G01 X14.2232 Y6.4727
G01 X14.1450 Y6.5438
G01 X14.0278 Y6.6873
G01 X13.9401 Y6.8505
G01 X13.9036 Y6.9524
G01 X13.8679 Y7.1343
G01 X13.8674 Y7.3195
G01 X13.8833 Y7.4266
G01 X13.9353 Y7.5980
G01 X13.9816 Y7.6959
G01 X14.0849 Y7.8497
G01 X14.1538 Y7.9250
G01 X14.2973 Y8.0422
G01 X14.3851 Y8.0943
G01 X14.5564 Y8.1647
G01 X14.6556 Y8.1891
G01 X14.8400 Y8.2068
G01 X15.0244 Y8.1891
G01 X15.1295 Y8.1628
G01 X15.3005 Y8.0915
G01 X15.4597 Y7.9851
G01 X15.5951 Y7.8497
G01 X15.6984 Y7.6959
G01 X15.7728 Y7.5195
G01 X15.7991 Y7.4144
G01 X15.8126 Y7.3195
G01 X15.8126 Y7.1405
G01 X15.7980 Y7.0394
G01 X15.7728 Y6.9405
G01 X15.7043 Y6.7751
G01 X15.6522 Y6.6873
G01 X15.5910 Y6.6056
G01 X15.4768 Y6.4902
G01 X15.4768 Y4.3750
G01 X15.4713 Y4.3382
G01 X15.4554 Y4.3046
G01 X15.4152 Y4.2662
G01 X15.3686 Y4.2496
G01 X15.0750 Y4.2482
G01 X14.1125 Y3.2893
G01 X14.0531 Y3.2453
G01 X13.9557 Y3.1932
G01 X13.8262 Y3.1539
G01 X13.7100 Y3.1429
G01 X9.0669 Y3.1430
G01 X8.9538 Y3.1539
G01 X8.8880 Y3.1700
G01 X8.7800 Y3.2142
G01 X8.7216 Y3.2486
G01 X8.6266 Y3.3266
G01 X5.3466 Y6.6066
G01 X5.2722 Y6.6965
G01 X5.2370 Y6.7544
G01 X5.1883 Y6.8740
G01 X5.1667 Y6.9824
G01 X5.1630 Y7.0469
G01 X5.1629 Y9.8039
G01 X5.1185 Y9.8919
G01 X5.0877 Y9.9855
G01 X4.1803 Y10.8929
G01 X3.2100 Y10.8929
G01 X3.1643 Y10.8567
G01 X3.0992 Y10.8219
G01 X3.0285 Y10.8004
G01 X2.9612 Y10.7934
G01 X1.7019 Y10.7932
G01 X1.6016 Y10.8078
G01 X1.5274 Y10.8377
G01 X1.4431 Y10.8993
G01 X1.3884 Y10.9659
G01 X1.3464 Y11.0547
G01 X1.3296 Y11.1393
G01 X1.3300 Y11.9069
G01 X1.3444 Y11.9794
G01 X1.3758 Y12.0530
G01 X1.4178 Y12.1138
G01 X1.4906 Y12.1797
G01 X1.5956 Y12.2306
G01 X1.7019 Y12.2468
G01 X2.9581 Y12.2468
G01 X3.0346 Y12.2382
G01 X3.1271 Y12.2051
G00 Z2.0000
G00 X1.8896 Y12.6054
G01 F50.00
G01 Z-0.1000
G01 F100.00
G01 X1.7851 Y12.6304
G01 X1.6844 Y12.6676
G01 X1.5522 Y12.7383
G01 X1.4652 Y12.8013
G01 X1.3865 Y12.8743
G01 X1.2913 Y12.9903
G01 X1.2351 Y13.0818
G01 X1.1903 Y13.1793
G01 X1.1467 Y13.3228
G01 X1.1298 Y13.4289
G01 X1.1257 Y13.5362
G01 X1.1404 Y13.6854
G01 X1.1654 Y13.7899
G01 X1.2026 Y13.8906
G01 X1.2733 Y14.0228
G01 X1.3364 Y14.1098
G01 X1.4652 Y14.2387
G01 X1.6168 Y14.3399
G01 X1.7851 Y14.4096
G01 X1.8736 Y14.4318
G01 X1.9800 Y14.4464
G01 X2.6131 Y14.4496
G01 X2.7704 Y14.4346
G01 X2.8749 Y14.4096
G01 X2.9756 Y14.3724
G01 X3.1078 Y14.3017
G01 X3.1948 Y14.2387
G01 X3.3236 Y14.1098
G01 X3.4249 Y13.9582
G01 X3.4946 Y13.7899
G01 X3.5302 Y13.6111
G01 X3.5302 Y13.4289
G01 X3.4946 Y13.2501
G01 X3.4249 Y13.0818
G01 X3.3236 Y12.9302
G01 X3.2070 Y12.8119
G01 X3.1078 Y12.7383
G01 X2.9608 Y12.6611
G01 X2.8022 Y12.6117
G01 X2.6961 Y12.5948
G01 X2.6050 Y12.5903
G01 X2.0469 Y12.5904
G01 X1.8896 Y12.6054
G00 Z2.0000
G00 X1.9193 Y12.8061
G01 F50.00
G01 Z-0.1000
G01 F100.00
G01 X1.7712 Y12.8510
G01 X1.6565 Y12.9124
G01 X1.5892 Y12.9622
G01 X1.4972 Y13.0542
G01 X1.4507 Y13.1162
G01 X1.4112 Y13.1829
G01 X1.3595 Y13.3090
G01 X1.3411 Y13.3843
G01 X1.3284 Y13.5138
G01 X1.3435 Y13.6679
G01 X1.3813 Y13.7923
G01 X1.4140 Y13.8626
G01 X1.4543 Y13.9289
G01 X1.5411 Y14.0339
G01 X1.6512 Y14.1243
G01 X1.7769 Y14.1915
G01 X1.9132 Y14.2328
G01 X2.0550 Y14.2468
G01 X2.6081 Y14.2468
G01 X2.7468 Y14.2328
G01 X2.8219 Y14.2136
G01 X2.9476 Y14.1610
G01 X3.0139 Y14.1207
G01 X3.1189 Y14.0339
G01 X3.2093 Y13.9238
G01 X3.2765 Y13.7981
G01 X3.3178 Y13.6618
G01 X3.3318 Y13.5200
G01 X3.3178 Y13.3782
G01 X3.2765 Y13.2419
G01 X3.2093 Y13.1162
G01 X3.1189 Y13.0061
G01 X3.0139 Y12.9193
G01 X2.9476 Y12.8790
G01 X2.8219 Y12.8264
G01 X2.7407 Y12.8061
G01 X2.6050 Y12.7932
G01 X2.0519 Y12.7932
G01 X1.9193 Y12.8061
G00 Z2.0000
G00 X1.8896 Y14.6054
G01 F50.00
G01 Z-0.1000
G01 F100.00
G01 X1.7851 Y14.6304
G01 X1.6844 Y14.6676
G01 X1.5522 Y14.7383
G01 X1.4652 Y14.8013
G01 X1.3865 Y14.8743
G01 X1.2913 Y14.9903
G01 X1.2351 Y15.0818
G01 X1.1903 Y15.1793
G01 X1.1467 Y15.3228
G01 X1.1298 Y15.4289
G01 X1.1257 Y15.5362
G01 X1.1404 Y15.6854
G01 X1.1654 Y15.7899
G01 X1.2026 Y15.8906
G01 X1.2733 Y16.0228
G01 X1.3364 Y16.1098
G01 X1.4652 Y16.2387
G01 X1.6168 Y16.3399
G01 X1.7851 Y16.4096
G01 X1.8736 Y16.4318
G01 X1.9800 Y16.4464
G01 X2.6131 Y16.4496
G01 X2.7704 Y16.4346
G01 X2.8749 Y16.4096
G01 X2.9756 Y16.3724
G01 X3.1078 Y16.3017
G01 X3.1948 Y16.2387
G01 X3.3236 Y16.1098
G01 X3.4249 Y15.9582
G01 X3.4946 Y15.7899
G01 X3.5302 Y15.6111
G01 X3.5302 Y15.4289
G01 X3.4946 Y15.2501
G01 X3.4249 Y15.0818
G01 X3.3236 Y14.9302
G01 X3.2070 Y14.8119
G01 X3.1078 Y14.7383
G01 X2.9608 Y14.6611
G01 X2.8022 Y14.6117
G01 X2.6961 Y14.5948
G01 X2.6050 Y14.5903
G01 X2.0469 Y14.5904
G01 X1.8896 Y14.6054
G00 Z2.0000
G00 X1.9193 Y14.8061
G01 F50.00
G01 Z-0.1000
G01 F100.00
G01 X1.7712 Y14.8510
G01 X1.6565 Y14.9124
G01 X1.5892 Y14.9622
G01 X1.4972 Y15.0542
G01 X1.4507 Y15.1162
G01 X1.4112 Y15.1829
G01 X1.3595 Y15.3090
G01 X1.3411 Y15.3843
G01 X1.3284 Y15.5138
G01 X1.3435 Y15.6679
G01 X1.3813 Y15.7923
G01 X1.4140 Y15.8626
G01 X1.4543 Y15.9289
G01 X1.5411 Y16.0339
G01 X1.6512 Y16.1243
G01 X1.7769 Y16.1915
G01 X1.9132 Y16.2328
G01 X2.0550 Y16.2468
G01 X2.6081 Y16.2468
G01 X2.7468 Y16.2328
G01 X2.8219 Y16.2136
G01 X2.9476 Y16.1610
G01 X3.0139 Y16.1207
G01 X3.1189 Y16.0339
G01 X3.2093 Y15.9238
G01 X3.2765 Y15.7981
G01 X3.3178 Y15.6618
G01 X3.3318 Y15.5200
G01 X3.3178 Y15.3782
G01 X3.2765 Y15.2419
G01 X3.2093 Y15.1162
G01 X3.1189 Y15.0061
G01 X3.0139 Y14.9193
G01 X2.9476 Y14.8790
G01 X2.8219 Y14.8264
G01 X2.7407 Y14.8061
G01 X2.6050 Y14.7932
G01 X2.0519 Y14.7932
G01 X1.9193 Y14.8061
G00 Z2.0000
G00 X1.8896 Y16.6054
G01 F50.00
G01 Z-0.1000
G01 F100.00
G01 X1.7851 Y16.6304
G01 X1.6844 Y16.6676
G01 X1.5522 Y16.7383
G01 X1.4652 Y16.8013
G01 X1.3865 Y16.8743
G01 X1.2913 Y16.9903
G01 X1.2351 Y17.0818
G01 X1.1903 Y17.1793
G01 X1.1467 Y17.3228
G01 X1.1298 Y17.4289
G01 X1.1257 Y17.5362
G01 X1.1404 Y17.6854
G01 X1.1654 Y17.7899
G01 X1.2026 Y17.8906
G01 X1.2733 Y18.0228
G01 X1.3364 Y18.1098
G01 X1.4652 Y18.2387
G01 X1.6168 Y18.3399
G01 X1.7851 Y18.4096
G01 X1.8736 Y18.4318
G01 X1.9800 Y18.4464
G01 X2.6131 Y18.4496
G01 X2.7704 Y18.4346
G01 X2.8749 Y18.4096
G01 X2.9756 Y18.3724
G01 X3.1078 Y18.3017
G01 X3.1948 Y18.2387
G01 X3.3236 Y18.1098
G01 X3.4249 Y17.9582
G01 X3.4946 Y17.7899
G01 X3.5302 Y17.6111
G01 X3.5302 Y17.4289
G01 X3.4946 Y17.2501
G01 X3.4249 Y17.0818
G01 X3.3236 Y16.9302
G01 X3.2070 Y16.8119
G01 X3.1078 Y16.7383
G01 X2.9608 Y16.6611
G01 X2.8022 Y16.6117
G01 X2.6961 Y16.5948
G01 X2.6050 Y16.5903
G01 X2.0469 Y16.5904
G01 X1.8896 Y16.6054
G00 Z2.0000
G00 X1.9193 Y16.8061
G01 F50.00
G01 Z-0.1000
G01 F100.00
G01 X1.7712 Y16.8510
G01 X1.6565 Y16.9124
G01 X1.5892 Y16.9622
G01 X1.4972 Y17.0542
G01 X1.4507 Y17.1162
G01 X1.4112 Y17.1829
G01 X1.3595 Y17.3090
G01 X1.3411 Y17.3843
G01 X1.3284 Y17.5138
G01 X1.3435 Y17.6679
G01 X1.3813 Y17.7923
G01 X1.4140 Y17.8626
G01 X1.4543 Y17.9289
G01 X1.5411 Y18.0339
G01 X1.6512 Y18.1243
G01 X1.7769 Y18.1915
G01 X1.9132 Y18.2328
G01 X2.0550 Y18.2468
G01 X2.6081 Y18.2468
G01 X2.7468 Y18.2328
G01 X2.8219 Y18.2136
G01 X2.9476 Y18.1610
G01 X3.0139 Y18.1207
G01 X3.1189 Y18.0339
G01 X3.2093 Y17.9238
G01 X3.2765 Y17.7981
G01 X3.3178 Y17.6618
G01 X3.3318 Y17.5200
G01 X3.3178 Y17.3782
G01 X3.2765 Y17.2419
G01 X3.2093 Y17.1162
G01 X3.1189 Y17.0061
G01 X3.0139 Y16.9193
G01 X2.9476 Y16.8790
G01 X2.8219 Y16.8264
G01 X2.7407 Y16.8061
G01 X2.6050 Y16.7932
G01 X2.0519 Y16.7932
G01 X1.9193 Y16.8061
G00 Z2.0000
G00 X1.8896 Y18.6054
G01 F50.00
G01 Z-0.1000
G01 F100.00
G01 X1.7851 Y18.6304
G01 X1.6844 Y18.6676
G01 X1.5522 Y18.7383
G01 X1.4652 Y18.8013
G01 X1.3865 Y18.8743
G01 X1.2913 Y18.9903
G01 X1.2351 Y19.0818
G01 X1.1903 Y19.1793
G01 X1.1467 Y19.3228
G01 X1.1298 Y19.4289
G01 X1.1257 Y19.5362
G01 X1.1404 Y19.6854
G01 X1.1654 Y19.7899
G01 X1.2026 Y19.8906
G01 X1.2733 Y20.0228
G01 X1.3364 Y20.1098
G01 X1.4652 Y20.2387
G01 X1.6168 Y20.3399
G01 X1.7851 Y20.4096
G01 X1.8736 Y20.4318
G01 X1.9800 Y20.4464
G01 X2.6131 Y20.4496
G01 X2.7704 Y20.4346
G01 X2.8749 Y20.4096
G01 X2.9756 Y20.3724
G01 X3.1078 Y20.3017
G01 X3.1948 Y20.2387
G01 X3.3236 Y20.1098
G01 X3.4249 Y19.9582
G01 X3.4946 Y19.7899
G01 X3.5302 Y19.6111
G01 X3.5302 Y19.4289
G01 X3.4946 Y19.2501
G01 X3.4249 Y19.0818
G01 X3.3236 Y18.9302
G01 X3.2070 Y18.8119
G01 X3.1078 Y18.7383
G01 X2.9608 Y18.6611
G01 X2.8022 Y18.6117
G01 X2.6961 Y18.5948
G01 X2.6050 Y18.5903
G01 X2.0469 Y18.5904
G01 X1.8896 Y18.6054
G00 Z2.0000
G00 X1.9193 Y18.8061
G01 F50.00
G01 Z-0.1000
G01 F100.00
G01 X1.7712 Y18.8510
G01 X1.6565 Y18.9124
G01 X1.5892 Y18.9622
G01 X1.4972 Y19.0542
G01 X1.4507 Y19.1162
G01 X1.4112 Y19.1829
G01 X1.3595 Y19.3090
G01 X1.3411 Y19.3843
G01 X1.3284 Y19.5138
G01 X1.3435 Y19.6679
G01 X1.3813 Y19.7923
G01 X1.4140 Y19.8626
G01 X1.4543 Y19.9289
G01 X1.5411 Y20.0339
G01 X1.6512 Y20.1243
G01 X1.7769 Y20.1915
G01 X1.9132 Y20.2328
G01 X2.0550 Y20.2468
G01 X2.6081 Y20.2468
G01 X2.7468 Y20.2328
G01 X2.8219 Y20.2136
G01 X2.9476 Y20.1610
G01 X3.0139 Y20.1207
G01 X3.1189 Y20.0339
G01 X3.2093 Y19.9238
G01 X3.2765 Y19.7981
G01 X3.3178 Y19.6618
G01 X3.3318 Y19.5200
G01 X3.3178 Y19.3782
G01 X3.2765 Y19.2419
G01 X3.2093 Y19.1162
G01 X3.1189 Y19.0061
G01 X3.0139 Y18.9193
G01 X2.9476 Y18.8790
G01 X2.8219 Y18.8264
G01 X2.7407 Y18.8061
G01 X2.6050 Y18.7932
G01 X2.0519 Y18.7932
G01 X1.9193 Y18.8061
G00 Z2.0000
G00 X1.8896 Y20.6054
G01 F50.00
G01 Z-0.1000
G01 F100.00
G01 X1.7851 Y20.6304
G01 X1.6844 Y20.6676
G01 X1.5522 Y20.7383
G01 X1.4652 Y20.8013
G01 X1.3865 Y20.8743
G01 X1.2913 Y20.9903
G01 X1.2351 Y21.0818
G01 X1.1903 Y21.1793
G01 X1.1467 Y21.3228
G01 X1.1298 Y21.4289
G01 X1.1257 Y21.5362
G01 X1.1404 Y21.6854
G01 X1.1654 Y21.7899
G01 X1.2026 Y21.8906
G01 X1.2733 Y22.0228
G01 X1.3364 Y22.1098
G01 X1.4652 Y22.2387
G01 X1.6168 Y22.3399
G01 X1.7851 Y22.4096
G01 X1.8736 Y22.4318
G01 X1.9800 Y22.4464
G01 X2.6131 Y22.4496
G01 X2.7704 Y22.4346
G01 X2.8749 Y22.4096
G01 X2.9756 Y22.3724
G01 X3.1078 Y22.3017
G01 X3.1948 Y22.2387
G01 X3.3236 Y22.1098
G01 X3.4249 Y21.9582
G01 X3.4946 Y21.7899
G01 X3.5302 Y21.6111
G01 X3.5302 Y21.4289
G01 X3.4946 Y21.2501
G01 X3.4249 Y21.0818
G01 X3.3236 Y20.9302
G01 X3.2070 Y20.8119
G01 X3.1078 Y20.7383
G01 X2.9608 Y20.6611
G01 X2.8022 Y20.6117
G01 X2.6961 Y20.5948
G01 X2.6050 Y20.5903
G01 X2.0469 Y20.5904
G01 X1.8896 Y20.6054
G00 Z2.0000
G00 X1.9193 Y20.8061
G01 F50.00
G01 Z-0.1000
G01 F100.00
G01 X1.7712 Y20.8510
G01 X1.6565 Y20.9124
G01 X1.5892 Y20.9622
G01 X1.4972 Y21.0542
G01 X1.4507 Y21.1162
G01 X1.4112 Y21.1829
G01 X1.3595 Y21.3090
G01 X1.3411 Y21.3843
G01 X1.3284 Y21.5138
G01 X1.3435 Y21.6679
G01 X1.3813 Y21.7923
G01 X1.4140 Y21.8626
G01 X1.4543 Y21.9289
G01 X1.5411 Y22.0339
G01 X1.6512 Y22.1243
G01 X1.7769 Y22.1915
G01 X1.9132 Y22.2328
G01 X2.0550 Y22.2468
G01 X2.6081 Y22.2468
G01 X2.7468 Y22.2328
G01 X2.8219 Y22.2136
G01 X2.9476 Y22.1610
G01 X3.0139 Y22.1207
G01 X3.1189 Y22.0339
G01 X3.2093 Y21.9238
G01 X3.2765 Y21.7981
G01 X3.3178 Y21.6618
G01 X3.3318 Y21.5200
G01 X3.3178 Y21.3782
G01 X3.2765 Y21.2419
G01 X3.2093 Y21.1162
G01 X3.1189 Y21.0061
G01 X3.0139 Y20.9193
G01 X2.9476 Y20.8790
G01 X2.8219 Y20.8264
G01 X2.7407 Y20.8061
G01 X2.6050 Y20.7932
G01 X2.0519 Y20.7932
G01 X1.9193 Y20.8061
G00 Z2.0000
G00 X7.3996 Y20.6154
G01 F50.00
G01 Z-0.1000
G01 F100.00
G01 X7.2951 Y20.6404
G01 X7.1944 Y20.6776
G01 X7.0622 Y20.7483
G01 X6.9752 Y20.8113
G01 X6.8965 Y20.8843
G01 X6.8013 Y21.0003
G01 X6.7451 Y21.0918
G01 X6.7003 Y21.1893
G01 X6.6567 Y21.3328
G01 X6.6398 Y21.4389
G01 X6.6357 Y21.5462
G01 X6.6504 Y21.6954
G01 X6.6754 Y21.7999
G01 X6.7126 Y21.9006
G01 X6.7833 Y22.0328
G01 X6.8464 Y22.1198
G01 X6.9752 Y22.2487
G01 X7.1268 Y22.3499
G01 X7.2951 Y22.4196
G01 X7.3836 Y22.4418
G01 X7.4900 Y22.4564
G01 X8.1231 Y22.4596
G01 X8.2804 Y22.4446
G01 X8.3849 Y22.4196
G01 X8.4856 Y22.3824
G01 X8.6178 Y22.3117
G01 X8.7048 Y22.2487
G01 X8.8336 Y22.1198
G01 X8.9349 Y21.9682
G01 X9.0046 Y21.7999
G01 X9.0402 Y21.6211
G01 X9.0402 Y21.4389
G01 X9.0046 Y21.2601
G01 X8.9349 Y21.0918
G01 X8.8336 Y20.9402
G01 X8.7170 Y20.8219
G01 X8.6178 Y20.7483
G01 X8.4708 Y20.6711
G01 X8.3122 Y20.6217
G01 X8.2061 Y20.6048
G01 X8.1150 Y20.6003
G01 X7.5569 Y20.6004
G01 X7.3996 Y20.6154
G00 Z2.0000
G00 X7.4293 Y20.8161
G01 F50.00
G01 Z-0.1000
G01 F100.00
G01 X7.2812 Y20.8610
G01 X7.1665 Y20.9224
G01 X7.0992 Y20.9722
G01 X7.0072 Y21.0642
G01 X6.9607 Y21.1262
G01 X6.9212 Y21.1929
G01 X6.8695 Y21.3190
G01 X6.8511 Y21.3943
G01 X6.8384 Y21.5238
G01 X6.8535 Y21.6779
G01 X6.8913 Y21.8023
G01 X6.9240 Y21.8726
G01 X6.9643 Y21.9389
G01 X7.0511 Y22.0439
G01 X7.1612 Y22.1343
G01 X7.2869 Y22.2015
G01 X7.4232 Y22.2428
G01 X7.5650 Y22.2568
G01 X8.1181 Y22.2568
G01 X8.2568 Y22.2428
G01 X8.3319 Y22.2236
G01 X8.4576 Y22.1710
G01 X8.5239 Y22.1307
G01 X8.6289 Y22.0439
G01 X8.7193 Y21.9338
G01 X8.7865 Y21.8081
G01 X8.8278 Y21.6718
G01 X8.8418 Y21.5300
G01 X8.8278 Y21.3882
G01 X8.7865 Y21.2519
G01 X8.7193 Y21.1262
G01 X8.6289 Y21.0161
G01 X8.5239 Y20.9293
G01 X8.4576 Y20.8890
G01 X8.3319 Y20.8364
G01 X8.2507 Y20.8161
G01 X8.1150 Y20.8032
G01 X7.5619 Y20.8032
G01 X7.4293 Y20.8161
G00 Z2.0000
G00 X7.4293 Y16.8161
G01 F50.00
G01 Z-0.1000
G01 F100.00
G01 X7.2812 Y16.8610
G01 X7.1665 Y16.9224
G01 X7.0992 Y16.9722
G01 X7.0072 Y17.0642
G01 X6.9607 Y17.1262
G01 X6.9212 Y17.1929
G01 X6.8695 Y17.3190
G01 X6.8511 Y17.3943
G01 X6.8384 Y17.5238
G01 X6.8535 Y17.6779
G01 X6.8913 Y17.8023
G01 X6.9240 Y17.8726
G01 X6.9643 Y17.9389
G01 X7.0511 Y18.0439
G01 X7.1612 Y18.1343
G01 X7.2869 Y18.2015
G01 X7.4232 Y18.2428
G01 X7.5650 Y18.2568
G01 X8.1181 Y18.2568
G01 X8.2568 Y18.2428
G01 X8.3319 Y18.2236
G01 X8.4576 Y18.1710
G01 X8.5239 Y18.1307
G01 X8.6289 Y18.0439
G01 X8.7193 Y17.9338
G01 X8.7865 Y17.8081
G01 X8.8278 Y17.6718
G01 X8.8418 Y17.5300
G01 X8.8278 Y17.3882
G01 X8.7865 Y17.2519
G01 X8.7193 Y17.1262
G01 X8.6289 Y17.0161
G01 X8.5239 Y16.9293
G01 X8.4576 Y16.8890
G01 X8.3319 Y16.8364
G01 X8.2507 Y16.8161
G01 X8.1150 Y16.8032
G01 X7.5619 Y16.8032
G01 X7.4293 Y16.8161
G00 Z2.0000
G00 X7.4293 Y14.8161
G01 F50.00
G01 Z-0.1000
G01 F100.00
G01 X7.2812 Y14.8610
G01 X7.1665 Y14.9224
G01 X7.0992 Y14.9722
G01 X7.0072 Y15.0642
G01 X6.9607 Y15.1262
G01 X6.9212 Y15.1929
G01 X6.8695 Y15.3190
G01 X6.8511 Y15.3943
G01 X6.8384 Y15.5238
G01 X6.8535 Y15.6779
G01 X6.8913 Y15.8023
G01 X6.9240 Y15.8726
G01 X6.9643 Y15.9389
G01 X7.0511 Y16.0439
G01 X7.1612 Y16.1343
G01 X7.2869 Y16.2015
G01 X7.4232 Y16.2428
G01 X7.5650 Y16.2568
G01 X8.1181 Y16.2568
G01 X8.2568 Y16.2428
G01 X8.3319 Y16.2236
G01 X8.4576 Y16.1710
G01 X8.5239 Y16.1307
G01 X8.6289 Y16.0439
G01 X8.7193 Y15.9338
G01 X8.7865 Y15.8081
G01 X8.8278 Y15.6718
G01 X8.8418 Y15.5300
G01 X8.8278 Y15.3882
G01 X8.7865 Y15.2519
G01 X8.7193 Y15.1262
G01 X8.6289 Y15.0161
G01 X8.5239 Y14.9293
G01 X8.4576 Y14.8890
G01 X8.3319 Y14.8364
G01 X8.2507 Y14.8161
G01 X8.1150 Y14.8032
G01 X7.5619 Y14.8032
G01 X7.4293 Y14.8161
G00 Z2.0000
G00 X7.3996 Y14.6154
G01 F50.00
G01 Z-0.1000
G01 F100.00
G01 X7.2951 Y14.6404
G01 X7.1944 Y14.6776
G01 X7.0622 Y14.7483
G01 X6.9752 Y14.8113
G01 X6.8965 Y14.8843
G01 X6.8013 Y15.0003
G01 X6.7451 Y15.0918
G01 X6.7003 Y15.1893
G01 X6.6567 Y15.3328
G01 X6.6398 Y15.4389
G01 X6.6357 Y15.5462
G01 X6.6504 Y15.6954
G01 X6.6754 Y15.7999
G01 X6.7126 Y15.9006
G01 X6.7833 Y16.0328
G01 X6.8464 Y16.1198
G01 X6.9752 Y16.2487
G01 X7.1268 Y16.3499
G01 X7.2951 Y16.4196
G01 X7.3836 Y16.4418
G01 X7.4900 Y16.4564
G01 X8.1231 Y16.4596
G01 X8.2804 Y16.4446
G01 X8.3849 Y16.4196
G01 X8.4856 Y16.3824
G01 X8.6178 Y16.3117
G01 X8.7048 Y16.2487
G01 X8.8336 Y16.1198
G01 X8.9349 Y15.9682
G01 X9.0046 Y15.7999
G01 X9.0402 Y15.6211
G01 X9.0402 Y15.4389
G01 X9.0046 Y15.2601
G01 X8.9349 Y15.0918
G01 X8.8336 Y14.9402
G01 X8.7170 Y14.8219
G01 X8.6178 Y14.7483
G01 X8.4708 Y14.6711
G01 X8.3122 Y14.6217
G01 X8.2061 Y14.6048
G01 X8.1150 Y14.6003
G01 X7.5569 Y14.6004
G01 X7.3996 Y14.6154
G00 Z2.0000
G00 X8.6371 Y14.2151
G01 F50.00
G01 Z-0.1000
G01 F100.00
G01 X8.7088 Y14.1672
G01 X8.7816 Y14.0841
G01 X8.8256 Y13.9894
G01 X8.8418 Y13.8831
G01 X8.8418 Y13.1800
G01 X8.8356 Y13.1126
G01 X8.8131 Y13.0358
G01 X8.7783 Y12.9707
G01 X8.7314 Y12.9136
G01 X8.6794 Y12.8703
G01 X8.5744 Y12.8194
G01 X8.4712 Y12.8034
G01 X7.1843 Y12.8046
G01 X7.1056 Y12.8194
G01 X7.0320 Y12.8508
G01 X6.9712 Y12.8928
G01 X6.9053 Y12.9656
G01 X6.8646 Y13.0416
G01 X6.8396 Y13.1493
G01 X6.8400 Y13.9169
G01 X6.8544 Y13.9894
G01 X6.8858 Y14.0630
G01 X6.9278 Y14.1238
G01 X7.0006 Y14.1897
G01 X7.1056 Y14.2406
G01 X7.2119 Y14.2568
G01 X8.4681 Y14.2568
G01 X8.5446 Y14.2482
G01 X8.6371 Y14.2151
G00 Z2.0000
G00 X8.7238 Y14.3985
G01 F50.00
G01 Z-0.1000
G01 F100.00
G01 X8.8450 Y14.3175
G01 X8.9025 Y14.2600
G01 X8.9470 Y14.2021
G01 X8.9835 Y14.1388
G01 X9.0146 Y14.0636
G01 X9.0431 Y13.9207
G01 X9.0447 Y13.1800
G01 X9.0335 Y13.0669
G01 X9.0006 Y12.9582
G01 X8.9556 Y12.8716
G01 X8.9025 Y12.8000
G01 X8.8327 Y12.7319
G01 X8.7523 Y12.6767
G01 X8.6868 Y12.6444
G01 X8.6177 Y12.6210
G01 X8.5218 Y12.6031
G01 X7.1988 Y12.6007
G01 X7.0861 Y12.6150
G01 X6.9562 Y12.6615
G01 X6.8473 Y12.7319
G01 X6.7669 Y12.8123
G01 X6.7244 Y12.8716
G01 X6.6794 Y12.9582
G01 X6.6560 Y13.0273
G01 X6.6381 Y13.1232
G01 X6.6369 Y13.9207
G01 X6.6603 Y14.0483
G01 X6.7038 Y14.1533
G01 X6.7669 Y14.2477
G01 X6.8473 Y14.3281
G01 X6.9277 Y14.3833
G01 X7.0083 Y14.4214
G01 X7.1019 Y14.4485
G01 X7.1988 Y14.4593
G01 X8.4812 Y14.4593
G01 X8.5939 Y14.4450
G01 X8.7238 Y14.3985
G00 Z2.0000
G00 X5.1816 Y15.3661
G01 F50.00
G01 Z-0.1000
G01 F100.00
G01 X5.1653 Y15.4482
G01 X5.1648 Y15.5256
G01 X5.1728 Y15.5793
G01 X5.1982 Y15.6590
G01 X5.2351 Y15.7271
G01 X5.2882 Y15.7918
G01 X5.3529 Y15.8449
G01 X5.4267 Y15.8843
G01 X5.5067 Y15.9086
G01 X5.5900 Y15.9168
G01 X5.6733 Y15.9086
G01 X5.7475 Y15.8866
G01 X5.7966 Y15.8633
G01 X5.8655 Y15.8159
G01 X5.9199 Y15.7608
G01 X5.9664 Y15.6912
G01 X5.9984 Y15.6139
G01 X6.0140 Y15.5380
G01 X6.0086 Y15.4067
G01 X5.8169 Y14.8736
G01 X5.8169 Y13.3740
G01 X6.9040 Y12.2869
G01 X12.4900 Y12.2869
G01 X12.5559 Y12.2771
G01 X12.6211 Y12.2450
G01 X13.5604 Y11.3104
G01 X13.6096 Y11.2368
G01 X13.6269 Y11.1500
G01 X13.6269 Y9.2386
G01 X14.1286 Y8.7369
G01 X18.6622 Y8.7358
G01 X18.7268 Y8.7196
G01 X18.7886 Y8.6813
G01 X19.4093 Y8.0615
G01 X19.5405 Y8.1299
G01 X19.6364 Y8.1647
G01 X19.7356 Y8.1891
G01 X19.9200 Y8.2068
G01 X20.1044 Y8.1891
G01 X20.2036 Y8.1647
G01 X20.3749 Y8.0943
G01 X20.4678 Y8.0386
G01 X20.5444 Y7.9810
G01 X20.6710 Y7.8544
G01 X20.7322 Y7.7727
G01 X20.7815 Y7.6905
G01 X20.8247 Y7.5980
G01 X20.8767 Y7.4266
G01 X20.8921 Y7.3257
G01 X20.8968 Y7.2300
G01 X20.8780 Y7.0394
G01 X20.8547 Y6.9464
G01 X20.8199 Y6.8505
G01 X20.7286 Y6.6822
G01 X20.6710 Y6.6056
G01 X20.5568 Y6.4902
G01 X20.5568 Y4.3750
G01 X20.5513 Y4.3382
G01 X20.5318 Y4.2995
G01 X20.4898 Y4.2632
G01 X20.4362 Y4.2484
G01 X19.4269 Y4.2482
G01 X19.3932 Y4.2537
G01 X19.3596 Y4.2696
G01 X19.3154 Y4.3208
G01 X19.3032 Y4.3750
G01 X19.3032 Y6.4727
G01 X19.1649 Y6.6103
G01 X19.0585 Y6.7695
G01 X18.9853 Y6.9464
G01 X18.9620 Y7.0394
G01 X18.9474 Y7.1405
G01 X18.9474 Y7.3195
G01 X18.9633 Y7.4266
G01 X19.0176 Y7.6038
G01 X19.0885 Y7.7407
G01 X18.5460 Y8.2831
G01 X14.0346 Y8.2831
G01 X13.9747 Y8.2913
G01 X13.9222 Y8.3130
G01 X13.8742 Y8.3496
G01 X13.2374 Y8.9864
G01 X13.2030 Y9.0322
G01 X13.1813 Y9.0847
G01 X13.1731 Y9.1446
G01 X13.1731 Y11.0560
G01 X12.3960 Y11.8331
G01 X6.8100 Y11.8331
G01 X6.7597 Y11.8389
G01 X6.7031 Y11.8599
G01 X6.6496 Y11.8996
G01 X5.4296 Y13.1196
G01 X5.3804 Y13.1932
G01 X5.3631 Y13.2800
G01 X5.3631 Y14.8736
G01 X5.1816 Y15.3661
G00 Z2.0000
G00 X5.2699 Y16.0319
G01 F50.00
G01 Z-0.1000
G01 F100.00
G01 X5.4228 Y16.0969
G01 X5.5444 Y16.1178
G01 X5.6678 Y16.1147
G01 X5.7882 Y16.0875
G01 X5.9009 Y16.0374
G01 X6.0017 Y15.9662
G01 X6.0867 Y15.8767
G01 X6.1652 Y15.7458
G01 X6.1926 Y15.6728
G01 X6.2147 Y15.5678
G01 X6.2197 Y15.4900
G01 X6.2103 Y15.3831
G01 X6.1875 Y15.2918
G01 X6.0197 Y14.8379
G01 X6.0197 Y13.4580
G01 X6.9880 Y12.4897
G01 X12.4900 Y12.4897
G01 X12.6147 Y12.4712
G01 X12.7067 Y12.4310
G01 X12.7881 Y12.3695
G01 X13.7039 Y11.4539
G01 X13.7710 Y11.3667
G01 X13.8112 Y11.2747
G01 X13.8289 Y11.1760
G01 X13.8297 Y10.3771
G01 X13.9281 Y10.5184
G01 X14.0203 Y10.6178
G01 X14.0204 Y12.5831
G01 X14.0345 Y12.6707
G01 X14.0759 Y12.7582
G01 X14.1286 Y12.8193
G01 X14.1805 Y12.8578
G01 X14.2543 Y12.8905
G01 X14.3338 Y12.9043
G01 X15.3662 Y12.9043
G01 X15.4611 Y12.8854
G01 X15.5332 Y12.8491
G01 X15.5831 Y12.8081
G01 X15.6328 Y12.7445
G01 X15.6655 Y12.6707
G01 X15.6793 Y12.5912
G01 X15.6797 Y10.5984
G01 X15.7519 Y10.5184
G01 X15.8209 Y10.4254
G01 X15.8804 Y10.3261
G01 X15.9299 Y10.2214
G01 X15.9689 Y10.1124
G01 X15.9970 Y10.0001
G01 X16.0140 Y9.8856
G01 X16.0193 Y9.7862
G01 X16.0140 Y9.6544
G01 X15.9970 Y9.5399
G01 X15.9689 Y9.4276
G01 X15.9299 Y9.3186
G01 X15.8804 Y9.2139
G01 X15.8209 Y9.1146
G01 X15.7519 Y9.0216
G01 X15.6779 Y8.9397
G01 X16.5421 Y8.9397
G01 X16.4681 Y9.0216
G01 X16.3991 Y9.1146
G01 X16.3396 Y9.2139
G01 X16.2901 Y9.3186
G01 X16.2511 Y9.4276
G01 X16.2230 Y9.5399
G01 X16.2060 Y9.6544
G01 X16.2003 Y9.7700
G01 X16.2060 Y9.8856
G01 X16.2230 Y10.0001
G01 X16.2511 Y10.1124
G01 X16.2901 Y10.2214
G01 X16.3396 Y10.3261
G01 X16.3991 Y10.4254
G01 X16.4681 Y10.5184
G01 X16.5603 Y10.6178
G01 X16.5604 Y12.5831
G01 X16.5745 Y12.6707
G01 X16.6072 Y12.7445
G01 X16.6569 Y12.8081
G01 X16.7205 Y12.8578
G01 X16.7943 Y12.8905
G01 X16.8738 Y12.9043
G01 X17.9062 Y12.9043
G01 X18.0011 Y12.8854
G01 X18.0864 Y12.8398
G01 X18.1343 Y12.7964
G01 X18.1808 Y12.7304
G01 X18.2098 Y12.6551
G01 X18.2193 Y12.5912
G01 X18.2197 Y10.5984
G01 X18.2919 Y10.5184
G01 X18.3609 Y10.4254
G01 X18.4204 Y10.3261
G01 X18.4699 Y10.2214
G01 X18.5089 Y10.1124
G01 X18.5370 Y10.0001
G01 X18.5540 Y9.8856
G01 X18.5593 Y9.7862
G01 X18.5540 Y9.6544
G01 X18.5370 Y9.5399
G01 X18.5089 Y9.4276
G01 X18.4699 Y9.3186
G01 X18.4204 Y9.2139
G01 X18.3609 Y9.1146
G01 X18.2919 Y9.0216
G01 X18.2179 Y8.9397
G01 X18.6821 Y8.9377
G01 X18.7647 Y8.9212
G01 X18.8426 Y8.8890
G01 X18.9381 Y8.8195
G01 X19.4474 Y8.3103
G01 X19.5776 Y8.3589
G01 X19.6899 Y8.3870
G01 X19.8044 Y8.4040
G01 X19.9362 Y8.4093
G01 X20.0517 Y8.4020
G01 X20.2468 Y8.3632
G01 X20.3714 Y8.3199
G01 X20.4616 Y8.2777
G01 X20.5754 Y8.2109
G01 X20.6684 Y8.1419
G01 X20.7542 Y8.0642
G01 X20.8319 Y7.9784
G01 X20.9009 Y7.8854
G01 X20.9604 Y7.7861
G01 X21.0099 Y7.6814
G01 X21.0489 Y7.5724
G01 X21.0798 Y7.4442
G01 X21.0993 Y7.2462
G01 X21.0940 Y7.1144
G01 X21.0735 Y6.9841
G01 X21.0157 Y6.7937
G01 X20.9604 Y6.6739
G01 X20.8916 Y6.5614
G01 X20.7597 Y6.4016
G01 X20.7596 Y4.3669
G01 X20.7404 Y4.2639
G01 X20.6948 Y4.1786
G01 X20.6514 Y4.1307
G01 X20.5995 Y4.0922
G01 X20.5411 Y4.0646
G01 X20.4623 Y4.0469
G01 X19.4300 Y4.0453
G01 X19.3499 Y4.0552
G01 X19.2746 Y4.0842
G01 X19.2086 Y4.1307
G01 X19.1559 Y4.1918
G01 X19.1145 Y4.2793
G01 X19.1004 Y4.3669
G01 X19.1003 Y6.3822
G01 X18.9981 Y6.4944
G01 X18.9391 Y6.5746
G01 X18.8723 Y6.6884
G01 X18.8301 Y6.7786
G01 X18.7911 Y6.8876
G01 X18.7630 Y6.9999
G01 X18.7460 Y7.1144
G01 X18.7407 Y7.2462
G01 X18.7602 Y7.4442
G01 X18.7911 Y7.5724
G01 X18.8397 Y7.7026
G01 X18.4620 Y8.0803
G01 X18.1970 Y8.0803
G01 X18.2919 Y7.9784
G01 X18.3609 Y7.8854
G01 X18.4204 Y7.7861
G01 X18.4699 Y7.6814
G01 X18.5089 Y7.5724
G01 X18.5370 Y7.4601
G01 X18.5540 Y7.3456
G01 X18.5597 Y7.2300
G01 X18.5540 Y7.1144
G01 X18.5370 Y6.9999
G01 X18.5089 Y6.8876
G01 X18.4699 Y6.7786
G01 X18.4204 Y6.6739
G01 X18.3609 Y6.5746
G01 X18.2919 Y6.4816
G01 X18.2197 Y6.4016
G01 X18.2197 Y5.5294
G01 X18.2824 Y5.4106
G01 X18.3196 Y5.3099
G01 X18.3446 Y5.2054
G01 X18.3597 Y5.0400
G01 X18.3446 Y4.8746
G01 X18.3196 Y4.7701
G01 X18.2824 Y4.6694
G01 X18.2197 Y4.5506
G01 X18.2193 Y4.3588
G01 X18.2004 Y4.2639
G01 X18.1641 Y4.1918
G01 X18.0991 Y4.1201
G01 X18.0162 Y4.0704
G01 X17.9223 Y4.0469
G01 X16.8738 Y4.0457
G01 X16.7789 Y4.0646
G01 X16.6936 Y4.1102
G01 X16.6457 Y4.1536
G01 X16.6072 Y4.2055
G01 X16.5667 Y4.3107
G01 X16.5604 Y4.3669
G01 X16.5603 Y4.7131
G01 X16.5217 Y4.8428
G01 X16.5036 Y4.9650
G01 X16.5068 Y5.1472
G01 X16.5217 Y5.2372
G01 X16.5603 Y5.3669
G01 X16.5603 Y6.3822
G01 X16.4681 Y6.4816
G01 X16.3991 Y6.5746
G01 X16.3396 Y6.6739
G01 X16.2901 Y6.7786
G01 X16.2511 Y6.8876
G01 X16.2230 Y6.9999
G01 X16.2060 Y7.1144
G01 X16.2007 Y7.2138
G01 X16.2060 Y7.3456
G01 X16.2230 Y7.4601
G01 X16.2511 Y7.5724
G01 X16.2901 Y7.6814
G01 X16.3396 Y7.7861
G01 X16.3991 Y7.8854
G01 X16.4681 Y7.9784
G01 X16.5630 Y8.0803
G01 X15.6570 Y8.0803
G01 X15.7519 Y7.9784
G01 X15.8209 Y7.8854
G01 X15.8804 Y7.7861
G01 X15.9299 Y7.6814
G01 X15.9689 Y7.5724
G01 X15.9970 Y7.4601
G01 X16.0140 Y7.3456
G01 X16.0197 Y7.2300
G01 X16.0140 Y7.1144
G01 X15.9970 Y6.9999
G01 X15.9689 Y6.8876
G01 X15.9299 Y6.7786
G01 X15.8804 Y6.6739
G01 X15.8209 Y6.5746
G01 X15.7519 Y6.4816
G01 X15.6797 Y6.4016
G01 X15.6797 Y4.3750
G01 X15.6655 Y4.2793
G01 X15.6328 Y4.2055
G01 X15.5943 Y4.1536
G01 X15.5464 Y4.1102
G01 X15.4910 Y4.0770
G01 X15.3823 Y4.0469
G01 X15.1590 Y4.0453
G01 X14.2968 Y3.1832
G01 X14.1711 Y3.0799
G01 X14.0868 Y3.0308
G01 X13.9509 Y2.9758
G01 X13.8560 Y2.9533
G01 X13.7181 Y2.9402
G01 X9.0700 Y2.9401
G01 X8.9240 Y2.9533
G01 X8.8137 Y2.9809
G01 X8.6788 Y3.0381
G01 X8.5563 Y3.1185
G01 X8.4832 Y3.1832
G01 X5.2032 Y6.4632
G01 X5.1093 Y6.5757
G01 X5.0581 Y6.6588
G01 X4.9915 Y6.8247
G01 X4.9660 Y6.9526
G01 X4.9605 Y7.0338
G01 X4.9601 Y9.7520
G01 X4.9076 Y9.8787
G01 X4.0962 Y10.6901
G01 X3.2800 Y10.6901
G01 X3.2138 Y10.6515
G01 X3.1233 Y10.6153
G01 X3.0279 Y10.5951
G01 X2.9550 Y10.5903
G01 X1.6888 Y10.5907
G01 X1.5523 Y10.6110
G01 X1.4317 Y10.6588
G01 X1.3373 Y10.7219
G01 X1.2469 Y10.8150
G01 X1.1760 Y10.9334
G01 X1.1365 Y11.0569
G01 X1.1254 Y11.1619
G01 X1.1253 Y11.8700
G01 X1.1400 Y11.9989
G01 X1.1694 Y12.0918
G01 X1.2144 Y12.1784
G01 X1.2569 Y12.2377
G01 X1.3250 Y12.3075
G01 X1.3829 Y12.3520
G01 X1.4684 Y12.3990
G01 X1.5367 Y12.4247
G01 X1.6321 Y12.4449
G01 X2.9712 Y12.4493
G01 X3.0521 Y12.4413
G01 X3.1233 Y12.4247
G01 X3.2138 Y12.3885
G01 X3.2800 Y12.3499
G01 X3.6101 Y12.3499
G01 X3.6102 Y16.4131
G01 X3.6260 Y16.5669
G01 X3.6732 Y16.7226
G01 X3.7499 Y16.8661
G01 X3.8475 Y16.9861
G01 X6.6826 Y19.8213
G01 X6.7451 Y19.9682
G01 X6.8364 Y20.1070
G01 X6.9193 Y20.1985
G01 X7.0485 Y20.3030
G01 X7.1412 Y20.3572
G01 X7.2951 Y20.4196
G01 X7.3996 Y20.4446
G01 X7.5488 Y20.4593
G01 X8.2061 Y20.4552
G01 X8.3849 Y20.4196
G01 X8.5330 Y20.3599
G01 X11.2677 Y20.3599
G01 X11.3842 Y20.4189
G01 X11.5428 Y20.4683
G01 X11.6650 Y20.4864
G01 X11.8150 Y20.4864
G01 X11.9214 Y20.4718
G01 X12.0252 Y20.4446
G01 X12.1638 Y20.3872
G01 X12.2565 Y20.3330
G01 X12.3420 Y20.2681
G01 X12.4481 Y20.1620
G01 X12.5130 Y20.0765
G01 X12.5599 Y19.9982
G01 X12.5989 Y19.9158
G01 X12.6340 Y19.8143
G01 X12.6632 Y19.6672
G01 X12.6693 Y19.5762
G01 X12.6652 Y19.4689
G01 X12.6518 Y19.3786
G01 X12.5989 Y19.2042
G01 X12.5599 Y19.1218
G01 X12.5037 Y19.0303
G01 X12.4481 Y18.9580
G01 X12.3420 Y18.8519
G01 X12.2565 Y18.7870
G01 X12.1782 Y18.7401
G01 X12.0099 Y18.6704
G01 X11.8472 Y18.6368
G01 X11.7400 Y18.6303
G01 X11.5586 Y18.6482
G01 X11.3869 Y18.7001
G01 X8.5330 Y18.7001
G01 X8.3849 Y18.6404
G01 X8.2222 Y18.6068
G01 X7.8090 Y18.6003
G01 X7.6684 Y18.4597
G01 X8.2061 Y18.4552
G01 X8.3693 Y18.4240
G01 X8.4708 Y18.3889
G01 X8.6315 Y18.3030
G01 X8.7607 Y18.1985
G01 X8.8436 Y18.1070
G01 X8.9349 Y17.9682
G01 X8.9996 Y17.8152
G01 X9.0268 Y17.7114
G01 X9.0443 Y17.5462
G01 X9.0382 Y17.4228
G01 X9.0046 Y17.2601
G01 X8.9422 Y17.1062
G01 X8.8787 Y17.0003
G01 X8.7724 Y16.8726
G01 X8.6447 Y16.7663
G01 X8.5532 Y16.7101
G01 X8.4002 Y16.6454
G01 X8.2804 Y16.6154
G01 X8.1231 Y16.6004
G01 X7.5569 Y16.6004
G01 X7.4578 Y16.6068
G01 X7.3107 Y16.6360
G01 X7.1944 Y16.6776
G01 X7.0485 Y16.7570
G01 X6.9630 Y16.8219
G01 X6.8464 Y16.9402
G01 X6.7833 Y17.0272
G01 X6.7061 Y17.1742
G01 X6.6710 Y17.2757
G01 X6.6407 Y17.4320
G01 X5.2699 Y16.0612
G01 X5.2699 Y16.0319
G00 Z2.0000
G00 X14.3251 Y15.7229
G01 F50.00
G01 Z-0.1000
G01 F100.00
G01 X14.2772 Y15.6512
G01 X14.1941 Y15.5784
G01 X14.0994 Y15.5344
G01 X13.9931 Y15.5182
G01 X13.2900 Y15.5182
G01 X13.2226 Y15.5244
G01 X13.1458 Y15.5469
G01 X13.0807 Y15.5817
G01 X13.0236 Y15.6286
G01 X12.9803 Y15.6806
G01 X12.9294 Y15.7856
G01 X12.9134 Y15.8888
G01 X12.9146 Y17.1757
G01 X12.9294 Y17.2544
G01 X12.9608 Y17.3280
G01 X13.0028 Y17.3888
G01 X13.0756 Y17.4547
G01 X13.1747 Y17.5036
G01 X13.2593 Y17.5204
G01 X14.0269 Y17.5200
G01 X14.0994 Y17.5056
G01 X14.1730 Y17.4742
G01 X14.2338 Y17.4322
G01 X14.2997 Y17.3594
G01 X14.3506 Y17.2544
G01 X14.3668 Y17.1481
G01 X14.3668 Y15.8919
G01 X14.3582 Y15.8154
G01 X14.3251 Y15.7229
G00 Z2.0000
G00 X14.5085 Y15.6362
G01 F50.00
G01 Z-0.1000
G01 F100.00
G01 X14.4275 Y15.5150
G01 X14.3700 Y15.4575
G01 X14.3121 Y15.4130
G01 X14.2488 Y15.3765
G01 X14.1736 Y15.3454
G01 X14.0307 Y15.3169
G01 X13.2900 Y15.3153
G01 X13.1769 Y15.3265
G01 X13.0833 Y15.3536
G01 X13.0027 Y15.3917
G01 X12.9223 Y15.4469
G01 X12.8419 Y15.5273
G01 X12.7994 Y15.5866
G01 X12.7544 Y15.6732
G01 X12.7310 Y15.7423
G01 X12.7131 Y15.8382
G01 X12.7107 Y17.1612
G01 X12.7250 Y17.2739
G01 X12.7715 Y17.4038
G01 X12.8419 Y17.5127
G01 X12.9223 Y17.5931
G01 X13.0027 Y17.6483
G01 X13.0682 Y17.6806
G01 X13.1373 Y17.7040
G01 X13.2332 Y17.7219
G01 X14.0307 Y17.7231
G01 X14.1583 Y17.6997
G01 X14.2633 Y17.6562
G01 X14.3577 Y17.5931
G01 X14.4381 Y17.5127
G01 X14.4933 Y17.4323
G01 X14.5314 Y17.3517
G01 X14.5585 Y17.2581
G01 X14.5693 Y17.1612
G01 X14.5693 Y15.8788
G01 X14.5550 Y15.7661
G01 X14.5085 Y15.6362
G00 Z2.0000
G00 X15.5043 Y15.5311
G01 F50.00
G01 Z-0.1000
G01 F100.00
G01 X15.3562 Y15.5760
G01 X15.2415 Y15.6374
G01 X15.1789 Y15.6832
G01 X15.0743 Y15.7888
G01 X15.0021 Y15.8970
G01 X14.9685 Y15.9669
G01 X14.9285 Y16.0971
G01 X14.9162 Y16.1800
G01 X14.9167 Y16.8662
G01 X14.9445 Y17.0060
G01 X14.9990 Y17.1376
G01 X15.0782 Y17.2561
G01 X15.1789 Y17.3568
G01 X15.2974 Y17.4360
G01 X15.4290 Y17.4905
G01 X15.5688 Y17.5183
G01 X15.7112 Y17.5183
G01 X15.7879 Y17.5065
G01 X15.9123 Y17.4687
G01 X16.0438 Y17.3993
G01 X16.1058 Y17.3528
G01 X16.1978 Y17.2608
G01 X16.2838 Y17.1321
G01 X16.3355 Y17.0060
G01 X16.3633 Y16.8662
G01 X16.3633 Y16.1738
G01 X16.3355 Y16.0340
G01 X16.2810 Y15.9024
G01 X16.2018 Y15.7839
G01 X16.0962 Y15.6793
G01 X15.9880 Y15.6071
G01 X15.9238 Y15.5760
G01 X15.7879 Y15.5335
G01 X15.6400 Y15.5182
G01 X15.5043 Y15.5311
G00 Z2.0000
G00 X15.4746 Y15.3304
G01 F50.00
G01 Z-0.1000
G01 F100.00
G01 X15.3701 Y15.3554
G01 X15.2842 Y15.3861
G01 X15.2018 Y15.4251
G01 X15.1103 Y15.4813
G01 X15.0380 Y15.5369
G01 X14.9319 Y15.6430
G01 X14.8670 Y15.7285
G01 X14.8128 Y15.8212
G01 X14.7504 Y15.9751
G01 X14.7148 Y16.1539
G01 X14.7148 Y16.8861
G01 X14.7504 Y17.0649
G01 X14.8201 Y17.2332
G01 X14.9214 Y17.3848
G01 X15.0502 Y17.5137
G01 X15.2018 Y17.6149
G01 X15.3701 Y17.6846
G01 X15.5489 Y17.7202
G01 X15.7311 Y17.7202
G01 X15.8372 Y17.7033
G01 X15.9807 Y17.6597
G01 X16.0782 Y17.6149
G01 X16.1565 Y17.5680
G01 X16.2420 Y17.5031
G01 X16.3481 Y17.3970
G01 X16.4130 Y17.3115
G01 X16.4599 Y17.2332
G01 X16.5296 Y17.0649
G01 X16.5652 Y16.8861
G01 X16.5652 Y16.1539
G01 X16.5296 Y15.9751
G01 X16.4599 Y15.8068
G01 X16.3586 Y15.6552
G01 X16.2974 Y15.5876
G01 X16.2170 Y15.5164
G01 X16.0923 Y15.4331
G01 X16.0106 Y15.3926
G01 X15.8372 Y15.3367
G01 X15.7311 Y15.3198
G01 X15.6400 Y15.3153
G01 X15.4746 Y15.3304
G00 Z2.0000
G00 X17.4746 Y15.3304
G01 F50.00
G01 Z-0.1000
G01 F100.00
G01 X17.3701 Y15.3554
G01 X17.2842 Y15.3861
G01 X17.2018 Y15.4251
G01 X17.1103 Y15.4813
G01 X17.0380 Y15.5369
G01 X16.9319 Y15.6430
G01 X16.8670 Y15.7285
G01 X16.8128 Y15.8212
G01 X16.7504 Y15.9751
G01 X16.7148 Y16.1539
G01 X16.7148 Y16.8861
G01 X16.7504 Y17.0649
G01 X16.8201 Y17.2332
G01 X16.9214 Y17.3848
G01 X17.0502 Y17.5137
G01 X17.2018 Y17.6149
G01 X17.3701 Y17.6846
G01 X17.5489 Y17.7202
G01 X17.7311 Y17.7202
G01 X17.8372 Y17.7033
G01 X17.9807 Y17.6597
G01 X18.0782 Y17.6149
G01 X18.1565 Y17.5680
G01 X18.2420 Y17.5031
G01 X18.3481 Y17.3970
G01 X18.4130 Y17.3115
G01 X18.4599 Y17.2332
G01 X18.5296 Y17.0649
G01 X18.5652 Y16.8861
G01 X18.5652 Y16.1539
G01 X18.5296 Y15.9751
G01 X18.4599 Y15.8068
G01 X18.3586 Y15.6552
G01 X18.2974 Y15.5876
G01 X18.2170 Y15.5164
G01 X18.0923 Y15.4331
G01 X18.0106 Y15.3926
G01 X17.8372 Y15.3367
G01 X17.7311 Y15.3198
G01 X17.6400 Y15.3153
G01 X17.4746 Y15.3304
G00 Z2.0000
G00 X17.5043 Y15.5311
G01 F50.00
G01 Z-0.1000
G01 F100.00
G01 X17.3562 Y15.5760
G01 X17.2415 Y15.6374
G01 X17.1789 Y15.6832
G01 X17.0743 Y15.7888
G01 X17.0021 Y15.8970
G01 X16.9685 Y15.9669
G01 X16.9285 Y16.0971
G01 X16.9162 Y16.1800
G01 X16.9167 Y16.8662
G01 X16.9445 Y17.0060
G01 X16.9990 Y17.1376
G01 X17.0782 Y17.2561
G01 X17.1789 Y17.3568
G01 X17.2974 Y17.4360
G01 X17.4290 Y17.4905
G01 X17.5688 Y17.5183
G01 X17.7112 Y17.5183
G01 X17.7879 Y17.5065
G01 X17.9123 Y17.4687
G01 X18.0438 Y17.3993
G01 X18.1058 Y17.3528
G01 X18.1978 Y17.2608
G01 X18.2838 Y17.1321
G01 X18.3355 Y17.0060
G01 X18.3633 Y16.8662
G01 X18.3633 Y16.1738
G01 X18.3355 Y16.0340
G01 X18.2810 Y15.9024
G01 X18.2018 Y15.7839
G01 X18.0962 Y15.6793
G01 X17.9880 Y15.6071
G01 X17.9238 Y15.5760
G01 X17.7879 Y15.5335
G01 X17.6400 Y15.5182
G01 X17.5043 Y15.5311
G00 Z2.0000
G00 X19.4746 Y15.3304
G01 F50.00
G01 Z-0.1000
G01 F100.00
G01 X19.3701 Y15.3554
G01 X19.2842 Y15.3861
G01 X19.2018 Y15.4251
G01 X19.1103 Y15.4813
G01 X19.0380 Y15.5369
G01 X18.9319 Y15.6430
G01 X18.8670 Y15.7285
G01 X18.8128 Y15.8212
G01 X18.7504 Y15.9751
G01 X18.7148 Y16.1539
G01 X18.7148 Y16.8861
G01 X18.7504 Y17.0649
G01 X18.8201 Y17.2332
G01 X18.9214 Y17.3848
G01 X19.0502 Y17.5137
G01 X19.2018 Y17.6149
G01 X19.3701 Y17.6846
G01 X19.5489 Y17.7202
G01 X19.7311 Y17.7202
G01 X19.8372 Y17.7033
G01 X19.9807 Y17.6597
G01 X20.0782 Y17.6149
G01 X20.1565 Y17.5680
G01 X20.2420 Y17.5031
G01 X20.3481 Y17.3970
G01 X20.4130 Y17.3115
G01 X20.4599 Y17.2332
G01 X20.5296 Y17.0649
G01 X20.5652 Y16.8861
G01 X20.5652 Y16.1539
G01 X20.5296 Y15.9751
G01 X20.4599 Y15.8068
G01 X20.3586 Y15.6552
G01 X20.2974 Y15.5876
G01 X20.2170 Y15.5164
G01 X20.0923 Y15.4331
G01 X20.0106 Y15.3926
G01 X19.8372 Y15.3367
G01 X19.7311 Y15.3198
G01 X19.6400 Y15.3153
G01 X19.4746 Y15.3304
G00 Z2.0000
G00 X19.5043 Y15.5311
G01 F50.00
G01 Z-0.1000
G01 F100.00
G01 X19.3562 Y15.5760
G01 X19.2415 Y15.6374
G01 X19.1789 Y15.6832
G01 X19.0743 Y15.7888
G01 X19.0021 Y15.8970
G01 X18.9685 Y15.9669
G01 X18.9285 Y16.0971
G01 X18.9162 Y16.1800
G01 X18.9167 Y16.8662
G01 X18.9445 Y17.0060
G01 X18.9990 Y17.1376
G01 X19.0782 Y17.2561
G01 X19.1789 Y17.3568
G01 X19.2974 Y17.4360
G01 X19.4290 Y17.4905
G01 X19.5688 Y17.5183
G01 X19.7112 Y17.5183
G01 X19.7879 Y17.5065
G01 X19.9123 Y17.4687
G01 X20.0438 Y17.3993
G01 X20.1058 Y17.3528
G01 X20.1978 Y17.2608
G01 X20.2838 Y17.1321
G01 X20.3355 Y17.0060
G01 X20.3633 Y16.8662
G01 X20.3633 Y16.1738
G01 X20.3355 Y16.0340
G01 X20.2810 Y15.9024
G01 X20.2018 Y15.7839
G01 X20.0962 Y15.6793
G01 X19.9880 Y15.6071
G01 X19.9238 Y15.5760
G01 X19.7879 Y15.5335
G01 X19.6400 Y15.5182
G01 X19.5043 Y15.5311
G00 Z2.0000
G00 X21.4746 Y15.3304
G01 F50.00
G01 Z-0.1000
G01 F100.00
G01 X21.3701 Y15.3554
G01 X21.2842 Y15.3861
G01 X21.2018 Y15.4251
G01 X21.1103 Y15.4813
G01 X21.0380 Y15.5369
G01 X20.9319 Y15.6430
G01 X20.8670 Y15.7285
G01 X20.8128 Y15.8212
G01 X20.7504 Y15.9751
G01 X20.7148 Y16.1539
G01 X20.7148 Y16.8861
G01 X20.7504 Y17.0649
G01 X20.8201 Y17.2332
G01 X20.9214 Y17.3848
G01 X21.0502 Y17.5137
G01 X21.2018 Y17.6149
G01 X21.3701 Y17.6846
G01 X21.5489 Y17.7202
G01 X21.7311 Y17.7202
G01 X21.8372 Y17.7033
G01 X21.9807 Y17.6597
G01 X22.0782 Y17.6149
G01 X22.1565 Y17.5680
G01 X22.2420 Y17.5031
G01 X22.3481 Y17.3970
G01 X22.4130 Y17.3115
G01 X22.4599 Y17.2332
G01 X22.5296 Y17.0649
G01 X22.5652 Y16.8861
G01 X22.5652 Y16.1539
G01 X22.5296 Y15.9751
G01 X22.4599 Y15.8068
G01 X22.3586 Y15.6552
G01 X22.2974 Y15.5876
G01 X22.2170 Y15.5164
G01 X22.0923 Y15.4331
G01 X22.0106 Y15.3926
G01 X21.8372 Y15.3367
G01 X21.7311 Y15.3198
G01 X21.6400 Y15.3153
G01 X21.4746 Y15.3304
G00 Z2.0000
G00 X21.5043 Y15.5311
G01 F50.00
G01 Z-0.1000
G01 F100.00
G01 X21.3562 Y15.5760
G01 X21.2415 Y15.6374
G01 X21.1789 Y15.6832
G01 X21.0743 Y15.7888
G01 X21.0021 Y15.8970
G01 X20.9685 Y15.9669
G01 X20.9285 Y16.0971
G01 X20.9162 Y16.1800
G01 X20.9167 Y16.8662
G01 X20.9445 Y17.0060
G01 X20.9990 Y17.1376
G01 X21.0782 Y17.2561
G01 X21.1789 Y17.3568
G01 X21.2974 Y17.4360
G01 X21.4290 Y17.4905
G01 X21.5688 Y17.5183
G01 X21.7112 Y17.5183
G01 X21.7879 Y17.5065
G01 X21.9123 Y17.4687
G01 X22.0438 Y17.3993
G01 X22.1058 Y17.3528
G01 X22.1978 Y17.2608
G01 X22.2838 Y17.1321
G01 X22.3355 Y17.0060
G01 X22.3633 Y16.8662
G01 X22.3633 Y16.1738
G01 X22.3355 Y16.0340
G01 X22.2810 Y15.9024
G01 X22.2018 Y15.7839
G01 X22.0962 Y15.6793
G01 X21.9880 Y15.6071
G01 X21.9238 Y15.5760
G01 X21.7879 Y15.5335
G01 X21.6400 Y15.5182
G01 X21.5043 Y15.5311
G00 Z2.0000
G00 X23.4746 Y15.3304
G01 F50.00
G01 Z-0.1000
G01 F100.00
G01 X23.3701 Y15.3554
G01 X23.2842 Y15.3861
G01 X23.2018 Y15.4251
G01 X23.1103 Y15.4813
G01 X23.0380 Y15.5369
G01 X22.9319 Y15.6430
G01 X22.8670 Y15.7285
G01 X22.8128 Y15.8212
G01 X22.7504 Y15.9751
G01 X22.7148 Y16.1539
G01 X22.7148 Y16.8861
G01 X22.7504 Y17.0649
G01 X22.8201 Y17.2332
G01 X22.9214 Y17.3848
G01 X23.0502 Y17.5137
G01 X23.2018 Y17.6149
G01 X23.3701 Y17.6846
G01 X23.5489 Y17.7202
G01 X23.7311 Y17.7202
G01 X23.8372 Y17.7033
G01 X23.9807 Y17.6597
G01 X24.0782 Y17.6149
G01 X24.1565 Y17.5680
G01 X24.2420 Y17.5031
G01 X24.3481 Y17.3970
G01 X24.4130 Y17.3115
G01 X24.4599 Y17.2332
G01 X24.5296 Y17.0649
G01 X24.5652 Y16.8861
G01 X24.5652 Y16.1539
G01 X24.5296 Y15.9751
G01 X24.4599 Y15.8068
G01 X24.3586 Y15.6552
G01 X24.2974 Y15.5876
G01 X24.2170 Y15.5164
G01 X24.0923 Y15.4331
G01 X24.0106 Y15.3926
G01 X23.8372 Y15.3367
G01 X23.7311 Y15.3198
G01 X23.6400 Y15.3153
G01 X23.4746 Y15.3304
G00 Z2.0000
G00 X23.5043 Y15.5311
G01 F50.00
G01 Z-0.1000
G01 F100.00
G01 X23.3562 Y15.5760
G01 X23.2415 Y15.6374
G01 X23.1789 Y15.6832
G01 X23.0743 Y15.7888
G01 X23.0021 Y15.8970
G01 X22.9685 Y15.9669
G01 X22.9285 Y16.0971
G01 X22.9162 Y16.1800
G01 X22.9167 Y16.8662
G01 X22.9445 Y17.0060
G01 X22.9990 Y17.1376
G01 X23.0782 Y17.2561
G01 X23.1789 Y17.3568
G01 X23.2974 Y17.4360
G01 X23.4290 Y17.4905
G01 X23.5688 Y17.5183
G01 X23.7112 Y17.5183
G01 X23.7879 Y17.5065
G01 X23.9123 Y17.4687
G01 X24.0438 Y17.3993
G01 X24.1058 Y17.3528
G01 X24.1978 Y17.2608
G01 X24.2838 Y17.1321
G01 X24.3355 Y17.0060
G01 X24.3633 Y16.8662
G01 X24.3633 Y16.1738
G01 X24.3355 Y16.0340
G01 X24.2810 Y15.9024
G01 X24.2018 Y15.7839
G01 X24.0962 Y15.6793
G01 X23.9880 Y15.6071
G01 X23.9238 Y15.5760
G01 X23.7879 Y15.5335
G01 X23.6400 Y15.5182
G01 X23.5043 Y15.5311
G00 Z2.0000
G00 X21.8446 Y12.5936
G01 F50.00
G01 Z-0.1000
G01 F100.00
G01 X21.8582 Y12.6348
G01 X21.8848 Y12.6690
G01 X21.9215 Y12.6921
G01 X21.9669 Y12.7018
G01 X22.9762 Y12.7016
G01 X23.0404 Y12.6804
G01 X23.0680 Y12.6554
G01 X23.0871 Y12.6235
G01 X23.0968 Y12.5750
G01 X23.0968 Y10.7468
G01 X23.3131 Y10.7468
G01 X23.3527 Y10.7394
G01 X23.3855 Y10.7218
G01 X23.4118 Y10.6955
G01 X23.4294 Y10.6627
G01 X23.4366 Y10.6262
G01 X23.4366 Y8.9138
G01 X23.4154 Y8.8496
G01 X23.3904 Y8.8220
G01 X23.3585 Y8.8029
G01 X23.3100 Y8.7932
G01 X21.6069 Y8.7932
G01 X21.5732 Y8.7987
G01 X21.5396 Y8.8146
G01 X21.5120 Y8.8396
G01 X21.4929 Y8.8715
G01 X21.4832 Y8.9200
G01 X21.4838 Y10.6324
G01 X21.4929 Y10.6685
G01 X21.5120 Y10.7004
G01 X21.5396 Y10.7254
G01 X21.5732 Y10.7413
G01 X21.8432 Y10.7468
G01 X21.8446 Y12.5936
G00 Z2.0000
G00 X21.6439 Y12.6234
G01 F50.00
G01 Z-0.1000
G01 F100.00
G01 X21.6792 Y12.7304
G01 X21.7486 Y12.8193
G01 X21.8438 Y12.8796
G01 X21.9538 Y12.9043
G01 X23.0184 Y12.9011
G01 X23.0962 Y12.8796
G01 X23.1664 Y12.8398
G01 X23.2248 Y12.7841
G01 X23.2680 Y12.7160
G01 X23.2898 Y12.6551
G01 X23.2996 Y12.5831
G01 X23.2997 Y10.9497
G01 X23.3584 Y10.9461
G01 X23.4211 Y10.9304
G01 X23.4795 Y10.9028
G01 X23.5314 Y10.8643
G01 X23.5748 Y10.8164
G01 X23.6080 Y10.7610
G01 X23.6298 Y10.7001
G01 X23.6393 Y10.6362
G01 X23.6381 Y8.8877
G01 X23.6204 Y8.8089
G01 X23.5841 Y8.7368
G01 X23.5191 Y8.6651
G01 X23.4510 Y8.6220
G01 X23.3901 Y8.6002
G01 X23.3181 Y8.5904
G01 X21.5938 Y8.5907
G01 X21.4989 Y8.6096
G01 X21.4268 Y8.6459
G01 X21.3551 Y8.7109
G01 X21.3120 Y8.7790
G01 X21.2902 Y8.8399
G01 X21.2804 Y8.9119
G01 X21.2819 Y10.6523
G01 X21.2945 Y10.7157
G01 X21.3192 Y10.7754
G01 X21.3552 Y10.8291
G01 X21.4009 Y10.8748
G01 X21.4546 Y10.9108
G01 X21.5143 Y10.9355
G01 X21.5777 Y10.9481
G01 X21.6403 Y10.9497
G01 X21.6439 Y12.6234
G00 Z2.0000
G00 X19.3046 Y12.5936
G01 F50.00
G01 Z-0.1000
G01 F100.00
G01 X19.3182 Y12.6348
G01 X19.3448 Y12.6690
G01 X19.3873 Y12.6944
G01 X19.4300 Y12.7018
G01 X20.4424 Y12.7012
G01 X20.4842 Y12.6896
G01 X20.5152 Y12.6690
G01 X20.5388 Y12.6402
G01 X20.5544 Y12.5997
G01 X20.5568 Y10.5098
G01 X20.6710 Y10.3944
G01 X20.7286 Y10.3178
G01 X20.7815 Y10.2305
G01 X20.8224 Y10.1438
G01 X20.8564 Y10.0476
G01 X20.8913 Y9.8719
G01 X20.8968 Y9.7700
G01 X20.8921 Y9.6743
G01 X20.8564 Y9.4924
G01 X20.8199 Y9.3905
G01 X20.7322 Y9.2273
G01 X20.6150 Y9.0838
G01 X20.5348 Y9.0111
G01 X20.3805 Y8.9085
G01 X20.2095 Y8.8372
G01 X20.1106 Y8.8120
G01 X19.9200 Y8.7932
G01 X19.7294 Y8.8120
G01 X19.5462 Y8.8676
G01 X19.3773 Y8.9578
G01 X19.2293 Y9.0793
G01 X19.1078 Y9.2273
G01 X19.0176 Y9.3962
G01 X18.9620 Y9.5794
G01 X18.9434 Y9.7638
G01 X18.9479 Y9.8657
G01 X18.9633 Y9.9666
G01 X19.0153 Y10.1380
G01 X19.0585 Y10.2305
G01 X19.1114 Y10.3178
G01 X19.2250 Y10.4562
G01 X19.3032 Y10.5273
G01 X19.3046 Y12.5936
G00 Z2.0000
G00 X19.1039 Y12.6234
G01 F50.00
G01 Z-0.1000
G01 F100.00
G01 X19.1392 Y12.7304
G01 X19.2086 Y12.8193
G01 X19.3038 Y12.8796
G01 X19.3657 Y12.8983
G01 X19.4219 Y12.9046
G01 X20.4300 Y12.9047
G01 X20.4943 Y12.8983
G01 X20.5854 Y12.8658
G01 X20.6514 Y12.8193
G01 X20.7041 Y12.7582
G01 X20.7455 Y12.6707
G01 X20.7597 Y12.5750
G01 X20.7597 Y10.5984
G01 X20.8319 Y10.5184
G01 X20.9095 Y10.4117
G01 X21.0033 Y10.2362
G01 X21.0438 Y10.1278
G01 X21.0770 Y10.0001
G01 X21.0940 Y9.8856
G01 X21.0997 Y9.7700
G01 X21.0940 Y9.6544
G01 X21.0770 Y9.5399
G01 X21.0532 Y9.4432
G01 X21.0099 Y9.3186
G01 X20.9604 Y9.2139
G01 X20.9095 Y9.1283
G01 X20.8319 Y9.0216
G01 X20.7424 Y8.9247
G01 X20.6684 Y8.8581
G01 X20.5754 Y8.7891
G01 X20.4616 Y8.7223
G01 X20.3714 Y8.6801
G01 X20.2624 Y8.6411
G01 X20.1501 Y8.6130
G01 X20.0356 Y8.5960
G01 X19.9200 Y8.5903
G01 X19.8044 Y8.5960
G01 X19.6899 Y8.6130
G01 X19.5776 Y8.6411
G01 X19.4686 Y8.6801
G01 X19.3639 Y8.7296
G01 X19.2646 Y8.7891
G01 X19.1716 Y8.8581
G01 X19.0858 Y8.9358
G01 X19.0081 Y9.0216
G01 X18.9391 Y9.1146
G01 X18.8796 Y9.2139
G01 X18.8301 Y9.3186
G01 X18.7911 Y9.4276
G01 X18.7602 Y9.5558
G01 X18.7460 Y9.6544
G01 X18.7403 Y9.7700
G01 X18.7480 Y9.9017
G01 X18.7868 Y10.0968
G01 X18.8367 Y10.2362
G01 X18.9305 Y10.4117
G01 X19.0081 Y10.5184
G01 X19.1003 Y10.6178
G01 X19.1039 Y12.6234
G00 Z2.0000
G00 X16.7646 Y12.5936
G01 F50.00
G01 Z-0.1000
G01 F100.00
G01 X16.7782 Y12.6348
G01 X16.8048 Y12.6690
G01 X16.8473 Y12.6944
G01 X16.8900 Y12.7018
G01 X17.9024 Y12.7012
G01 X17.9442 Y12.6896
G01 X17.9752 Y12.6690
G01 X17.9988 Y12.6402
G01 X18.0144 Y12.5997
G01 X18.0168 Y10.5098
G01 X18.1310 Y10.3944
G01 X18.1886 Y10.3178
G01 X18.2415 Y10.2305
G01 X18.2824 Y10.1438
G01 X18.3164 Y10.0476
G01 X18.3513 Y9.8719
G01 X18.3568 Y9.7700
G01 X18.3521 Y9.6743
G01 X18.3164 Y9.4924
G01 X18.2799 Y9.3905
G01 X18.1922 Y9.2273
G01 X18.0750 Y9.0838
G01 X17.9948 Y9.0111
G01 X17.8405 Y8.9085
G01 X17.6695 Y8.8372
G01 X17.5706 Y8.8120
G01 X17.3800 Y8.7932
G01 X17.1894 Y8.8120
G01 X17.0062 Y8.8676
G01 X16.8373 Y8.9578
G01 X16.6893 Y9.0793
G01 X16.5678 Y9.2273
G01 X16.4776 Y9.3962
G01 X16.4220 Y9.5794
G01 X16.4034 Y9.7638
G01 X16.4079 Y9.8657
G01 X16.4233 Y9.9666
G01 X16.4753 Y10.1380
G01 X16.5185 Y10.2305
G01 X16.5714 Y10.3178
G01 X16.6850 Y10.4562
G01 X16.7632 Y10.5273
G01 X16.7646 Y12.5936
G00 Z2.0000
G00 X14.2246 Y12.5936
G01 F50.00
G01 Z-0.1000
G01 F100.00
G01 X14.2382 Y12.6348
G01 X14.2648 Y12.6690
G01 X14.3073 Y12.6944
G01 X14.3500 Y12.7018
G01 X15.3624 Y12.7012
G01 X15.4042 Y12.6896
G01 X15.4352 Y12.6690
G01 X15.4588 Y12.6402
G01 X15.4744 Y12.5997
G01 X15.4768 Y10.5098
G01 X15.5910 Y10.3944
G01 X15.6486 Y10.3178
G01 X15.7015 Y10.2305
G01 X15.7424 Y10.1438
G01 X15.7764 Y10.0476
G01 X15.8113 Y9.8719
G01 X15.8168 Y9.7700
G01 X15.8121 Y9.6743
G01 X15.7764 Y9.4924
G01 X15.7399 Y9.3905
G01 X15.6522 Y9.2273
G01 X15.5350 Y9.0838
G01 X15.4548 Y9.0111
G01 X15.3005 Y8.9085
G01 X15.1295 Y8.8372
G01 X15.0306 Y8.8120
G01 X14.8400 Y8.7932
G01 X14.6494 Y8.8120
G01 X14.4662 Y8.8676
G01 X14.2973 Y8.9578
G01 X14.1493 Y9.0793
G01 X14.0278 Y9.2273
G01 X13.9376 Y9.3962
G01 X13.8820 Y9.5794
G01 X13.8634 Y9.7638
G01 X13.8679 Y9.8657
G01 X13.8833 Y9.9666
G01 X13.9353 Y10.1380
G01 X13.9785 Y10.2305
G01 X14.0314 Y10.3178
G01 X14.1450 Y10.4562
G01 X14.2232 Y10.5273
G01 X14.2246 Y12.5936
G00 Z2.0000
G00 X14.0233 Y8.0805
G01 F50.00
G01 Z-0.1000
G01 F100.00
G01 X13.8701 Y8.1130
G01 X13.8095 Y8.1440
G01 X13.7497 Y8.1884
G01 X13.0905 Y8.8465
G01 X13.0427 Y8.9058
G01 X13.0137 Y8.9565
G01 X12.9821 Y9.0450
G01 X12.9704 Y9.1365
G01 X12.9703 Y10.9720
G01 X12.3120 Y11.6303
G01 X6.8100 Y11.6303
G01 X6.7262 Y11.6385
G01 X6.6074 Y11.6810
G01 X6.5119 Y11.7505
G01 X5.2699 Y12.9934
G01 X5.2699 Y11.8638
G01 X6.0813 Y11.0524
G01 X6.2138 Y10.9972
G01 X6.2928 Y10.9517
G01 X6.3798 Y10.8887
G01 X6.4474 Y10.8274
G01 X6.5537 Y10.6997
G01 X6.6099 Y10.6082
G01 X6.6547 Y10.5107
G01 X6.6983 Y10.3672
G01 X6.7164 Y10.2450
G01 X6.7132 Y10.0628
G01 X6.6796 Y9.9001
G01 X6.6199 Y9.7520
G01 X6.6199 Y7.3938
G01 X9.4138 Y4.5999
G01 X13.3662 Y4.5999
G01 X14.0201 Y5.2538
G01 X14.0203 Y6.3822
G01 X13.9281 Y6.4816
G01 X13.8591 Y6.5746
G01 X13.7996 Y6.6739
G01 X13.7501 Y6.7786
G01 X13.7111 Y6.8876
G01 X13.6830 Y6.9999
G01 X13.6660 Y7.1144
G01 X13.6603 Y7.2300
G01 X13.6660 Y7.3456
G01 X13.6830 Y7.4601
G01 X13.7111 Y7.5724
G01 X13.7501 Y7.6814
G01 X13.7996 Y7.7861
G01 X13.8591 Y7.8854
G01 X13.9281 Y7.9784
G01 X14.0233 Y8.0805
G00 Z2.0000
G00 X11.6091 Y8.1467
G01 F50.00
G01 Z-0.1000
G01 F100.00
G01 X11.5612 Y7.9506
G01 X11.4986 Y7.7757
G01 X11.4192 Y7.6078
G01 X11.3237 Y7.4485
G01 X11.2131 Y7.2993
G01 X11.0883 Y7.1617
G01 X10.9507 Y7.0369
G01 X10.8015 Y6.9263
G01 X10.6422 Y6.8308
G01 X10.4743 Y6.7514
G01 X10.2994 Y6.6888
G01 X10.1192 Y6.6437
G01 X9.9355 Y6.6164
G01 X9.7500 Y6.6073
G01 X9.5645 Y6.6164
G01 X9.3808 Y6.6437
G01 X9.2006 Y6.6888
G01 X9.0257 Y6.7514
G01 X8.8578 Y6.8308
G01 X8.6985 Y6.9263
G01 X8.5493 Y7.0369
G01 X8.4117 Y7.1617
G01 X8.2869 Y7.2993
G01 X8.1763 Y7.4485
G01 X8.0808 Y7.6078
G01 X8.0014 Y7.7757
G01 X7.9388 Y7.9506
G01 X7.8937 Y8.1308
G01 X7.8664 Y8.3145
G01 X7.8573 Y8.5000
G01 X7.8664 Y8.6855
G01 X7.8937 Y8.8692
G01 X7.9388 Y9.0494
G01 X8.0014 Y9.2243
G01 X8.0808 Y9.3922
G01 X8.1763 Y9.5515
G01 X8.2869 Y9.7007
G01 X8.4117 Y9.8383
G01 X8.5493 Y9.9631
G01 X8.6985 Y10.0737
G01 X8.8578 Y10.1692
G01 X9.0257 Y10.2486
G01 X9.2006 Y10.3112
G01 X9.3808 Y10.3563
G01 X9.5645 Y10.3836
G01 X9.7500 Y10.3927
G01 X9.9355 Y10.3836
G01 X10.1192 Y10.3563
G01 X10.2994 Y10.3112
G01 X10.4743 Y10.2486
G01 X10.6422 Y10.1692
G01 X10.8015 Y10.0737
G01 X10.9507 Y9.9631
G01 X11.0883 Y9.8383
G01 X11.2131 Y9.7007
G01 X11.3237 Y9.5515
G01 X11.4192 Y9.3922
G01 X11.4986 Y9.2243
G01 X11.5612 Y9.0494
G01 X11.6063 Y8.8692
G01 X11.6336 Y8.6855
G01 X11.6427 Y8.5000
G01 X11.6336 Y8.3145
G01 X11.6091 Y8.1467
G00 Z2.0000
G00 X11.4084 Y8.1765
G01 F50.00
G01 Z-0.1000
G01 F100.00
G01 X11.3670 Y8.0095
G01 X11.3112 Y7.8533
G01 X11.2403 Y7.7034
G01 X11.1550 Y7.5612
G01 X11.0562 Y7.4280
G01 X10.9449 Y7.3051
G01 X10.8220 Y7.1938
G01 X10.6888 Y7.0950
G01 X10.5466 Y7.0097
G01 X10.3967 Y6.9388
G01 X10.2405 Y6.8830
G01 X10.0797 Y6.8427
G01 X9.9156 Y6.8183
G01 X9.7500 Y6.8102
G01 X9.5844 Y6.8183
G01 X9.4203 Y6.8427
G01 X9.2595 Y6.8830
G01 X9.1033 Y6.9388
G01 X8.9534 Y7.0097
G01 X8.8112 Y7.0950
G01 X8.6780 Y7.1938
G01 X8.5551 Y7.3051
G01 X8.4438 Y7.4280
G01 X8.3450 Y7.5612
G01 X8.2597 Y7.7034
G01 X8.1888 Y7.8533
G01 X8.1330 Y8.0095
G01 X8.0927 Y8.1703
G01 X8.0683 Y8.3344
G01 X8.0602 Y8.5000
G01 X8.0683 Y8.6656
G01 X8.0927 Y8.8297
G01 X8.1330 Y8.9905
G01 X8.1888 Y9.1467
G01 X8.2597 Y9.2966
G01 X8.3450 Y9.4388
G01 X8.4438 Y9.5720
G01 X8.5551 Y9.6949
G01 X8.6780 Y9.8062
G01 X8.8112 Y9.9050
G01 X8.9534 Y9.9903
G01 X9.1033 Y10.0612
G01 X9.2595 Y10.1170
G01 X9.4203 Y10.1573
G01 X9.5844 Y10.1817
G01 X9.7500 Y10.1898
G01 X9.9156 Y10.1817
G01 X10.0797 Y10.1573
G01 X10.2405 Y10.1170
G01 X10.3967 Y10.0612
G01 X10.5466 Y9.9903
G01 X10.6888 Y9.9050
G01 X10.8220 Y9.8062
G01 X10.9449 Y9.6949
G01 X11.0562 Y9.5720
G01 X11.1550 Y9.4388
G01 X11.2403 Y9.2966
G01 X11.3112 Y9.1467
G01 X11.3670 Y8.9905
G01 X11.4073 Y8.8297
G01 X11.4317 Y8.6656
G01 X11.4398 Y8.5000
G01 X11.4317 Y8.3344
G01 X11.4084 Y8.1765
G00 Z2.0000
G00 X16.6850 Y6.5438
G01 F50.00
G01 Z-0.1000
G01 F100.00
G01 X16.5678 Y6.6873
G01 X16.4776 Y6.8562
G01 X16.4220 Y7.0394
G01 X16.4032 Y7.2300
G01 X16.4220 Y7.4206
G01 X16.4776 Y7.6038
G01 X16.5678 Y7.7727
G01 X16.6893 Y7.9207
G01 X16.8373 Y8.0422
G01 X17.0062 Y8.1324
G01 X17.1894 Y8.1880
G01 X17.3800 Y8.2068
G01 X17.5706 Y8.1880
G01 X17.7538 Y8.1324
G01 X17.9227 Y8.0422
G01 X18.0707 Y7.9207
G01 X18.1922 Y7.7727
G01 X18.2824 Y7.6038
G01 X18.3380 Y7.4206
G01 X18.3521 Y7.3257
G01 X18.3566 Y7.2238
G01 X18.3380 Y7.0394
G01 X18.3147 Y6.9464
G01 X18.2799 Y6.8505
G01 X18.1886 Y6.6822
G01 X18.1310 Y6.6056
G01 X18.0168 Y6.4902
G01 X18.0168 Y5.4677
G01 X18.0738 Y5.3771
G01 X18.1255 Y5.2510
G01 X18.1525 Y5.1174
G01 X18.1566 Y5.0338
G01 X18.1439 Y4.9043
G01 X18.1236 Y4.8231
G01 X18.0710 Y4.6974
G01 X18.0168 Y4.6123
G01 X18.0130 Y4.3442
G01 X17.9880 Y4.2946
G01 X17.9498 Y4.2632
G01 X17.8931 Y4.2482
G01 X16.8838 Y4.2484
G01 X16.8248 Y4.2662
G01 X16.7782 Y4.3152
G01 X16.7632 Y4.3719
G01 X16.7632 Y4.7516
G01 X16.7172 Y4.8982
G01 X16.7032 Y5.0400
G01 X16.7172 Y5.1818
G01 X16.7632 Y5.3284
G01 X16.7632 Y6.4727
G01 X16.6850 Y6.5438
G00 Z2.0000
G00 X21.5481 Y6.4816
G01 F50.00
G01 Z-0.1000
G01 F100.00
G01 X21.4791 Y6.5746
G01 X21.4196 Y6.6739
G01 X21.3701 Y6.7786
G01 X21.3311 Y6.8876
G01 X21.3030 Y6.9999
G01 X21.2860 Y7.1144
G01 X21.2803 Y7.2300
G01 X21.2860 Y7.3456
G01 X21.3030 Y7.4601
G01 X21.3311 Y7.5724
G01 X21.3701 Y7.6814
G01 X21.4196 Y7.7861
G01 X21.4791 Y7.8854
G01 X21.5481 Y7.9784
G01 X21.6258 Y8.0642
G01 X21.7116 Y8.1419
G01 X21.8046 Y8.2109
G01 X21.9039 Y8.2704
G01 X22.0086 Y8.3199
G01 X22.1176 Y8.3589
G01 X22.2299 Y8.3870
G01 X22.3444 Y8.4040
G01 X22.4600 Y8.4097
G01 X22.5756 Y8.4040
G01 X22.6901 Y8.3870
G01 X22.8024 Y8.3589
G01 X22.9114 Y8.3199
G01 X23.0161 Y8.2704
G01 X23.1154 Y8.2109
G01 X23.2084 Y8.1419
G01 X23.2942 Y8.0642
G01 X23.3719 Y7.9784
G01 X23.4409 Y7.8854
G01 X23.5004 Y7.7861
G01 X23.5499 Y7.6814
G01 X23.5889 Y7.5724
G01 X23.6170 Y7.4601
G01 X23.6340 Y7.3456
G01 X23.6397 Y7.2300
G01 X23.6352 Y7.1305
G01 X23.6170 Y6.9999
G01 X23.5932 Y6.9032
G01 X23.5433 Y6.7638
G01 X23.5004 Y6.6739
G01 X23.4409 Y6.5746
G01 X23.3719 Y6.4816
G01 X23.2997 Y6.4016
G01 X23.2993 Y4.3588
G01 X23.2898 Y4.2949
G01 X23.2608 Y4.2196
G01 X23.2143 Y4.1536
G01 X23.1532 Y4.1009
G01 X23.0811 Y4.0646
G01 X22.9862 Y4.0457
G01 X21.9538 Y4.0457
G01 X21.8899 Y4.0552
G01 X21.8146 Y4.0842
G01 X21.7486 Y4.1307
G01 X21.6959 Y4.1918
G01 X21.6545 Y4.2793
G01 X21.6404 Y4.3669
G01 X21.6403 Y6.3822
G01 X21.5481 Y6.4816
G00 Z2.0000
G00 X21.7650 Y6.5438
G01 F50.00
G01 Z-0.1000
G01 F100.00
G01 X21.6478 Y6.6873
G01 X21.5576 Y6.8562
G01 X21.5020 Y7.0394
G01 X21.4832 Y7.2300
G01 X21.5020 Y7.4206
G01 X21.5576 Y7.6038
G01 X21.6478 Y7.7727
G01 X21.7693 Y7.9207
G01 X21.9173 Y8.0422
G01 X22.0862 Y8.1324
G01 X22.2694 Y8.1880
G01 X22.4600 Y8.2068
G01 X22.6506 Y8.1880
G01 X22.8338 Y8.1324
G01 X23.0027 Y8.0422
G01 X23.1507 Y7.9207
G01 X23.2722 Y7.7727
G01 X23.3624 Y7.6038
G01 X23.4180 Y7.4206
G01 X23.4321 Y7.3257
G01 X23.4366 Y7.2238
G01 X23.4180 Y7.0394
G01 X23.3947 Y6.9464
G01 X23.3599 Y6.8505
G01 X23.2686 Y6.6822
G01 X23.2110 Y6.6056
G01 X23.0968 Y6.4902
G01 X23.0968 Y4.3719
G01 X23.0788 Y4.3098
G01 X23.0298 Y4.2632
G01 X22.9731 Y4.2482
G01 X21.9638 Y4.2484
G01 X21.9048 Y4.2662
G01 X21.8582 Y4.3152
G01 X21.8432 Y4.3750
G01 X21.8432 Y6.4727
G01 X21.7650 Y6.5438
G00 Z2.0000
G00 X29.9084 Y8.1765
G01 F50.00
G01 Z-0.1000
G01 F100.00
G01 X29.8670 Y8.0095
G01 X29.8112 Y7.8533
G01 X29.7403 Y7.7034
G01 X29.6550 Y7.5612
G01 X29.5562 Y7.4280
G01 X29.4449 Y7.3051
G01 X29.3220 Y7.1938
G01 X29.1888 Y7.0950
G01 X29.0466 Y7.0097
G01 X28.8967 Y6.9388
G01 X28.7405 Y6.8830
G01 X28.5797 Y6.8427
G01 X28.4156 Y6.8183
G01 X28.2500 Y6.8102
G01 X28.0844 Y6.8183
G01 X27.9203 Y6.8427
G01 X27.7595 Y6.8830
G01 X27.6033 Y6.9388
G01 X27.4534 Y7.0097
G01 X27.3112 Y7.0950
G01 X27.1780 Y7.1938
G01 X27.0551 Y7.3051
G01 X26.9438 Y7.4280
G01 X26.8450 Y7.5612
G01 X26.7597 Y7.7034
G01 X26.6888 Y7.8533
G01 X26.6330 Y8.0095
G01 X26.5927 Y8.1703
G01 X26.5683 Y8.3344
G01 X26.5602 Y8.5000
G01 X26.5683 Y8.6656
G01 X26.5927 Y8.8297
G01 X26.6330 Y8.9905
G01 X26.6888 Y9.1467
G01 X26.7597 Y9.2966
G01 X26.8450 Y9.4388
G01 X26.9438 Y9.5720
G01 X27.0551 Y9.6949
G01 X27.1780 Y9.8062
G01 X27.3112 Y9.9050
G01 X27.4534 Y9.9903
G01 X27.6033 Y10.0612
G01 X27.7595 Y10.1170
G01 X27.9203 Y10.1573
G01 X28.0844 Y10.1817
G01 X28.2500 Y10.1898
G01 X28.4156 Y10.1817
G01 X28.5797 Y10.1573
G01 X28.7405 Y10.1170
G01 X28.8967 Y10.0612
G01 X29.0466 Y9.9903
G01 X29.1888 Y9.9050
G01 X29.3220 Y9.8062
G01 X29.4449 Y9.6949
G01 X29.5562 Y9.5720
G01 X29.6550 Y9.4388
G01 X29.7403 Y9.2966
G01 X29.8112 Y9.1467
G01 X29.8670 Y8.9905
G01 X29.9073 Y8.8297
G01 X29.9317 Y8.6656
G01 X29.9398 Y8.5000
G01 X29.9317 Y8.3344
G01 X29.9084 Y8.1765
G00 Z2.0000
G00 X30.1091 Y8.1467
G01 F50.00
G01 Z-0.1000
G01 F100.00
G01 X30.0612 Y7.9506
G01 X29.9986 Y7.7757
G01 X29.9192 Y7.6078
G01 X29.8237 Y7.4485
G01 X29.7131 Y7.2993
G01 X29.5883 Y7.1617
G01 X29.4507 Y7.0369
G01 X29.3015 Y6.9263
G01 X29.1422 Y6.8308
G01 X28.9743 Y6.7514
G01 X28.7994 Y6.6888
G01 X28.6192 Y6.6437
G01 X28.4355 Y6.6164
G01 X28.2500 Y6.6073
G01 X28.0645 Y6.6164
G01 X27.8808 Y6.6437
G01 X27.7006 Y6.6888
G01 X27.5257 Y6.7514
G01 X27.3578 Y6.8308
G01 X27.1985 Y6.9263
G01 X27.0493 Y7.0369
G01 X26.9117 Y7.1617
G01 X26.7869 Y7.2993
G01 X26.6763 Y7.4485
G01 X26.5808 Y7.6078
G01 X26.5014 Y7.7757
G01 X26.4388 Y7.9506
G01 X26.3937 Y8.1308
G01 X26.3664 Y8.3145
G01 X26.3573 Y8.5000
G01 X26.3664 Y8.6855
G01 X26.3937 Y8.8692
G01 X26.4388 Y9.0494
G01 X26.5014 Y9.2243
G01 X26.5808 Y9.3922
G01 X26.6763 Y9.5515
G01 X26.7869 Y9.7007
G01 X26.9117 Y9.8383
G01 X27.0493 Y9.9631
G01 X27.1985 Y10.0737
G01 X27.3578 Y10.1692
G01 X27.5257 Y10.2486
G01 X27.7006 Y10.3112
G01 X27.8808 Y10.3563
G01 X28.0645 Y10.3836
G01 X28.2500 Y10.3927
G01 X28.4355 Y10.3836
G01 X28.6192 Y10.3563
G01 X28.7994 Y10.3112
G01 X28.9743 Y10.2486
G01 X29.1422 Y10.1692
G01 X29.3015 Y10.0737
G01 X29.4507 Y9.9631
G01 X29.5883 Y9.8383
G01 X29.7131 Y9.7007
G01 X29.8237 Y9.5515
G01 X29.9192 Y9.3922
G01 X29.9986 Y9.2243
G01 X30.0612 Y9.0494
G01 X30.1063 Y8.8692
G01 X30.1336 Y8.6855
G01 X30.1427 Y8.5000
G01 X30.1336 Y8.3145
G01 X30.1091 Y8.1467
G00 Z2.0000
G00 X33.4506 Y5.0509
G01 F50.00
G01 Z-0.1000
G01 F100.00
G01 X33.3514 Y5.0753
G01 X33.2612 Y5.1076
G01 X33.1745 Y5.1485
G01 X33.0872 Y5.2014
G01 X33.0106 Y5.2590
G01 X32.8840 Y5.3856
G01 X32.8228 Y5.4673
G01 X32.7707 Y5.5551
G01 X32.7022 Y5.7205
G01 X32.6783 Y5.8134
G01 X32.6629 Y5.9143
G01 X32.6582 Y6.0100
G01 X32.6637 Y6.1119
G01 X32.6986 Y6.2876
G01 X32.7326 Y6.3838
G01 X32.7735 Y6.4705
G01 X32.8799 Y6.6297
G01 X32.9443 Y6.7007
G01 X33.0202 Y6.7689
G01 X33.1801 Y6.8743
G01 X33.2670 Y6.9147
G01 X33.4384 Y6.9667
G01 X33.6319 Y6.9868
G01 X34.0307 Y6.9821
G01 X34.2186 Y6.9447
G01 X34.3955 Y6.8715
G01 X34.5547 Y6.7651
G01 X34.6901 Y6.6297
G01 X34.7965 Y6.4705
G01 X34.8697 Y6.2935
G01 X34.9071 Y6.1057
G01 X34.9071 Y5.9143
G01 X34.8697 Y5.7265
G01 X34.7965 Y5.5495
G01 X34.6901 Y5.3903
G01 X34.5594 Y5.2590
G01 X34.4009 Y5.1516
G01 X34.3030 Y5.1053
G01 X34.1316 Y5.0533
G01 X34.0245 Y5.0374
G01 X33.6319 Y5.0332
G01 X33.4506 Y5.0509
G00 Z2.0000
G00 X33.4208 Y4.8502
G01 F50.00
G01 Z-0.1000
G01 F100.00
G01 X33.2926 Y4.8811
G01 X33.1836 Y4.9201
G01 X33.0789 Y4.9696
G01 X32.9664 Y5.0384
G01 X32.8744 Y5.1087
G01 X32.7337 Y5.2494
G01 X32.6541 Y5.3546
G01 X32.5873 Y5.4684
G01 X32.5112 Y5.6522
G01 X32.4815 Y5.7641
G01 X32.4610 Y5.8944
G01 X32.4553 Y6.0100
G01 X32.4630 Y6.1417
G01 X32.5018 Y6.3368
G01 X32.5451 Y6.4614
G01 X32.5946 Y6.5661
G01 X32.6541 Y6.6654
G01 X32.7231 Y6.7584
G01 X32.8008 Y6.8442
G01 X32.8744 Y6.9113
G01 X32.9933 Y6.9995
G01 X33.0789 Y7.0504
G01 X33.1836 Y7.0999
G01 X33.3082 Y7.1432
G01 X33.4049 Y7.1670
G01 X33.5194 Y7.1840
G01 X33.6350 Y7.1897
G01 X34.0506 Y7.1840
G01 X34.1651 Y7.1670
G01 X34.2618 Y7.1432
G01 X34.3864 Y7.0999
G01 X34.5052 Y7.0424
G01 X34.5904 Y6.9909
G01 X34.6834 Y6.9219
G01 X34.7803 Y6.8324
G01 X34.8469 Y6.7584
G01 X34.9159 Y6.6654
G01 X34.9754 Y6.5661
G01 X35.0183 Y6.4762
G01 X35.0701 Y6.3294
G01 X35.0701 Y8.0862
G01 X31.5772 Y11.5791
G01 X29.4811 Y11.5792
G01 X29.3272 Y11.5950
G01 X29.1867 Y11.6364
G01 X29.0281 Y11.7189
G01 X28.9140 Y11.8110
G01 X27.9332 Y12.7912
G01 X27.8405 Y12.8054
G01 X27.7139 Y12.8371
G01 X27.5910 Y12.8811
G01 X27.4874 Y12.9296
G01 X27.3478 Y13.0133
G01 X27.2561 Y13.0818
G01 X27.1711 Y13.1583
G01 X27.0718 Y13.2661
G01 X27.0033 Y13.3578
G01 X26.9196 Y13.4974
G01 X26.8711 Y13.6010
G01 X26.8271 Y13.7239
G01 X26.7954 Y13.8505
G01 X26.7782 Y13.9636
G01 X26.7698 Y14.1100
G01 X26.7698 Y15.5242
G01 X26.7762 Y15.6546
G01 X26.7926 Y15.7678
G01 X26.8271 Y15.9103
G01 X26.8776 Y16.0480
G01 X26.9269 Y16.1513
G01 X26.9853 Y16.2496
G01 X27.0718 Y16.3681
G01 X27.1594 Y16.4648
G01 X27.9462 Y17.2516
G01 X28.0843 Y17.3704
G01 X27.9769 Y17.3815
G01 X27.8833 Y17.4086
G01 X27.8027 Y17.4467
G01 X27.7100 Y17.5125
G01 X27.6419 Y17.5823
G01 X27.5788 Y17.6767
G01 X27.5353 Y17.7817
G01 X27.5151 Y17.8771
G01 X27.5103 Y19.1500
G01 X27.5187 Y19.2471
G01 X27.5544 Y19.3718
G01 X27.6080 Y19.4721
G01 X27.6918 Y19.5711
G01 X27.8027 Y19.6533
G01 X27.9373 Y19.7090
G01 X28.0171 Y19.7249
G01 X28.0900 Y19.7297
G01 X29.6062 Y19.7293
G01 X29.7427 Y19.7090
G01 X29.8633 Y19.6612
G01 X29.9700 Y19.5875
G01 X30.0275 Y19.5300
G01 X30.0720 Y19.4721
G01 X30.1314 Y19.3567
G01 X30.1550 Y19.2789
G01 X30.1669 Y19.2068
G01 X30.1681 Y17.9093
G01 X30.1447 Y17.7817
G01 X30.1190 Y17.7134
G01 X30.0804 Y17.6412
G01 X31.4500 Y17.6412
G01 X33.1703 Y19.3615
G01 X33.1707 Y20.0762
G01 X33.1775 Y20.1819
G01 X33.2125 Y20.3578
G01 X33.2591 Y20.4880
G01 X33.3523 Y20.6598
G01 X33.4754 Y20.8117
G01 X33.5778 Y20.9046
G01 X33.7270 Y21.0042
G01 X33.8368 Y21.0575
G01 X33.9522 Y21.0975
G01 X34.1442 Y21.1345
G01 X35.7500 Y21.1397
G01 X35.9447 Y21.1217
G01 X36.0788 Y21.0881
G01 X36.2590 Y21.0122
G01 X36.4222 Y20.9046
G01 X36.5135 Y20.8234
G01 X36.6384 Y20.6731
G01 X36.7022 Y20.5690
G01 X36.7533 Y20.4581
G01 X36.8054 Y20.2864
G01 X36.8245 Y20.1658
G01 X36.8296 Y20.0681
G01 X36.8293 Y18.5438
G01 X36.8225 Y18.4381
G01 X36.7875 Y18.2622
G01 X36.7475 Y18.1468
G01 X36.7022 Y18.0510
G01 X36.6477 Y17.9602
G01 X36.5846 Y17.8750
G01 X36.5135 Y17.7966
G01 X36.4349 Y17.7254
G01 X36.3498 Y17.6623
G01 X36.2590 Y17.6078
G01 X36.0788 Y17.5319
G01 X35.9606 Y17.5011
G01 X35.8397 Y17.4843
G01 X35.0515 Y17.4803
G01 X33.0113 Y15.4402
G01 X33.5625 Y15.4402
G01 X33.7179 Y15.6149
G01 X33.8393 Y15.7244
G01 X33.9972 Y15.8400
G01 X34.1375 Y15.9236
G01 X34.2998 Y16.0004
G01 X34.4689 Y16.0609
G01 X34.6590 Y16.1073
G01 X34.8207 Y16.1309
G01 X34.9838 Y16.1393
G01 X35.1954 Y16.1289
G01 X35.3569 Y16.1045
G01 X35.5311 Y16.0609
G01 X35.7002 Y16.0004
G01 X35.8481 Y15.9309
G01 X36.0165 Y15.8313
G01 X36.1607 Y15.7244
G01 X36.2938 Y15.6038
G01 X36.4038 Y15.4830
G01 X36.5213 Y15.3265
G01 X36.6057 Y15.1866
G01 X36.6962 Y14.9951
G01 X36.7509 Y14.8411
G01 X36.7945 Y14.6670
G01 X36.8209 Y14.4893
G01 X36.8297 Y14.3100
G01 X36.8209 Y14.1307
G01 X36.7945 Y13.9530
G01 X36.7509 Y13.7789
G01 X36.6904 Y13.6098
G01 X36.6136 Y13.4475
G01 X36.5120 Y13.2803
G01 X36.4144 Y13.1492
G01 X36.3049 Y13.0279
G01 X36.1607 Y12.8956
G01 X36.0028 Y12.7800
G01 X35.8625 Y12.6964
G01 X35.7150 Y12.6262
G01 X35.5311 Y12.5591
G01 X35.3569 Y12.5155
G01 X35.1793 Y12.4891
G01 X35.0000 Y12.4803
G01 X34.8207 Y12.4891
G01 X34.6431 Y12.5155
G01 X34.4689 Y12.5591
G01 X34.2998 Y12.6196
G01 X34.1375 Y12.6964
G01 X33.9975 Y12.7798
G01 X32.7239 Y12.7798
G01 X36.4868 Y9.0168
G01 X36.5807 Y8.9043
G01 X36.6392 Y8.8068
G01 X36.6726 Y8.7325
G01 X36.7104 Y8.6077
G01 X36.7298 Y8.4381
G01 X36.7299 Y4.9400
G01 X36.7167 Y4.7940
G01 X36.6942 Y4.6991
G01 X36.6602 Y4.6076
G01 X36.5987 Y4.4926
G01 X36.5310 Y4.4012
G01 X35.1155 Y2.9818
G01 X35.1063 Y2.8129
G01 X35.0640 Y2.6734
G01 X35.0256 Y2.6016
G01 X34.9831 Y2.5422
G01 X34.9150 Y2.4725
G01 X34.8571 Y2.4280
G01 X34.7938 Y2.3915
G01 X34.7033 Y2.3553
G01 X34.6321 Y2.3387
G01 X34.5512 Y2.3307
G01 X33.0350 Y2.3303
G01 X32.9219 Y2.3415
G01 X32.8283 Y2.3686
G01 X32.7617 Y2.3988
G01 X32.6800 Y2.4519
G01 X32.6251 Y2.5001
G01 X32.5769 Y2.5550
G01 X32.5238 Y2.6367
G01 X32.4936 Y2.7033
G01 X32.4665 Y2.7969
G01 X32.4553 Y2.9100
G01 X32.4569 Y4.1507
G01 X32.4854 Y4.2936
G01 X32.5165 Y4.3688
G01 X32.5530 Y4.4321
G01 X32.6251 Y4.5199
G01 X32.7266 Y4.6006
G01 X32.8283 Y4.6514
G01 X32.9621 Y4.6849
G01 X34.4760 Y4.6897
G01 X35.0701 Y5.2838
G01 X35.0701 Y5.6906
G01 X35.0249 Y5.5586
G01 X34.9754 Y5.4539
G01 X34.9159 Y5.3546
G01 X34.8469 Y5.2616
G01 X34.7692 Y5.1758
G01 X34.6834 Y5.0981
G01 X34.5904 Y5.0291
G01 X34.4911 Y4.9696
G01 X34.3864 Y4.9201
G01 X34.2774 Y4.8811
G01 X34.1651 Y4.8530
G01 X34.0506 Y4.8360
G01 X33.6269 Y4.8304
G01 X33.4208 Y4.8502
G00 Z2.0000
G00 X29.2273 Y15.0573
G01 F50.00
G01 Z-0.1000
G01 F100.00
G01 X29.2219 Y13.9995
G01 X29.2056 Y13.8901
G01 X29.1788 Y13.7828
G01 X29.1303 Y13.6546
G01 X29.5276 Y13.2574
G01 X29.5132 Y13.3600
G01 X29.5150 Y14.8969
G01 X29.5396 Y14.9984
G01 X29.5767 Y15.0693
G01 X29.6281 Y15.1307
G01 X29.6977 Y15.1837
G01 X29.3537 Y15.1837
G01 X29.2273 Y15.0573
G00 Z2.0000
G00 X26.9933 Y15.7380
G01 F50.00
G01 Z-0.1000
G01 F100.00
G01 X27.0232 Y15.8574
G01 X27.0585 Y15.9556
G01 X27.1058 Y16.0556
G01 X27.1663 Y16.1556
G01 X27.2986 Y16.3168
G01 X28.1669 Y17.1783
G01 X28.2605 Y17.2483
G01 X28.3500 Y17.3021
G01 X28.4612 Y17.3547
G01 X28.5595 Y17.3898
G01 X28.6669 Y17.4166
G01 X28.7763 Y17.4329
G01 X28.8837 Y17.4383
G01 X31.5341 Y17.4383
G01 X33.3732 Y19.2774
G01 X33.3732 Y20.0631
G01 X33.3890 Y20.2249
G01 X33.4110 Y20.3145
G01 X33.4767 Y20.4733
G01 X33.5722 Y20.6162
G01 X33.6938 Y20.7378
G01 X33.8422 Y20.8361
G01 X33.9203 Y20.8723
G01 X34.0729 Y20.9186
G01 X34.2438 Y20.9366
G01 X35.8421 Y20.9318
G01 X35.9985 Y20.9007
G01 X36.0797 Y20.8723
G01 X36.2371 Y20.7890
G01 X36.3743 Y20.6755
G01 X36.4316 Y20.6113
G01 X36.5202 Y20.4787
G01 X36.5890 Y20.3145
G01 X36.6230 Y20.1397
G01 X36.6266 Y18.5538
G01 X36.6100 Y18.3889
G01 X36.5623 Y18.2303
G01 X36.5202 Y18.1413
G01 X36.4278 Y18.0038
G01 X36.3062 Y17.8822
G01 X36.1687 Y17.7898
G01 X36.0797 Y17.7477
G01 X35.9211 Y17.7000
G01 X35.7531 Y17.6832
G01 X34.9674 Y17.6832
G01 X32.7959 Y15.5117
G01 X32.7162 Y15.4396
G01 X32.6220 Y15.3704
G01 X32.5268 Y15.3140
G01 X32.3428 Y15.2373
G01 X33.6646 Y15.2373
G01 X33.7425 Y15.3420
G01 X33.8454 Y15.4558
G01 X33.9680 Y15.5675
G01 X34.1015 Y15.6660
G01 X34.2331 Y15.7447
G01 X34.3718 Y15.8104
G01 X34.5338 Y15.8684
G01 X34.6826 Y15.9055
G01 X34.8344 Y15.9282
G01 X35.0000 Y15.9368
G01 X35.1656 Y15.9282
G01 X35.3174 Y15.9055
G01 X35.4722 Y15.8667
G01 X35.6225 Y15.8130
G01 X35.7613 Y15.7475
G01 X35.9089 Y15.6591
G01 X36.0320 Y15.5675
G01 X36.1458 Y15.4646
G01 X36.2614 Y15.3371
G01 X36.3526 Y15.2138
G01 X36.4347 Y15.0769
G01 X36.5052 Y14.9267
G01 X36.5568 Y14.7822
G01 X36.5955 Y14.6274
G01 X36.6190 Y14.4695
G01 X36.6266 Y14.3162
G01 X36.6182 Y14.1444
G01 X36.5955 Y13.9926
G01 X36.5568 Y13.8378
G01 X36.5030 Y13.6875
G01 X36.4347 Y13.5431
G01 X36.3526 Y13.4062
G01 X36.2575 Y13.2780
G01 X36.1503 Y13.1597
G01 X36.0367 Y13.0565
G01 X35.8985 Y12.9540
G01 X35.7669 Y12.8753
G01 X35.6167 Y12.8048
G01 X35.4662 Y12.7516
G01 X35.3174 Y12.7145
G01 X35.1656 Y12.6918
G01 X35.0000 Y12.6832
G01 X34.8468 Y12.6906
G01 X34.6766 Y12.7158
G01 X34.5278 Y12.7533
G01 X34.3833 Y12.8048
G01 X34.2331 Y12.8753
G01 X34.0618 Y12.9827
G01 X32.1732 Y12.9827
G01 X32.2694 Y12.9304
G01 X32.3644 Y12.8524
G01 X36.3434 Y8.8734
G01 X36.3885 Y8.8229
G01 X36.4530 Y8.7256
G01 X36.4816 Y8.6642
G01 X36.5136 Y8.5584
G01 X36.5271 Y8.4300
G01 X36.5271 Y4.9400
G01 X36.5233 Y4.8724
G01 X36.5000 Y4.7580
G01 X36.4499 Y4.6390
G01 X36.3885 Y4.5471
G01 X36.3456 Y4.4988
G01 X34.9118 Y3.0651
G01 X34.9100 Y2.8731
G01 X34.8831 Y2.7658
G01 X34.8222 Y2.6662
G01 X34.7740 Y2.6187
G01 X34.7180 Y2.5808
G01 X34.6384 Y2.5478
G01 X34.5381 Y2.5332
G01 X33.0319 Y2.5332
G01 X32.9197 Y2.5514
G01 X32.8574 Y2.5777
G01 X32.8009 Y2.6149
G01 X32.7437 Y2.6710
G01 X32.7027 Y2.7324
G01 X32.6744 Y2.8006
G01 X32.6600 Y2.8731
G01 X32.6600 Y4.1469
G01 X32.6894 Y4.2599
G01 X32.7217 Y4.3193
G01 X32.7643 Y4.3719
G01 X32.8574 Y4.4423
G01 X32.9615 Y4.4796
G01 X33.0350 Y4.4868
G01 X34.5590 Y4.4858
G01 X35.2729 Y5.1997
G01 X35.2729 Y8.1703
G01 X31.6613 Y11.7819
G01 X29.4892 Y11.7819
G01 X29.3730 Y11.7929
G01 X29.3012 Y11.8109
G01 X29.1991 Y11.8532
G01 X29.1460 Y11.8843
G01 X29.0503 Y11.9613
G01 X28.0251 Y12.9862
G01 X27.8740 Y13.0057
G01 X27.7728 Y13.0312
G01 X27.6629 Y13.0710
G01 X27.5686 Y13.1158
G01 X27.4737 Y13.1727
G01 X27.3848 Y13.2386
G01 X27.3074 Y13.3086
G01 X27.2286 Y13.3948
G01 X27.1663 Y13.4786
G01 X27.1030 Y13.5842
G01 X27.0585 Y13.6786
G01 X27.0212 Y13.7828
G01 X26.9944 Y13.8901
G01 X26.9789 Y13.9933
G01 X26.9727 Y14.1100
G01 X26.9727 Y15.5242
G01 X26.9781 Y15.6347
G01 X26.9933 Y15.7380
G00 Z2.0000
G00 X28.4599 Y19.8930
G01 F50.00
G01 Z-0.1000
G01 F100.00
G01 X28.3476 Y19.9211
G01 X28.2238 Y19.9667
G01 X28.0483 Y20.0605
G01 X27.9544 Y20.1281
G01 X27.8558 Y20.2158
G01 X27.7781 Y20.3016
G01 X27.7091 Y20.3946
G01 X27.6496 Y20.4939
G01 X27.6001 Y20.5986
G01 X27.5568 Y20.7232
G01 X27.5180 Y20.9183
G01 X27.5107 Y21.0338
G01 X27.5160 Y21.1656
G01 X27.5330 Y21.2801
G01 X27.5611 Y21.3924
G01 X27.6001 Y21.5014
G01 X27.6496 Y21.6061
G01 X27.7091 Y21.7054
G01 X27.7781 Y21.7984
G01 X27.8676 Y21.8953
G01 X27.9416 Y21.9619
G01 X28.0483 Y22.0395
G01 X28.1484 Y22.0977
G01 X28.3322 Y22.1738
G01 X28.4599 Y22.2070
G01 X28.5744 Y22.2240
G01 X28.9981 Y22.2296
G01 X29.1056 Y22.2240
G01 X29.2201 Y22.2070
G01 X29.3324 Y22.1789
G01 X29.4414 Y22.1399
G01 X29.5461 Y22.0904
G01 X29.6454 Y22.0309
G01 X29.7384 Y21.9619
G01 X29.8242 Y21.8842
G01 X29.9019 Y21.7984
G01 X29.9709 Y21.7054
G01 X30.0304 Y21.6061
G01 X30.0799 Y21.5014
G01 X30.1189 Y21.3924
G01 X30.1470 Y21.2801
G01 X30.1640 Y21.1656
G01 X30.1697 Y21.0500
G01 X30.1640 Y20.9344
G01 X30.1470 Y20.8199
G01 X30.1189 Y20.7076
G01 X30.0799 Y20.5986
G01 X30.0304 Y20.4939
G01 X29.9709 Y20.3946
G01 X29.9019 Y20.3016
G01 X29.8242 Y20.2158
G01 X29.7384 Y20.1381
G01 X29.6454 Y20.0691
G01 X29.5461 Y20.0096
G01 X29.4414 Y19.9601
G01 X29.3324 Y19.9211
G01 X29.2359 Y19.8965
G01 X29.0895 Y19.8748
G01 X28.6819 Y19.8704
G01 X28.5744 Y19.8760
G01 X28.4599 Y19.8930
G00 Z2.0000
G00 X28.4994 Y20.0920
G01 F50.00
G01 Z-0.1000
G01 F100.00
G01 X28.4064 Y20.1153
G01 X28.3105 Y20.1501
G01 X28.2241 Y20.1916
G01 X28.0752 Y20.2911
G01 X27.9993 Y20.3593
G01 X27.9349 Y20.4303
G01 X27.8778 Y20.5073
G01 X27.8257 Y20.5951
G01 X27.7853 Y20.6820
G01 X27.7333 Y20.8534
G01 X27.7179 Y20.9543
G01 X27.7132 Y21.0500
G01 X27.7179 Y21.1457
G01 X27.7333 Y21.2466
G01 X27.7853 Y21.4180
G01 X27.8285 Y21.5105
G01 X27.9349 Y21.6697
G01 X27.9993 Y21.7407
G01 X28.0752 Y21.8089
G01 X28.2241 Y21.9084
G01 X28.3105 Y21.9499
G01 X28.4934 Y22.0067
G01 X28.6869 Y22.0268
G01 X29.0857 Y22.0221
G01 X29.2736 Y21.9847
G01 X29.4505 Y21.9115
G01 X29.6097 Y21.8051
G01 X29.7451 Y21.6697
G01 X29.8515 Y21.5105
G01 X29.9247 Y21.3336
G01 X29.9621 Y21.1457
G01 X29.9621 Y20.9543
G01 X29.9247 Y20.7664
G01 X29.8515 Y20.5895
G01 X29.7451 Y20.4303
G01 X29.6144 Y20.2990
G01 X29.4559 Y20.1916
G01 X29.3580 Y20.1453
G01 X29.1866 Y20.0933
G01 X29.0795 Y20.0774
G01 X28.6869 Y20.0732
G01 X28.4994 Y20.0920
G00 Z2.0000
G00 X29.7621 Y19.4851
G01 F50.00
G01 Z-0.1000
G01 F100.00
G01 X29.8338 Y19.4372
G01 X29.9033 Y19.3593
G01 X29.9486 Y19.2653
G01 X29.9654 Y19.1807
G01 X29.9650 Y17.9131
G01 X29.9506 Y17.8406
G01 X29.9251 Y17.7779
G01 X29.8519 Y17.6793
G01 X29.7993 Y17.6367
G01 X29.7399 Y17.6044
G01 X29.6207 Y17.5746
G01 X28.0900 Y17.5732
G01 X28.0165 Y17.5804
G01 X27.9458 Y17.6019
G01 X27.8807 Y17.6367
G01 X27.8193 Y17.6881
G01 X27.7767 Y17.7407
G01 X27.7444 Y17.8001
G01 X27.7146 Y17.9193
G01 X27.7132 Y19.1500
G01 X27.7204 Y19.2235
G01 X27.7419 Y19.2942
G01 X27.7767 Y19.3593
G01 X27.8281 Y19.4207
G01 X27.8807 Y19.4633
G01 X27.9458 Y19.4981
G01 X28.0165 Y19.5196
G01 X28.0869 Y19.5268
G01 X29.5931 Y19.5268
G01 X29.6696 Y19.5182
G01 X29.7621 Y19.4851
G00 Z2.0000
G00 X21.7354 Y21.1454
G01 F50.00
G01 Z-0.1000
G01 F100.00
G01 X21.6798 Y20.9236
G01 X21.6028 Y20.7083
G01 X21.5050 Y20.5016
G01 X21.3875 Y20.3054
G01 X21.2512 Y20.1217
G01 X21.0977 Y19.9523
G01 X20.9282 Y19.7987
G01 X20.7446 Y19.6625
G01 X20.5484 Y19.5450
G01 X20.3417 Y19.4472
G01 X20.1264 Y19.3702
G01 X19.9046 Y19.3146
G01 X19.6784 Y19.2810
G01 X19.4500 Y19.2698
G01 X19.2216 Y19.2810
G01 X18.9954 Y19.3146
G01 X18.7736 Y19.3702
G01 X18.5583 Y19.4472
G01 X18.3516 Y19.5450
G01 X18.1554 Y19.6625
G01 X17.9718 Y19.7987
G01 X17.8023 Y19.9523
G01 X17.6488 Y20.1217
G01 X17.5125 Y20.3054
G01 X17.3950 Y20.5016
G01 X17.2972 Y20.7083
G01 X17.2202 Y20.9236
G01 X17.1646 Y21.1454
G01 X17.1310 Y21.3716
G01 X17.1198 Y21.6000
G01 X17.1310 Y21.8284
G01 X17.1646 Y22.0546
G01 X17.2202 Y22.2764
G01 X17.2972 Y22.4917
G01 X17.3950 Y22.6984
G01 X17.5125 Y22.8946
G01 X17.6488 Y23.0783
G01 X17.8023 Y23.2477
G01 X17.9718 Y23.4013
G01 X18.1554 Y23.5375
G01 X18.3516 Y23.6550
G01 X18.5583 Y23.7528
G01 X18.7736 Y23.8298
G01 X18.9954 Y23.8854
G01 X19.2216 Y23.9190
G01 X19.4500 Y23.9302
G01 X19.6784 Y23.9190
G01 X19.9046 Y23.8854
G01 X20.1264 Y23.8298
G01 X20.3417 Y23.7528
G01 X20.5484 Y23.6550
G01 X20.7446 Y23.5375
G01 X20.9282 Y23.4013
G01 X21.0977 Y23.2477
G01 X21.2512 Y23.0783
G01 X21.3875 Y22.8946
G01 X21.5050 Y22.6984
G01 X21.6028 Y22.4917
G01 X21.6798 Y22.2764
G01 X21.7354 Y22.0546
G01 X21.7690 Y21.8284
G01 X21.7802 Y21.6000
G01 X21.7690 Y21.3716
G01 X21.7354 Y21.1454
G00 Z2.0000
G00 X21.5364 Y21.1850
G01 F50.00
G01 Z-0.1000
G01 F100.00
G01 X21.4857 Y20.9825
G01 X21.4154 Y20.7859
G01 X21.3261 Y20.5972
G01 X21.2188 Y20.4181
G01 X21.0944 Y20.2505
G01 X20.9542 Y20.0958
G01 X20.7995 Y19.9556
G01 X20.6319 Y19.8312
G01 X20.4528 Y19.7239
G01 X20.2641 Y19.6346
G01 X20.0675 Y19.5643
G01 X19.8650 Y19.5136
G01 X19.6585 Y19.4829
G01 X19.4500 Y19.4727
G01 X19.2415 Y19.4829
G01 X19.0350 Y19.5136
G01 X18.8325 Y19.5643
G01 X18.6359 Y19.6346
G01 X18.4472 Y19.7239
G01 X18.2681 Y19.8312
G01 X18.1005 Y19.9556
G01 X17.9458 Y20.0958
G01 X17.8056 Y20.2505
G01 X17.6812 Y20.4181
G01 X17.5739 Y20.5972
G01 X17.4846 Y20.7859
G01 X17.4143 Y20.9825
G01 X17.3636 Y21.1850
G01 X17.3329 Y21.3915
G01 X17.3227 Y21.6000
G01 X17.3329 Y21.8085
G01 X17.3636 Y22.0150
G01 X17.4143 Y22.2175
G01 X17.4846 Y22.4141
G01 X17.5739 Y22.6028
G01 X17.6812 Y22.7819
G01 X17.8056 Y22.9495
G01 X17.9458 Y23.1042
G01 X18.1005 Y23.2444
G01 X18.2681 Y23.3688
G01 X18.4472 Y23.4761
G01 X18.6359 Y23.5654
G01 X18.8325 Y23.6357
G01 X19.0350 Y23.6864
G01 X19.2415 Y23.7171
G01 X19.4500 Y23.7273
G01 X19.6585 Y23.7171
G01 X19.8650 Y23.6864
G01 X20.0675 Y23.6357
G01 X20.2641 Y23.5654
G01 X20.4528 Y23.4761
G01 X20.6319 Y23.3688
G01 X20.7995 Y23.2444
G01 X20.9542 Y23.1042
G01 X21.0944 Y22.9495
G01 X21.2188 Y22.7819
G01 X21.3261 Y22.6028
G01 X21.4154 Y22.4141
G01 X21.4857 Y22.2175
G01 X21.5364 Y22.0150
G01 X21.5671 Y21.8085
G01 X21.5773 Y21.6000
G01 X21.5671 Y21.3915
G01 X21.5364 Y21.1850
G00 Z2.0000
M05
G00 Z2.0000
G00 Z2.00


