(G-code generated by FlatCAM Evo vUnstable - Version Date: 2023/6/31)

(Name: Toolhead PCB-F_Cu.gbr_iso_combined_cnc)
(Type: G-code from Geometry)
(Units: MM)

(Created on Thursday, 25 September 2025 at 23:28)

(This preprocessor is the default preprocessor.)
(It is made to work with MACH3 compatible motion controllers.)

(TOOL DIAMETER: 0.1247 mm)
(Feedrate_XY: 100.0 mm/min)
(Feedrate_Z: 50.0 mm/min)
(Feedrate rapids 1500.0 mm/min)

(Z_Cut: -0.07 mm)
(Z_Move: 2.0 mm)
(Z Start: None mm)
(Z End: 2.0 mm)
(X,Y End: None mm)
(Steps per circle: 16)
(Preprocessor Geometry: default)

(X range:    1.2929 ...   36.6621  mm)
(Y range:    7.4979 ...   28.6119  mm)

(Spindle Speed: 0.0 RPM)
G21
G90
G94

G01 F100.00
G00 Z2.0000

M03
G4 P1.0
G01 F100.00
G00 X2.3305 Y9.2585
G01 F50.00
G01 Z-0.0700
G01 F100.00
G01 X2.3721 Y9.3460
G01 X2.4343 Y9.4133
G01 X2.5133 Y9.4597
G01 X2.6024 Y9.4811
G01 X4.1331 Y9.4823
G01 X4.2236 Y9.4679
G01 X4.3060 Y9.4279
G01 X4.3695 Y9.3705
G01 X4.4040 Y9.3199
G01 X4.4297 Y9.2577
G01 X4.4411 Y9.1976
G01 X4.4423 Y7.9669
G01 X4.4279 Y7.8764
G01 X4.3879 Y7.7940
G01 X4.3305 Y7.7305
G01 X4.2745 Y7.6932
G01 X4.2177 Y7.6703
G01 X4.1331 Y7.6577
G01 X2.6269 Y7.6577
G01 X2.5364 Y7.6721
G01 X2.4540 Y7.7121
G01 X2.3905 Y7.7695
G01 X2.3560 Y7.8201
G01 X2.3303 Y7.8823
G01 X2.3189 Y7.9424
G01 X2.3177 Y9.1700
G01 X2.3305 Y9.2585
G00 Z2.0000
G00 X2.2340 Y9.2839
G01 F50.00
G01 Z-0.0700
G01 F100.00
G01 X2.2831 Y9.3922
G01 X2.3625 Y9.4834
G01 X2.4650 Y9.5475
G01 X2.5817 Y9.5792
G01 X4.1380 Y9.5819
G01 X4.2572 Y9.5619
G01 X4.3655 Y9.5081
G01 X4.4434 Y9.4375
G01 X4.4895 Y9.3712
G01 X4.5265 Y9.2820
G01 X4.5407 Y9.2025
G01 X4.5407 Y7.9375
G01 X4.5219 Y7.8428
G01 X4.4681 Y7.7345
G01 X4.3975 Y7.6566
G01 X4.3312 Y7.6105
G01 X4.2420 Y7.5735
G01 X4.1625 Y7.5593
G01 X2.6220 Y7.5581
G01 X2.5028 Y7.5781
G01 X2.3945 Y7.6319
G01 X2.3166 Y7.7025
G01 X2.2705 Y7.7688
G01 X2.2335 Y7.8580
G01 X2.2193 Y7.9375
G01 X2.2179 Y9.1700
G01 X2.2340 Y9.2839
G00 Z2.0000
G00 X2.3348 Y11.2460
G01 F50.00
G01 Z-0.0700
G01 F100.00
G01 X2.3862 Y11.4169
G01 X2.4732 Y11.5794
G01 X2.5871 Y11.7172
G01 X2.6536 Y11.7771
G01 X2.7973 Y11.8731
G01 X2.9623 Y11.9421
G01 X3.1375 Y11.9776
G01 X3.6225 Y11.9776
G01 X3.7977 Y11.9421
G01 X3.9578 Y11.8758
G01 X4.1064 Y11.7771
G01 X4.2343 Y11.6500
G01 X4.3360 Y11.4973
G01 X4.4039 Y11.3319
G01 X4.4382 Y11.1564
G01 X4.4376 Y10.9775
G01 X4.4241 Y10.8890
G01 X4.3740 Y10.7237
G01 X4.2902 Y10.5657
G01 X4.1772 Y10.4271
G01 X4.0343 Y10.3098
G01 X3.8763 Y10.2260
G01 X3.7050 Y10.1747
G01 X3.5300 Y10.1577
G01 X3.1375 Y10.1624
G01 X2.9623 Y10.1979
G01 X2.7973 Y10.2669
G01 X2.6536 Y10.3629
G01 X2.5871 Y10.4228
G01 X2.4732 Y10.5606
G01 X2.3883 Y10.7181
G01 X2.3359 Y10.8890
G01 X2.3177 Y11.0669
G01 X2.3348 Y11.2460
G00 Z2.0000
G00 X2.2364 Y11.2622
G01 F50.00
G01 Z-0.0700
G01 F100.00
G01 X2.2926 Y11.4514
G01 X2.3344 Y11.5412
G01 X2.3930 Y11.6388
G01 X2.5201 Y11.7912
G01 X2.5942 Y11.8573
G01 X2.7460 Y11.9587
G01 X2.9286 Y12.0360
G01 X3.1229 Y12.0763
G01 X3.5300 Y12.0821
G01 X3.7222 Y12.0636
G01 X3.9114 Y12.0074
G01 X4.0856 Y11.9158
G01 X4.2399 Y11.7912
G01 X4.3670 Y11.6388
G01 X4.4618 Y11.4646
G01 X4.5209 Y11.2752
G01 X4.5419 Y11.0780
G01 X4.5376 Y10.9748
G01 X4.5236 Y10.8778
G01 X4.4674 Y10.6886
G01 X4.4256 Y10.5988
G01 X4.3670 Y10.5012
G01 X4.2399 Y10.3488
G01 X4.1658 Y10.2827
G01 X4.0140 Y10.1813
G01 X3.8314 Y10.1040
G01 X3.6371 Y10.0637
G01 X3.2300 Y10.0579
G01 X3.0378 Y10.0764
G01 X2.8486 Y10.1326
G01 X2.6744 Y10.2242
G01 X2.5201 Y10.3488
G01 X2.3930 Y10.5012
G01 X2.2982 Y10.6754
G01 X2.2391 Y10.8648
G01 X2.2181 Y11.0620
G01 X2.2224 Y11.1652
G01 X2.2364 Y11.2622
G00 Z2.0000
G00 X1.4055 Y16.9585
G01 F50.00
G01 Z-0.0700
G01 F100.00
G01 X1.4471 Y17.0460
G01 X1.5093 Y17.1133
G01 X1.5883 Y17.1597
G01 X1.6774 Y17.1811
G01 X2.9826 Y17.1811
G01 X3.0435 Y17.1695
G01 X3.0995 Y17.1468
G01 X3.1835 Y17.0826
G01 X3.6674 Y17.0826
G01 X3.6674 Y21.1950
G01 X3.6789 Y21.3077
G01 X3.7115 Y21.4131
G01 X3.7640 Y21.5101
G01 X3.8322 Y21.5928
G01 X6.9209 Y24.6815
G01 X6.9543 Y24.7863
G01 X7.0126 Y24.8954
G01 X7.0945 Y24.9961
G01 X7.1472 Y25.0439
G01 X7.2503 Y25.1128
G01 X7.3698 Y25.1629
G01 X7.4388 Y25.1801
G01 X7.5650 Y25.1923
G01 X8.1830 Y25.1888
G01 X8.3102 Y25.1629
G01 X8.3713 Y25.1407
G01 X8.4633 Y25.0926
G01 X11.3475 Y25.0926
G01 X11.4305 Y25.1455
G01 X11.5448 Y25.1929
G01 X11.6138 Y25.2101
G01 X11.7369 Y25.2223
G01 X11.8722 Y25.2090
G01 X11.9906 Y25.1730
G01 X12.0549 Y25.1426
G01 X12.1578 Y25.0739
G01 X12.2105 Y25.0261
G01 X12.2891 Y24.9303
G01 X12.3255 Y24.8695
G01 X12.3729 Y24.7552
G01 X12.3901 Y24.6862
G01 X12.4023 Y24.5631
G01 X12.3988 Y24.4920
G01 X12.3746 Y24.3707
G01 X12.3507 Y24.3037
G01 X12.2924 Y24.1946
G01 X12.2500 Y24.1375
G01 X12.1625 Y24.0500
G01 X12.1054 Y24.0076
G01 X11.9963 Y23.9493
G01 X11.9293 Y23.9254
G01 X11.8019 Y23.9006
G01 X11.6781 Y23.9006
G01 X11.5507 Y23.9254
G01 X11.4455 Y23.9674
G01 X8.4633 Y23.9674
G01 X8.3707 Y23.9190
G01 X8.3102 Y23.8971
G01 X8.1830 Y23.8712
G01 X7.6983 Y23.8677
G01 X4.7926 Y20.9620
G01 X4.7926 Y16.9630
G01 X5.9415 Y15.8141
G01 X6.0406 Y15.7830
G01 X6.1049 Y15.7526
G01 X6.1605 Y15.7190
G01 X6.2561 Y15.6405
G01 X6.3424 Y15.5354
G01 X6.3755 Y15.4795
G01 X6.4229 Y15.3652
G01 X6.4494 Y15.2319
G01 X6.4488 Y15.1020
G01 X6.4229 Y14.9748
G01 X6.4007 Y14.9137
G01 X6.3526 Y14.8217
G01 X6.3526 Y12.2830
G01 X9.3030 Y9.3326
G01 X13.4770 Y9.3326
G01 X14.2874 Y10.1430
G01 X14.2876 Y11.5050
G01 X14.1928 Y11.5871
G01 X14.0832 Y11.7206
G01 X14.0340 Y11.8027
G01 X13.9679 Y11.9623
G01 X13.9447 Y12.0550
G01 X13.9277 Y12.2269
G01 X13.9324 Y12.3225
G01 X13.9679 Y12.4977
G01 X14.0340 Y12.6573
G01 X14.0832 Y12.7394
G01 X14.1928 Y12.8729
G01 X14.2636 Y12.9371
G01 X14.4073 Y13.0331
G01 X14.4937 Y13.0740
G01 X14.6650 Y13.1253
G01 X14.8369 Y13.1423
G01 X14.9325 Y13.1376
G01 X15.1077 Y13.1021
G01 X15.2678 Y13.0358
G01 X15.4164 Y12.9371
G01 X15.5443 Y12.8100
G01 X15.6431 Y12.6627
G01 X15.6840 Y12.5763
G01 X15.7353 Y12.4050
G01 X15.7523 Y12.2331
G01 X15.7481 Y12.1421
G01 X15.7341 Y12.0490
G01 X15.6838 Y11.8831
G01 X15.6431 Y11.7973
G01 X15.5471 Y11.6536
G01 X15.4829 Y11.5828
G01 X15.4124 Y11.5199
G01 X15.4124 Y9.3750
G01 X15.4045 Y9.3447
G01 X15.3874 Y9.3251
G01 X15.3561 Y9.3130
G01 X15.0483 Y9.3126
G01 X14.0692 Y8.3371
G01 X13.9725 Y8.2725
G01 X13.8762 Y8.2326
G01 X13.8167 Y8.2177
G01 X13.7100 Y8.2074
G01 X9.0700 Y8.2074
G01 X9.0118 Y8.2105
G01 X8.9096 Y8.2308
G01 X8.8021 Y8.2753
G01 X8.7155 Y8.3332
G01 X8.6722 Y8.3722
G01 X5.3922 Y11.6522
G01 X5.3532 Y11.6955
G01 X5.2953 Y11.7821
G01 X5.2508 Y11.8896
G01 X5.2305 Y11.9918
G01 X5.2274 Y12.0500
G01 X5.2274 Y14.8217
G01 X5.1790 Y14.9143
G01 X5.1459 Y15.0185
G01 X4.2070 Y15.9574
G01 X3.1835 Y15.9574
G01 X3.1310 Y15.9121
G01 X3.0773 Y15.8827
G01 X3.0189 Y15.8643
G01 X2.9550 Y15.8577
G01 X1.7019 Y15.8577
G01 X1.6411 Y15.8643
G01 X1.5605 Y15.8932
G01 X1.5045 Y15.9305
G01 X1.4471 Y15.9940
G01 X1.4153 Y16.0533
G01 X1.3945 Y16.1363
G01 X1.3927 Y16.8700
G01 X1.4055 Y16.9585
G00 Z2.0000
G00 X1.4724 Y18.8349
G01 F50.00
G01 Z-0.0700
G01 F100.00
G01 X1.5450 Y18.9425
G01 X1.6372 Y19.0339
G01 X1.7455 Y19.1055
G01 X1.8044 Y19.1330
G01 X1.9228 Y19.1690
G01 X2.0550 Y19.1823
G01 X2.6050 Y19.1823
G01 X2.6730 Y19.1788
G01 X2.7943 Y19.1546
G01 X2.9145 Y19.1055
G01 X3.0228 Y19.0339
G01 X3.1150 Y18.9425
G01 X3.1878 Y18.8347
G01 X3.2379 Y18.7152
G01 X3.2638 Y18.5880
G01 X3.2644 Y18.4581
G01 X3.2396 Y18.3307
G01 X3.1876 Y18.2051
G01 X3.1540 Y18.1495
G01 X3.0755 Y18.0539
G01 X2.9704 Y17.9676
G01 X2.9145 Y17.9345
G01 X2.8002 Y17.8871
G01 X2.7312 Y17.8699
G01 X2.6050 Y17.8577
G01 X2.0519 Y17.8577
G01 X1.9870 Y17.8612
G01 X1.8657 Y17.8854
G01 X1.7401 Y17.9374
G01 X1.6325 Y18.0100
G01 X1.5450 Y18.0975
G01 X1.5060 Y18.1495
G01 X1.4440 Y18.2643
G01 X1.4049 Y18.3938
G01 X1.3956 Y18.4581
G01 X1.3956 Y18.5819
G01 X1.4221 Y18.7152
G01 X1.4724 Y18.8349
G00 Z2.0000
G00 X1.3868 Y18.8862
G01 F50.00
G01 Z-0.0700
G01 F100.00
G01 X1.4711 Y19.0095
G01 X1.5778 Y19.1140
G01 X1.7029 Y19.1957
G01 X1.8414 Y19.2514
G01 X1.9724 Y19.2775
G01 X2.0470 Y19.2819
G01 X2.6050 Y19.2821
G01 X2.6876 Y19.2775
G01 X2.8186 Y19.2514
G01 X2.9571 Y19.1957
G01 X3.0822 Y19.1140
G01 X3.1889 Y19.0095
G01 X3.2735 Y18.8856
G01 X3.3318 Y18.7488
G01 X3.3625 Y18.6026
G01 X3.3640 Y18.4532
G01 X3.3364 Y18.3064
G01 X3.2732 Y18.1538
G01 X3.2341 Y18.0901
G01 X3.1494 Y17.9869
G01 X3.0217 Y17.8821
G01 X2.9571 Y17.8443
G01 X2.8338 Y17.7932
G01 X2.7458 Y17.7712
G01 X2.6050 Y17.7579
G01 X2.0470 Y17.7581
G01 X1.9724 Y17.7625
G01 X1.8414 Y17.7886
G01 X1.6888 Y17.8518
G01 X1.5655 Y17.9361
G01 X1.4711 Y18.0305
G01 X1.4259 Y18.0901
G01 X1.3535 Y18.2225
G01 X1.3062 Y18.3792
G01 X1.2960 Y18.4532
G01 X1.2960 Y18.5868
G01 X1.3282 Y18.7488
G01 X1.3868 Y18.8862
G00 Z2.0000
G00 X1.4724 Y20.8349
G01 F50.00
G01 Z-0.0700
G01 F100.00
G01 X1.5450 Y20.9425
G01 X1.6372 Y21.0339
G01 X1.7455 Y21.1055
G01 X1.8044 Y21.1330
G01 X1.9228 Y21.1690
G01 X2.0550 Y21.1823
G01 X2.6050 Y21.1823
G01 X2.6730 Y21.1788
G01 X2.7943 Y21.1546
G01 X2.9145 Y21.1055
G01 X3.0228 Y21.0339
G01 X3.1150 Y20.9425
G01 X3.1878 Y20.8347
G01 X3.2379 Y20.7152
G01 X3.2638 Y20.5880
G01 X3.2644 Y20.4581
G01 X3.2396 Y20.3307
G01 X3.1876 Y20.2051
G01 X3.1540 Y20.1495
G01 X3.0755 Y20.0539
G01 X2.9704 Y19.9676
G01 X2.9145 Y19.9345
G01 X2.8002 Y19.8871
G01 X2.7312 Y19.8699
G01 X2.6050 Y19.8577
G01 X2.0519 Y19.8577
G01 X1.9870 Y19.8612
G01 X1.8657 Y19.8854
G01 X1.7401 Y19.9374
G01 X1.6325 Y20.0100
G01 X1.5450 Y20.0975
G01 X1.5060 Y20.1495
G01 X1.4440 Y20.2643
G01 X1.4049 Y20.3938
G01 X1.3956 Y20.4581
G01 X1.3956 Y20.5819
G01 X1.4221 Y20.7152
G01 X1.4724 Y20.8349
G00 Z2.0000
G00 X1.3868 Y20.8862
G01 F50.00
G01 Z-0.0700
G01 F100.00
G01 X1.4711 Y21.0095
G01 X1.5778 Y21.1140
G01 X1.7029 Y21.1957
G01 X1.8414 Y21.2514
G01 X1.9724 Y21.2775
G01 X2.0470 Y21.2819
G01 X2.6050 Y21.2821
G01 X2.6876 Y21.2775
G01 X2.8186 Y21.2514
G01 X2.9571 Y21.1957
G01 X3.0822 Y21.1140
G01 X3.1889 Y21.0095
G01 X3.2735 Y20.8856
G01 X3.3318 Y20.7488
G01 X3.3625 Y20.6026
G01 X3.3640 Y20.4532
G01 X3.3364 Y20.3064
G01 X3.2732 Y20.1538
G01 X3.2341 Y20.0901
G01 X3.1494 Y19.9869
G01 X3.0217 Y19.8821
G01 X2.9571 Y19.8443
G01 X2.8338 Y19.7932
G01 X2.7458 Y19.7712
G01 X2.6050 Y19.7579
G01 X2.0470 Y19.7581
G01 X1.9724 Y19.7625
G01 X1.8414 Y19.7886
G01 X1.6888 Y19.8518
G01 X1.5655 Y19.9361
G01 X1.4711 Y20.0305
G01 X1.4259 Y20.0901
G01 X1.3535 Y20.2225
G01 X1.3062 Y20.3792
G01 X1.2960 Y20.4532
G01 X1.2960 Y20.5868
G01 X1.3282 Y20.7488
G01 X1.3868 Y20.8862
G00 Z2.0000
G00 X1.4724 Y22.8349
G01 F50.00
G01 Z-0.0700
G01 F100.00
G01 X1.5450 Y22.9425
G01 X1.6372 Y23.0339
G01 X1.7455 Y23.1055
G01 X1.8044 Y23.1330
G01 X1.9228 Y23.1690
G01 X2.0550 Y23.1823
G01 X2.6050 Y23.1823
G01 X2.6730 Y23.1788
G01 X2.7943 Y23.1546
G01 X2.9145 Y23.1055
G01 X3.0228 Y23.0339
G01 X3.1150 Y22.9425
G01 X3.1878 Y22.8347
G01 X3.2379 Y22.7152
G01 X3.2638 Y22.5880
G01 X3.2644 Y22.4581
G01 X3.2396 Y22.3307
G01 X3.1876 Y22.2051
G01 X3.1540 Y22.1495
G01 X3.0755 Y22.0539
G01 X2.9704 Y21.9676
G01 X2.9145 Y21.9345
G01 X2.8002 Y21.8871
G01 X2.7312 Y21.8699
G01 X2.6050 Y21.8577
G01 X2.0519 Y21.8577
G01 X1.9870 Y21.8612
G01 X1.8657 Y21.8854
G01 X1.7401 Y21.9374
G01 X1.6325 Y22.0100
G01 X1.5450 Y22.0975
G01 X1.5060 Y22.1495
G01 X1.4440 Y22.2643
G01 X1.4049 Y22.3938
G01 X1.3956 Y22.4581
G01 X1.3956 Y22.5819
G01 X1.4221 Y22.7152
G01 X1.4724 Y22.8349
G00 Z2.0000
G00 X1.3868 Y22.8862
G01 F50.00
G01 Z-0.0700
G01 F100.00
G01 X1.4711 Y23.0095
G01 X1.5778 Y23.1140
G01 X1.7029 Y23.1957
G01 X1.8414 Y23.2514
G01 X1.9724 Y23.2775
G01 X2.0470 Y23.2819
G01 X2.6050 Y23.2821
G01 X2.6876 Y23.2775
G01 X2.8186 Y23.2514
G01 X2.9571 Y23.1957
G01 X3.0822 Y23.1140
G01 X3.1889 Y23.0095
G01 X3.2735 Y22.8856
G01 X3.3318 Y22.7488
G01 X3.3625 Y22.6026
G01 X3.3640 Y22.4532
G01 X3.3364 Y22.3064
G01 X3.2732 Y22.1538
G01 X3.2341 Y22.0901
G01 X3.1494 Y21.9869
G01 X3.0217 Y21.8821
G01 X2.9571 Y21.8443
G01 X2.8338 Y21.7932
G01 X2.7458 Y21.7712
G01 X2.6050 Y21.7579
G01 X2.0470 Y21.7581
G01 X1.9724 Y21.7625
G01 X1.8414 Y21.7886
G01 X1.6888 Y21.8518
G01 X1.5655 Y21.9361
G01 X1.4711 Y22.0305
G01 X1.4259 Y22.0901
G01 X1.3535 Y22.2225
G01 X1.3062 Y22.3792
G01 X1.2960 Y22.4532
G01 X1.2960 Y22.5868
G01 X1.3282 Y22.7488
G01 X1.3868 Y22.8862
G00 Z2.0000
G00 X1.4724 Y24.8349
G01 F50.00
G01 Z-0.0700
G01 F100.00
G01 X1.5450 Y24.9425
G01 X1.6372 Y25.0339
G01 X1.7455 Y25.1055
G01 X1.8044 Y25.1330
G01 X1.9228 Y25.1690
G01 X2.0550 Y25.1823
G01 X2.6050 Y25.1823
G01 X2.6730 Y25.1788
G01 X2.7943 Y25.1546
G01 X2.9145 Y25.1055
G01 X3.0228 Y25.0339
G01 X3.1150 Y24.9425
G01 X3.1878 Y24.8347
G01 X3.2379 Y24.7152
G01 X3.2638 Y24.5880
G01 X3.2644 Y24.4581
G01 X3.2396 Y24.3307
G01 X3.1876 Y24.2051
G01 X3.1540 Y24.1495
G01 X3.0755 Y24.0539
G01 X2.9704 Y23.9676
G01 X2.9145 Y23.9345
G01 X2.8002 Y23.8871
G01 X2.7312 Y23.8699
G01 X2.6050 Y23.8577
G01 X2.0519 Y23.8577
G01 X1.9870 Y23.8612
G01 X1.8657 Y23.8854
G01 X1.7401 Y23.9374
G01 X1.6325 Y24.0100
G01 X1.5450 Y24.0975
G01 X1.5060 Y24.1495
G01 X1.4440 Y24.2643
G01 X1.4049 Y24.3938
G01 X1.3956 Y24.4581
G01 X1.3956 Y24.5819
G01 X1.4221 Y24.7152
G01 X1.4724 Y24.8349
G00 Z2.0000
G00 X1.3868 Y24.8862
G01 F50.00
G01 Z-0.0700
G01 F100.00
G01 X1.4711 Y25.0095
G01 X1.5778 Y25.1140
G01 X1.7029 Y25.1957
G01 X1.8414 Y25.2514
G01 X1.9724 Y25.2775
G01 X2.0470 Y25.2819
G01 X2.6050 Y25.2821
G01 X2.6876 Y25.2775
G01 X2.8186 Y25.2514
G01 X2.9571 Y25.1957
G01 X3.0822 Y25.1140
G01 X3.1889 Y25.0095
G01 X3.2735 Y24.8856
G01 X3.3318 Y24.7488
G01 X3.3625 Y24.6026
G01 X3.3640 Y24.4532
G01 X3.3364 Y24.3064
G01 X3.2732 Y24.1538
G01 X3.2341 Y24.0901
G01 X3.1494 Y23.9869
G01 X3.0217 Y23.8821
G01 X2.9571 Y23.8443
G01 X2.8338 Y23.7932
G01 X2.7458 Y23.7712
G01 X2.6050 Y23.7579
G01 X2.0470 Y23.7581
G01 X1.9724 Y23.7625
G01 X1.8414 Y23.7886
G01 X1.6888 Y23.8518
G01 X1.5655 Y23.9361
G01 X1.4711 Y24.0305
G01 X1.4259 Y24.0901
G01 X1.3535 Y24.2225
G01 X1.3062 Y24.3792
G01 X1.2960 Y24.4532
G01 X1.2960 Y24.5868
G01 X1.3282 Y24.7488
G01 X1.3868 Y24.8862
G00 Z2.0000
G00 X1.4724 Y26.8349
G01 F50.00
G01 Z-0.0700
G01 F100.00
G01 X1.5450 Y26.9425
G01 X1.6372 Y27.0339
G01 X1.7455 Y27.1055
G01 X1.8044 Y27.1330
G01 X1.9228 Y27.1690
G01 X2.0550 Y27.1823
G01 X2.6050 Y27.1823
G01 X2.6730 Y27.1788
G01 X2.7943 Y27.1546
G01 X2.9145 Y27.1055
G01 X3.0228 Y27.0339
G01 X3.1150 Y26.9425
G01 X3.1878 Y26.8347
G01 X3.2379 Y26.7152
G01 X3.2638 Y26.5880
G01 X3.2644 Y26.4581
G01 X3.2396 Y26.3307
G01 X3.1876 Y26.2051
G01 X3.1540 Y26.1495
G01 X3.0755 Y26.0539
G01 X2.9704 Y25.9676
G01 X2.9145 Y25.9345
G01 X2.8002 Y25.8871
G01 X2.7312 Y25.8699
G01 X2.6050 Y25.8577
G01 X2.0519 Y25.8577
G01 X1.9870 Y25.8612
G01 X1.8657 Y25.8854
G01 X1.7401 Y25.9374
G01 X1.6325 Y26.0100
G01 X1.5450 Y26.0975
G01 X1.5060 Y26.1495
G01 X1.4440 Y26.2643
G01 X1.4049 Y26.3938
G01 X1.3956 Y26.4581
G01 X1.3956 Y26.5819
G01 X1.4221 Y26.7152
G01 X1.4724 Y26.8349
G00 Z2.0000
G00 X1.3868 Y26.8862
G01 F50.00
G01 Z-0.0700
G01 F100.00
G01 X1.4711 Y27.0095
G01 X1.5778 Y27.1140
G01 X1.7029 Y27.1957
G01 X1.8414 Y27.2514
G01 X1.9724 Y27.2775
G01 X2.0470 Y27.2819
G01 X2.6050 Y27.2821
G01 X2.6876 Y27.2775
G01 X2.8186 Y27.2514
G01 X2.9571 Y27.1957
G01 X3.0822 Y27.1140
G01 X3.1889 Y27.0095
G01 X3.2735 Y26.8856
G01 X3.3318 Y26.7488
G01 X3.3625 Y26.6026
G01 X3.3640 Y26.4532
G01 X3.3364 Y26.3064
G01 X3.2732 Y26.1538
G01 X3.2341 Y26.0901
G01 X3.1494 Y25.9869
G01 X3.0217 Y25.8821
G01 X2.9571 Y25.8443
G01 X2.8338 Y25.7932
G01 X2.7458 Y25.7712
G01 X2.6050 Y25.7579
G01 X2.0470 Y25.7581
G01 X1.9724 Y25.7625
G01 X1.8414 Y25.7886
G01 X1.6888 Y25.8518
G01 X1.5655 Y25.9361
G01 X1.4711 Y26.0305
G01 X1.4259 Y26.0901
G01 X1.3535 Y26.2225
G01 X1.3062 Y26.3792
G01 X1.2960 Y26.4532
G01 X1.2960 Y26.5868
G01 X1.3282 Y26.7488
G01 X1.3868 Y26.8862
G00 Z2.0000
G00 X6.8968 Y26.8962
G01 F50.00
G01 Z-0.0700
G01 F100.00
G01 X6.9811 Y27.0195
G01 X7.0878 Y27.1240
G01 X7.2129 Y27.2057
G01 X7.3514 Y27.2614
G01 X7.4824 Y27.2875
G01 X7.5570 Y27.2919
G01 X8.1150 Y27.2921
G01 X8.1976 Y27.2875
G01 X8.3286 Y27.2614
G01 X8.4671 Y27.2057
G01 X8.5922 Y27.1240
G01 X8.6989 Y27.0195
G01 X8.7835 Y26.8956
G01 X8.8418 Y26.7588
G01 X8.8725 Y26.6126
G01 X8.8740 Y26.4632
G01 X8.8464 Y26.3164
G01 X8.7832 Y26.1638
G01 X8.7441 Y26.1001
G01 X8.6594 Y25.9969
G01 X8.5317 Y25.8921
G01 X8.4671 Y25.8543
G01 X8.3438 Y25.8032
G01 X8.2558 Y25.7812
G01 X8.1150 Y25.7679
G01 X7.5570 Y25.7681
G01 X7.4824 Y25.7725
G01 X7.3514 Y25.7986
G01 X7.1988 Y25.8618
G01 X7.0755 Y25.9461
G01 X6.9811 Y26.0405
G01 X6.9359 Y26.1001
G01 X6.8635 Y26.2325
G01 X6.8162 Y26.3892
G01 X6.8060 Y26.4632
G01 X6.8060 Y26.5968
G01 X6.8382 Y26.7588
G01 X6.8968 Y26.8962
G00 Z2.0000
G00 X6.9824 Y26.8449
G01 F50.00
G01 Z-0.0700
G01 F100.00
G01 X7.0550 Y26.9525
G01 X7.1472 Y27.0439
G01 X7.2555 Y27.1155
G01 X7.3144 Y27.1430
G01 X7.4328 Y27.1790
G01 X7.5650 Y27.1923
G01 X8.1150 Y27.1923
G01 X8.1830 Y27.1888
G01 X8.3043 Y27.1646
G01 X8.4245 Y27.1155
G01 X8.5328 Y27.0439
G01 X8.6250 Y26.9525
G01 X8.6978 Y26.8447
G01 X8.7479 Y26.7252
G01 X8.7738 Y26.5980
G01 X8.7744 Y26.4681
G01 X8.7496 Y26.3407
G01 X8.6976 Y26.2151
G01 X8.6640 Y26.1595
G01 X8.5855 Y26.0639
G01 X8.4804 Y25.9776
G01 X8.4245 Y25.9445
G01 X8.3102 Y25.8971
G01 X8.2412 Y25.8799
G01 X8.1150 Y25.8677
G01 X7.5619 Y25.8677
G01 X7.4970 Y25.8712
G01 X7.3757 Y25.8954
G01 X7.2501 Y25.9474
G01 X7.1425 Y26.0200
G01 X7.0550 Y26.1075
G01 X7.0160 Y26.1595
G01 X6.9540 Y26.2743
G01 X6.9149 Y26.4038
G01 X6.9056 Y26.4681
G01 X6.9056 Y26.5919
G01 X6.9321 Y26.7252
G01 X6.9824 Y26.8449
G00 Z2.0000
G00 X6.9824 Y22.8449
G01 F50.00
G01 Z-0.0700
G01 F100.00
G01 X7.0550 Y22.9525
G01 X7.1472 Y23.0439
G01 X7.2555 Y23.1155
G01 X7.3144 Y23.1430
G01 X7.4328 Y23.1790
G01 X7.5650 Y23.1923
G01 X8.1150 Y23.1923
G01 X8.1830 Y23.1888
G01 X8.3043 Y23.1646
G01 X8.4245 Y23.1155
G01 X8.5328 Y23.0439
G01 X8.6250 Y22.9525
G01 X8.6978 Y22.8447
G01 X8.7479 Y22.7252
G01 X8.7738 Y22.5980
G01 X8.7744 Y22.4681
G01 X8.7496 Y22.3407
G01 X8.6976 Y22.2151
G01 X8.6640 Y22.1595
G01 X8.5855 Y22.0639
G01 X8.4804 Y21.9776
G01 X8.4245 Y21.9445
G01 X8.3102 Y21.8971
G01 X8.2412 Y21.8799
G01 X8.1150 Y21.8677
G01 X7.5619 Y21.8677
G01 X7.4970 Y21.8712
G01 X7.3757 Y21.8954
G01 X7.2501 Y21.9474
G01 X7.1425 Y22.0200
G01 X7.0550 Y22.1075
G01 X7.0160 Y22.1595
G01 X6.9540 Y22.2743
G01 X6.9149 Y22.4038
G01 X6.9056 Y22.4681
G01 X6.9056 Y22.5919
G01 X6.9321 Y22.7252
G01 X6.9824 Y22.8449
G00 Z2.0000
G00 X6.8968 Y20.8962
G01 F50.00
G01 Z-0.0700
G01 F100.00
G01 X6.9811 Y21.0195
G01 X7.0878 Y21.1240
G01 X7.2129 Y21.2057
G01 X7.3514 Y21.2614
G01 X7.4824 Y21.2875
G01 X7.5570 Y21.2919
G01 X8.1150 Y21.2921
G01 X8.1976 Y21.2875
G01 X8.3286 Y21.2614
G01 X8.4671 Y21.2057
G01 X8.5922 Y21.1240
G01 X8.6989 Y21.0195
G01 X8.7835 Y20.8956
G01 X8.8418 Y20.7588
G01 X8.8725 Y20.6126
G01 X8.8740 Y20.4632
G01 X8.8464 Y20.3164
G01 X8.7832 Y20.1638
G01 X8.7441 Y20.1001
G01 X8.6594 Y19.9969
G01 X8.5317 Y19.8921
G01 X8.4671 Y19.8543
G01 X8.3438 Y19.8032
G01 X8.2558 Y19.7812
G01 X8.1150 Y19.7679
G01 X7.5570 Y19.7681
G01 X7.4824 Y19.7725
G01 X7.3514 Y19.7986
G01 X7.1988 Y19.8618
G01 X7.0755 Y19.9461
G01 X6.9811 Y20.0405
G01 X6.9359 Y20.1001
G01 X6.8635 Y20.2325
G01 X6.8162 Y20.3892
G01 X6.8060 Y20.4632
G01 X6.8060 Y20.5968
G01 X6.8382 Y20.7588
G01 X6.8968 Y20.8962
G00 Z2.0000
G00 X6.9824 Y20.8449
G01 F50.00
G01 Z-0.0700
G01 F100.00
G01 X7.0550 Y20.9525
G01 X7.1472 Y21.0439
G01 X7.2555 Y21.1155
G01 X7.3144 Y21.1430
G01 X7.4328 Y21.1790
G01 X7.5650 Y21.1923
G01 X8.1150 Y21.1923
G01 X8.1830 Y21.1888
G01 X8.3043 Y21.1646
G01 X8.4245 Y21.1155
G01 X8.5328 Y21.0439
G01 X8.6250 Y20.9525
G01 X8.6978 Y20.8447
G01 X8.7479 Y20.7252
G01 X8.7738 Y20.5980
G01 X8.7744 Y20.4681
G01 X8.7496 Y20.3407
G01 X8.6976 Y20.2151
G01 X8.6640 Y20.1595
G01 X8.5855 Y20.0639
G01 X8.4804 Y19.9776
G01 X8.4245 Y19.9445
G01 X8.3102 Y19.8971
G01 X8.2412 Y19.8799
G01 X8.1150 Y19.8677
G01 X7.5619 Y19.8677
G01 X7.4970 Y19.8712
G01 X7.3757 Y19.8954
G01 X7.2501 Y19.9474
G01 X7.1425 Y20.0200
G01 X7.0550 Y20.1075
G01 X7.0160 Y20.1595
G01 X6.9540 Y20.2743
G01 X6.9149 Y20.4038
G01 X6.9056 Y20.4681
G01 X6.9056 Y20.5919
G01 X6.9321 Y20.7252
G01 X6.9824 Y20.8449
G00 Z2.0000
G00 X6.8190 Y18.9939
G01 F50.00
G01 Z-0.0700
G01 F100.00
G01 X6.8681 Y19.1022
G01 X6.9475 Y19.1934
G01 X7.0500 Y19.2575
G01 X7.1667 Y19.2892
G01 X8.4730 Y19.2919
G01 X8.5532 Y19.2824
G01 X8.6522 Y19.2470
G01 X8.7325 Y19.1934
G01 X8.8031 Y19.1155
G01 X8.8486 Y19.0303
G01 X8.8742 Y18.9283
G01 X8.8769 Y18.1720
G01 X8.8674 Y18.0918
G01 X8.8320 Y17.9928
G01 X8.7784 Y17.9125
G01 X8.7005 Y17.8419
G01 X8.6153 Y17.7964
G01 X8.5133 Y17.7708
G01 X7.2070 Y17.7681
G01 X7.1268 Y17.7776
G01 X7.0278 Y17.8130
G01 X6.9598 Y17.8565
G01 X6.8915 Y17.9248
G01 X6.8375 Y18.0150
G01 X6.8094 Y18.1074
G01 X6.8029 Y18.1800
G01 X6.8029 Y18.8800
G01 X6.8190 Y18.9939
G00 Z2.0000
G00 X6.9155 Y18.9685
G01 F50.00
G01 Z-0.0700
G01 F100.00
G01 X6.9537 Y19.0509
G01 X7.0145 Y19.1195
G01 X7.0927 Y19.1673
G01 X7.1813 Y19.1905
G01 X8.4650 Y19.1923
G01 X8.5289 Y19.1857
G01 X8.6095 Y19.1568
G01 X8.6655 Y19.1195
G01 X8.7229 Y19.0560
G01 X8.7547 Y18.9967
G01 X8.7755 Y18.9137
G01 X8.7773 Y18.1769
G01 X8.7707 Y18.1161
G01 X8.7418 Y18.0355
G01 X8.7045 Y17.9795
G01 X8.6359 Y17.9187
G01 X8.5586 Y17.8821
G01 X8.4926 Y17.8689
G01 X7.2150 Y17.8677
G01 X7.1511 Y17.8743
G01 X7.0705 Y17.9032
G01 X7.0145 Y17.9405
G01 X6.9571 Y18.0040
G01 X6.9253 Y18.0633
G01 X6.9045 Y18.1463
G01 X6.9027 Y18.8800
G01 X6.9155 Y18.9685
G00 Z2.0000
G00 X5.0074 Y20.8049
G01 F50.00
G01 Z-0.0700
G01 F100.00
G01 X5.0761 Y20.9078
G01 X5.1239 Y20.9605
G01 X5.2195 Y21.0390
G01 X5.2753 Y21.0728
G01 X5.3394 Y21.1030
G01 X5.4578 Y21.1390
G01 X5.5931 Y21.1523
G01 X5.7162 Y21.1401
G01 X5.7852 Y21.1229
G01 X5.8463 Y21.1007
G01 X5.9554 Y21.0424
G01 X6.0605 Y20.9561
G01 X6.1391 Y20.8603
G01 X6.1755 Y20.7995
G01 X6.2246 Y20.6793
G01 X6.2494 Y20.5519
G01 X6.2494 Y20.4281
G01 X6.2246 Y20.3007
G01 X6.2007 Y20.2337
G01 X6.1428 Y20.1254
G01 X5.7524 Y19.2878
G01 X5.7524 Y18.3473
G01 X6.8773 Y17.2224
G01 X12.4900 Y17.2224
G01 X12.5400 Y17.2144
G01 X12.6048 Y17.1748
G01 X13.5148 Y16.2648
G01 X13.5488 Y16.2149
G01 X13.5624 Y16.1500
G01 X13.5624 Y14.2119
G01 X14.1019 Y13.6724
G01 X18.6544 Y13.6717
G01 X18.7049 Y13.6588
G01 X18.7526 Y13.6269
G01 X19.4004 Y12.9793
G01 X19.4927 Y13.0360
G01 X19.6523 Y13.1021
G01 X19.7450 Y13.1253
G01 X19.9169 Y13.1423
G01 X20.0125 Y13.1376
G01 X20.1877 Y13.1021
G01 X20.3473 Y13.0360
G01 X20.4294 Y12.9868
G01 X20.5011 Y12.9333
G01 X20.6233 Y12.8111
G01 X20.7260 Y12.6573
G01 X20.7640 Y12.5763
G01 X20.8141 Y12.4110
G01 X20.8323 Y12.2331
G01 X20.8141 Y12.0490
G01 X20.7640 Y11.8837
G01 X20.7260 Y11.8027
G01 X20.6233 Y11.6489
G01 X20.4924 Y11.5199
G01 X20.4924 Y9.3750
G01 X20.4799 Y9.3376
G01 X20.4603 Y9.3205
G01 X20.4300 Y9.3126
G01 X19.4300 Y9.3126
G01 X19.3926 Y9.3251
G01 X19.3730 Y9.3497
G01 X19.3676 Y9.3750
G01 X19.3676 Y11.5050
G01 X19.2771 Y11.5828
G01 X19.2157 Y11.6500
G01 X19.1169 Y11.7973
G01 X19.0479 Y11.9623
G01 X19.0118 Y12.1436
G01 X19.0119 Y12.3179
G01 X19.0461 Y12.4919
G01 X19.1142 Y12.6578
G01 X19.1707 Y12.7496
G01 X18.5727 Y13.3476
G01 X14.0346 Y13.3476
G01 X13.9904 Y13.3538
G01 X13.9554 Y13.3683
G01 X13.9198 Y13.3952
G01 X13.2852 Y14.0298
G01 X13.2579 Y14.0660
G01 X13.2438 Y14.1004
G01 X13.2376 Y14.1446
G01 X13.2376 Y16.0827
G01 X12.4227 Y16.8976
G01 X6.8100 Y16.8976
G01 X6.7600 Y16.9056
G01 X6.7173 Y16.9267
G01 X5.4752 Y18.1652
G01 X5.4412 Y18.2151
G01 X5.4276 Y18.2800
G01 X5.4276 Y19.2878
G01 X5.0371 Y20.1255
G01 X4.9790 Y20.2343
G01 X4.9554 Y20.3007
G01 X4.9306 Y20.4281
G01 X4.9312 Y20.5580
G01 X4.9571 Y20.6852
G01 X5.0074 Y20.8049
G00 Z2.0000
G00 X4.9521 Y20.9067
G01 F50.00
G01 Z-0.0700
G01 F100.00
G01 X5.0569 Y21.0344
G01 X5.1601 Y21.1191
G01 X5.2244 Y21.1585
G01 X5.3058 Y21.1970
G01 X5.4336 Y21.2357
G01 X5.5980 Y21.2519
G01 X5.7308 Y21.2388
G01 X5.8188 Y21.2168
G01 X5.8889 Y21.1909
G01 X6.0067 Y21.1279
G01 X6.1344 Y21.0231
G01 X6.2191 Y20.9199
G01 X6.2585 Y20.8556
G01 X6.3168 Y20.7188
G01 X6.3388 Y20.6308
G01 X6.3519 Y20.4980
G01 X6.3388 Y20.3492
G01 X6.2909 Y20.1911
G01 X6.2320 Y20.0800
G01 X5.8522 Y19.2657
G01 X5.8522 Y18.3886
G01 X6.9186 Y17.3222
G01 X12.4900 Y17.3222
G01 X12.5737 Y17.3084
G01 X12.6500 Y17.2675
G01 X13.5854 Y16.3354
G01 X13.6390 Y16.2576
G01 X13.6554 Y16.2089
G01 X13.6622 Y16.1500
G01 X13.6622 Y14.2532
G01 X14.1432 Y13.7722
G01 X14.6761 Y13.7722
G01 X14.5386 Y13.8040
G01 X14.3688 Y13.8744
G01 X14.2042 Y13.9827
G01 X14.1188 Y14.0601
G01 X13.9942 Y14.2144
G01 X13.9082 Y14.3754
G01 X13.8491 Y14.5648
G01 X13.8322 Y14.6787
G01 X13.8322 Y14.8613
G01 X13.8460 Y14.9596
G01 X13.9026 Y15.1514
G01 X13.9444 Y15.2412
G01 X14.0030 Y15.3388
G01 X14.0628 Y15.4181
G01 X14.1879 Y15.5435
G01 X14.1879 Y16.8911
G01 X14.1530 Y16.9658
G01 X14.1143 Y17.0936
G01 X14.1010 Y17.1832
G01 X14.1010 Y17.3168
G01 X14.1143 Y17.4064
G01 X14.1591 Y17.5489
G01 X14.2203 Y17.6723
G01 X14.3156 Y17.7831
G01 X14.4433 Y17.8879
G01 X14.5625 Y17.9515
G01 X14.6464 Y17.9814
G01 X14.7774 Y18.0075
G01 X14.8680 Y18.0119
G01 X15.0008 Y17.9988
G01 X15.0888 Y17.9768
G01 X15.1589 Y17.9509
G01 X15.2767 Y17.8879
G01 X15.3495 Y17.8339
G01 X15.4439 Y17.7395
G01 X15.5357 Y17.6021
G01 X15.5868 Y17.4788
G01 X15.6088 Y17.3908
G01 X15.6219 Y17.2580
G01 X15.6088 Y17.1092
G01 X15.5670 Y16.9658
G01 X15.5121 Y16.8570
G01 X15.5121 Y15.5254
G01 X15.6198 Y15.4151
G01 X15.6858 Y15.3256
G01 X15.7718 Y15.1646
G01 X15.8060 Y15.0714
G01 X15.8340 Y14.9596
G01 X15.8478 Y14.8613
G01 X15.8478 Y14.6787
G01 X15.8336 Y14.5778
G01 X15.8060 Y14.4686
G01 X15.7356 Y14.2988
G01 X15.6273 Y14.1342
G01 X15.5499 Y14.0488
G01 X15.4088 Y13.9330
G01 X15.3100 Y13.8738
G01 X15.1414 Y13.8040
G01 X15.0039 Y13.7722
G01 X17.2161 Y13.7722
G01 X17.0786 Y13.8040
G01 X16.9088 Y13.8744
G01 X16.8112 Y13.9330
G01 X16.6701 Y14.0488
G01 X16.5927 Y14.1342
G01 X16.4838 Y14.3000
G01 X16.4140 Y14.4686
G01 X16.3860 Y14.5804
G01 X16.3722 Y14.6787
G01 X16.3722 Y14.8613
G01 X16.3864 Y14.9622
G01 X16.4140 Y15.0714
G01 X16.4482 Y15.1646
G01 X16.5342 Y15.3256
G01 X16.6028 Y15.4181
G01 X16.7279 Y15.5435
G01 X16.7279 Y16.8570
G01 X16.6730 Y16.9658
G01 X16.6312 Y17.1092
G01 X16.6181 Y17.2420
G01 X16.6312 Y17.3908
G01 X16.6791 Y17.5489
G01 X16.7421 Y17.6667
G01 X16.7961 Y17.7395
G01 X16.8905 Y17.8339
G01 X16.9507 Y17.8795
G01 X17.0958 Y17.9570
G01 X17.2236 Y17.9957
G01 X17.2974 Y18.0075
G01 X17.4626 Y18.0075
G01 X17.5936 Y17.9814
G01 X17.6789 Y17.9509
G01 X17.7967 Y17.8879
G01 X17.8572 Y17.8440
G01 X17.9244 Y17.7831
G01 X18.0317 Y17.6537
G01 X18.0870 Y17.5342
G01 X18.1288 Y17.3908
G01 X18.1419 Y17.2580
G01 X18.1288 Y17.1092
G01 X18.1068 Y17.0212
G01 X18.0521 Y16.8911
G01 X18.0521 Y15.5254
G01 X18.1598 Y15.4151
G01 X18.2170 Y15.3388
G01 X18.2687 Y15.2540
G01 X18.3179 Y15.1499
G01 X18.3709 Y14.9752
G01 X18.3863 Y14.8771
G01 X18.3919 Y14.7780
G01 X18.3876 Y14.6748
G01 X18.3507 Y14.4839
G01 X18.3118 Y14.3754
G01 X18.2258 Y14.2144
G01 X18.1012 Y14.0601
G01 X18.0158 Y13.9827
G01 X17.8500 Y13.8738
G01 X17.6814 Y13.8040
G01 X17.5439 Y13.7722
G01 X18.6400 Y13.7722
G01 X18.7084 Y13.7630
G01 X18.7705 Y13.7373
G01 X18.8196 Y13.7009
G01 X19.4148 Y13.1060
G01 X19.5401 Y13.1679
G01 X19.7304 Y13.2240
G01 X19.9280 Y13.2419
G01 X20.1252 Y13.2209
G01 X20.3014 Y13.1674
G01 X20.4756 Y13.0758
G01 X20.6299 Y12.9512
G01 X20.7570 Y12.7988
G01 X20.8162 Y12.7000
G01 X20.8907 Y12.5161
G01 X20.9278 Y12.3213
G01 X20.9278 Y12.1387
G01 X20.8907 Y11.9439
G01 X20.8156 Y11.7588
G01 X20.7073 Y11.5942
G01 X20.5921 Y11.4746
G01 X20.5921 Y9.3750
G01 X20.5840 Y9.3242
G01 X20.5597 Y9.2777
G01 X20.5087 Y9.2333
G01 X20.4460 Y9.2137
G01 X19.4300 Y9.2129
G01 X19.3948 Y9.2168
G01 X19.3513 Y9.2333
G01 X19.3154 Y9.2604
G01 X19.2883 Y9.2963
G01 X19.2718 Y9.3398
G01 X19.2679 Y9.3750
G01 X19.2679 Y11.4565
G01 X19.1402 Y11.5849
G01 X19.0742 Y11.6744
G01 X19.0238 Y11.7600
G01 X18.9493 Y11.9439
G01 X18.9122 Y12.1387
G01 X18.9122 Y12.3213
G01 X18.9291 Y12.4352
G01 X18.9826 Y12.6114
G01 X19.0440 Y12.7352
G01 X18.5314 Y13.2478
G01 X14.0346 Y13.2478
G01 X13.9662 Y13.2570
G01 X13.9041 Y13.2827
G01 X13.8492 Y13.3246
G01 X13.2146 Y13.9592
G01 X13.1717 Y14.0158
G01 X13.1470 Y14.0762
G01 X13.1378 Y14.1446
G01 X13.1378 Y16.0414
G01 X12.3814 Y16.7978
G01 X6.8100 Y16.7978
G01 X6.7511 Y16.8046
G01 X6.6935 Y16.8252
G01 X6.6246 Y16.8746
G01 X5.4046 Y18.0946
G01 X5.3617 Y18.1512
G01 X5.3370 Y18.2116
G01 X5.3280 Y18.2720
G01 X5.3278 Y19.2657
G01 X4.9480 Y20.0801
G01 X4.8924 Y20.1842
G01 X4.8924 Y17.0044
G01 X5.9925 Y15.9042
G01 X6.0742 Y15.8770
G01 X6.1562 Y15.8382
G01 X6.2672 Y15.7640
G01 X6.3344 Y15.7031
G01 X6.4195 Y15.5993
G01 X6.4657 Y15.5221
G01 X6.5168 Y15.3988
G01 X6.5388 Y15.3108
G01 X6.5519 Y15.1780
G01 X6.5388 Y15.0292
G01 X6.4970 Y14.8858
G01 X6.4524 Y14.7941
G01 X6.4524 Y12.3244
G01 X9.3444 Y9.4324
G01 X13.4356 Y9.4324
G01 X14.1876 Y10.1844
G01 X14.1879 Y11.4565
G01 X14.0602 Y11.5849
G01 X13.9942 Y11.6744
G01 X13.9438 Y11.7600
G01 X13.8693 Y11.9439
G01 X13.8322 Y12.1387
G01 X13.8324 Y12.3252
G01 X13.8464 Y12.4222
G01 X13.8740 Y12.5314
G01 X13.9444 Y12.7012
G01 X14.0527 Y12.8658
G01 X14.1301 Y12.9512
G01 X14.2042 Y13.0173
G01 X14.3560 Y13.1187
G01 X14.4601 Y13.1679
G01 X14.6348 Y13.2209
G01 X14.7487 Y13.2378
G01 X14.9313 Y13.2378
G01 X15.0322 Y13.2236
G01 X15.1414 Y13.1960
G01 X15.3100 Y13.1262
G01 X15.3956 Y13.0758
G01 X15.4881 Y13.0072
G01 X15.6172 Y12.8781
G01 X15.6858 Y12.7856
G01 X15.7718 Y12.6246
G01 X15.8060 Y12.5314
G01 X15.8340 Y12.4196
G01 X15.8519 Y12.2380
G01 X15.8463 Y12.1229
G01 X15.8107 Y11.9439
G01 X15.7718 Y11.8354
G01 X15.6858 Y11.6744
G01 X15.6172 Y11.5819
G01 X15.5121 Y11.4746
G01 X15.5121 Y9.3750
G01 X15.4981 Y9.3092
G01 X15.4555 Y9.2519
G01 X15.3852 Y9.2168
G01 X15.0896 Y9.2129
G01 X14.1784 Y8.3016
G01 X14.1239 Y8.2531
G01 X14.0292 Y8.1898
G01 X13.8946 Y8.1340
G01 X13.7828 Y8.1118
G01 X13.7100 Y8.1076
G01 X9.0700 Y8.1076
G01 X8.9486 Y8.1190
G01 X8.8702 Y8.1387
G01 X8.7637 Y8.1828
G01 X8.6561 Y8.2531
G01 X5.3216 Y11.5816
G01 X5.2731 Y11.6361
G01 X5.2098 Y11.7308
G01 X5.1540 Y11.8654
G01 X5.1318 Y11.9772
G01 X5.1278 Y12.0420
G01 X5.1276 Y14.7941
G01 X5.0885 Y14.8725
G01 X5.0558 Y14.9675
G01 X4.1656 Y15.8576
G01 X3.2236 Y15.8576
G01 X3.1772 Y15.8231
G01 X3.1053 Y15.7864
G01 X3.0276 Y15.7644
G01 X2.9550 Y15.7579
G01 X1.6970 Y15.7581
G01 X1.6168 Y15.7676
G01 X1.5178 Y15.8030
G01 X1.4498 Y15.8465
G01 X1.3815 Y15.9148
G01 X1.3275 Y16.0050
G01 X1.2994 Y16.0974
G01 X1.2929 Y16.1700
G01 X1.2929 Y16.8700
G01 X1.3026 Y16.9582
G01 X1.3214 Y17.0203
G01 X1.3581 Y17.0922
G01 X1.4375 Y17.1834
G01 X1.5400 Y17.2475
G01 X1.6567 Y17.2792
G01 X2.9875 Y17.2807
G01 X3.0432 Y17.2724
G01 X3.1200 Y17.2475
G01 X3.2236 Y17.1824
G01 X3.5676 Y17.1824
G01 X3.5676 Y21.1950
G01 X3.5821 Y21.3320
G01 X3.6213 Y21.4557
G01 X3.6838 Y21.5695
G01 X3.7616 Y21.6634
G01 X6.8308 Y24.7325
G01 X6.8641 Y24.8289
G01 X6.9359 Y24.9599
G01 X7.0319 Y25.0744
G01 X7.1357 Y25.1595
G01 X7.2129 Y25.2057
G01 X7.3362 Y25.2568
G01 X7.4242 Y25.2788
G01 X7.5570 Y25.2919
G01 X8.1976 Y25.2875
G01 X8.3438 Y25.2568
G01 X8.4909 Y25.1924
G01 X11.3149 Y25.1924
G01 X11.4411 Y25.2609
G01 X11.5264 Y25.2914
G01 X11.6574 Y25.3175
G01 X11.7480 Y25.3219
G01 X11.8808 Y25.3088
G01 X11.9688 Y25.2868
G01 X12.0389 Y25.2609
G01 X12.1567 Y25.1979
G01 X12.2844 Y25.0931
G01 X12.3691 Y24.9899
G01 X12.4085 Y24.9256
G01 X12.4714 Y24.7736
G01 X12.4975 Y24.6426
G01 X12.5019 Y24.5680
G01 X12.4888 Y24.4192
G01 X12.4409 Y24.2611
G01 X12.3691 Y24.1301
G01 X12.2844 Y24.0269
G01 X12.2295 Y23.9761
G01 X12.0921 Y23.8843
G01 X12.0242 Y23.8530
G01 X11.8964 Y23.8143
G01 X11.8068 Y23.8010
G01 X11.6574 Y23.8025
G01 X11.5264 Y23.8286
G01 X11.4231 Y23.8676
G01 X8.4909 Y23.8676
G01 X8.3438 Y23.8032
G01 X8.1976 Y23.7725
G01 X7.7396 Y23.7679
G01 X7.1185 Y23.1468
G01 X7.1994 Y23.1985
G01 X7.2808 Y23.2370
G01 X7.4086 Y23.2757
G01 X7.4824 Y23.2875
G01 X8.1150 Y23.2921
G01 X8.2558 Y23.2788
G01 X8.3438 Y23.2568
G01 X8.4812 Y23.1982
G01 X8.5922 Y23.1240
G01 X8.6989 Y23.0195
G01 X8.7835 Y22.8956
G01 X8.8464 Y22.7436
G01 X8.8740 Y22.5968
G01 X8.8725 Y22.4474
G01 X8.8607 Y22.3736
G01 X8.8220 Y22.2458
G01 X8.7529 Y22.1133
G01 X8.6594 Y21.9969
G01 X8.5922 Y21.9360
G01 X8.4671 Y21.8543
G01 X8.3286 Y21.7986
G01 X8.1818 Y21.7710
G01 X7.4982 Y21.7710
G01 X7.3362 Y21.8032
G01 X7.1988 Y21.8618
G01 X7.0755 Y21.9461
G01 X6.9710 Y22.0528
G01 X6.8893 Y22.1779
G01 X6.8580 Y22.2458
G01 X6.8193 Y22.3736
G01 X6.8031 Y22.5380
G01 X6.8193 Y22.6864
G01 X6.8641 Y22.8289
G01 X6.9482 Y22.9765
G01 X4.8924 Y20.9206
G01 X4.8924 Y20.7958
G01 X4.9521 Y20.9067
G00 Z2.0000
G00 X8.1021 Y14.0082
G01 F50.00
G01 Z-0.0700
G01 F100.00
G01 X8.1599 Y14.1673
G01 X8.2330 Y14.3199
G01 X8.3206 Y14.4646
G01 X8.4221 Y14.6001
G01 X8.5363 Y14.7250
G01 X8.6622 Y14.8380
G01 X8.7986 Y14.9382
G01 X8.9441 Y15.0245
G01 X9.0842 Y15.0908
G01 X9.2570 Y15.1525
G01 X9.4214 Y15.1928
G01 X9.5889 Y15.2169
G01 X9.7580 Y15.2244
G01 X9.9269 Y15.2153
G01 X10.0812 Y15.1924
G01 X10.2582 Y15.1479
G01 X10.4173 Y15.0901
G01 X10.5699 Y15.0170
G01 X10.7146 Y14.9294
G01 X10.8501 Y14.8279
G01 X10.9750 Y14.7137
G01 X11.0880 Y14.5878
G01 X11.1882 Y14.4514
G01 X11.2745 Y14.3059
G01 X11.3408 Y14.1658
G01 X11.4025 Y13.9930
G01 X11.4428 Y13.8286
G01 X11.4669 Y13.6611
G01 X11.4744 Y13.4920
G01 X11.4653 Y13.3231
G01 X11.4424 Y13.1688
G01 X11.3979 Y12.9918
G01 X11.3401 Y12.8327
G01 X11.2670 Y12.6801
G01 X11.1794 Y12.5354
G01 X11.0779 Y12.3999
G01 X10.9637 Y12.2750
G01 X10.8378 Y12.1620
G01 X10.7014 Y12.0618
G01 X10.5559 Y11.9755
G01 X10.4158 Y11.9092
G01 X10.2430 Y11.8475
G01 X10.0786 Y11.8072
G01 X9.9111 Y11.7831
G01 X9.7420 Y11.7756
G01 X9.5731 Y11.7847
G01 X9.4188 Y11.8076
G01 X9.2418 Y11.8521
G01 X9.0827 Y11.9099
G01 X8.9301 Y11.9830
G01 X8.7854 Y12.0706
G01 X8.6499 Y12.1721
G01 X8.5250 Y12.2863
G01 X8.4120 Y12.4122
G01 X8.3118 Y12.5486
G01 X8.2255 Y12.6941
G01 X8.1592 Y12.8342
G01 X8.0975 Y13.0070
G01 X8.0572 Y13.1714
G01 X8.0331 Y13.3389
G01 X8.0256 Y13.5080
G01 X8.0347 Y13.6769
G01 X8.0576 Y13.8312
G01 X8.1021 Y14.0082
G00 Z2.0000
G00 X8.1961 Y13.9746
G01 F50.00
G01 Z-0.0700
G01 F100.00
G01 X8.2501 Y14.1246
G01 X8.3185 Y14.2686
G01 X8.4007 Y14.4052
G01 X8.4960 Y14.5331
G01 X8.6033 Y14.6511
G01 X8.7216 Y14.7579
G01 X8.8499 Y14.8527
G01 X8.9816 Y14.9316
G01 X9.1260 Y15.0002
G01 X9.2813 Y15.0557
G01 X9.4360 Y15.0942
G01 X9.5938 Y15.1173
G01 X9.7531 Y15.1248
G01 X9.9123 Y15.1167
G01 X10.0650 Y15.0940
G01 X10.2246 Y15.0539
G01 X10.3746 Y14.9999
G01 X10.5186 Y14.9315
G01 X10.6552 Y14.8493
G01 X10.7831 Y14.7540
G01 X10.9011 Y14.6467
G01 X11.0079 Y14.5284
G01 X11.1027 Y14.4001
G01 X11.1816 Y14.2684
G01 X11.2502 Y14.1240
G01 X11.3057 Y13.9687
G01 X11.3442 Y13.8140
G01 X11.3673 Y13.6562
G01 X11.3748 Y13.4969
G01 X11.3667 Y13.3377
G01 X11.3440 Y13.1850
G01 X11.3039 Y13.0254
G01 X11.2499 Y12.8754
G01 X11.1815 Y12.7314
G01 X11.0993 Y12.5948
G01 X11.0040 Y12.4669
G01 X10.8967 Y12.3489
G01 X10.7784 Y12.2421
G01 X10.6501 Y12.1473
G01 X10.5184 Y12.0684
G01 X10.3740 Y11.9998
G01 X10.2187 Y11.9443
G01 X10.0640 Y11.9058
G01 X9.9062 Y11.8827
G01 X9.7469 Y11.8752
G01 X9.5877 Y11.8833
G01 X9.4350 Y11.9060
G01 X9.2754 Y11.9461
G01 X9.1254 Y12.0001
G01 X8.9814 Y12.0685
G01 X8.8448 Y12.1507
G01 X8.7169 Y12.2460
G01 X8.5989 Y12.3533
G01 X8.4921 Y12.4716
G01 X8.3973 Y12.5999
G01 X8.3184 Y12.7316
G01 X8.2498 Y12.8760
G01 X8.1943 Y13.0313
G01 X8.1558 Y13.1860
G01 X8.1327 Y13.3438
G01 X8.1252 Y13.5031
G01 X8.1333 Y13.6623
G01 X8.1560 Y13.8150
G01 X8.1961 Y13.9746
G00 Z2.0000
G00 X13.9448 Y14.9460
G01 F50.00
G01 Z-0.0700
G01 F100.00
G01 X13.9962 Y15.1169
G01 X14.0798 Y15.2743
G01 X14.1928 Y15.4129
G01 X14.2876 Y15.4950
G01 X14.2876 Y16.9180
G01 X14.2254 Y17.0607
G01 X14.2012 Y17.1820
G01 X14.1977 Y17.2469
G01 X14.2099 Y17.3762
G01 X14.2470 Y17.5006
G01 X14.3001 Y17.6124
G01 X14.3895 Y17.7161
G01 X14.4897 Y17.7991
G01 X14.6043 Y17.8610
G01 X14.7278 Y17.8990
G01 X14.8569 Y17.9123
G01 X14.9862 Y17.9001
G01 X15.1106 Y17.8630
G01 X15.2305 Y17.7990
G01 X15.3261 Y17.7205
G01 X15.3700 Y17.6725
G01 X15.4455 Y17.5595
G01 X15.4929 Y17.4452
G01 X15.5101 Y17.3762
G01 X15.5223 Y17.2469
G01 X15.5090 Y17.1178
G01 X15.4707 Y16.9937
G01 X15.4124 Y16.8846
G01 X15.4124 Y15.4801
G01 X15.4872 Y15.4129
G01 X15.5968 Y15.2794
G01 X15.6460 Y15.1973
G01 X15.7139 Y15.0319
G01 X15.7482 Y14.8564
G01 X15.7482 Y14.6836
G01 X15.7341 Y14.5890
G01 X15.6838 Y14.4231
G01 X15.6002 Y14.2657
G01 X15.4872 Y14.1271
G01 X15.4164 Y14.0629
G01 X15.2673 Y13.9640
G01 X15.1019 Y13.8961
G01 X14.9264 Y13.8618
G01 X14.7521 Y13.8619
G01 X14.5781 Y13.8961
G01 X14.4881 Y13.9283
G01 X14.3306 Y14.0132
G01 X14.1928 Y14.1271
G01 X14.0798 Y14.2657
G01 X13.9960 Y14.4237
G01 X13.9447 Y14.5950
G01 X13.9277 Y14.7731
G01 X13.9448 Y14.9460
G00 Z2.0000
G00 X16.4848 Y14.9460
G01 F50.00
G01 Z-0.0700
G01 F100.00
G01 X16.5362 Y15.1169
G01 X16.6198 Y15.2743
G01 X16.7328 Y15.4129
G01 X16.8276 Y15.4950
G01 X16.8276 Y16.8831
G01 X16.7693 Y16.9937
G01 X16.7454 Y17.0607
G01 X16.7212 Y17.1820
G01 X16.7177 Y17.2469
G01 X16.7299 Y17.3762
G01 X16.7670 Y17.5006
G01 X16.8276 Y17.6154
G01 X16.9095 Y17.7161
G01 X17.0097 Y17.7991
G01 X17.1243 Y17.8610
G01 X17.2478 Y17.8990
G01 X17.3769 Y17.9123
G01 X17.5062 Y17.9001
G01 X17.6306 Y17.8630
G01 X17.6949 Y17.8326
G01 X17.7978 Y17.7639
G01 X17.8505 Y17.7161
G01 X17.9373 Y17.6156
G01 X17.9930 Y17.5006
G01 X18.0301 Y17.3762
G01 X18.0423 Y17.2531
G01 X18.0301 Y17.1238
G01 X17.9930 Y16.9994
G01 X17.9524 Y16.9180
G01 X17.9524 Y15.4801
G01 X18.0272 Y15.4129
G01 X18.1368 Y15.2794
G01 X18.1860 Y15.1973
G01 X18.2539 Y15.0319
G01 X18.2882 Y14.8564
G01 X18.2882 Y14.6836
G01 X18.2741 Y14.5890
G01 X18.2238 Y14.4231
G01 X18.1402 Y14.2657
G01 X18.0272 Y14.1271
G01 X17.9564 Y14.0629
G01 X17.8073 Y13.9640
G01 X17.6419 Y13.8961
G01 X17.4664 Y13.8618
G01 X17.2921 Y13.8619
G01 X17.1181 Y13.8961
G01 X17.0281 Y13.9283
G01 X16.8706 Y14.0132
G01 X16.7328 Y14.1271
G01 X16.6198 Y14.2657
G01 X16.5360 Y14.4237
G01 X16.4847 Y14.5950
G01 X16.4677 Y14.7731
G01 X16.4848 Y14.9460
G00 Z2.0000
G00 X18.9264 Y14.9622
G01 F50.00
G01 Z-0.0700
G01 F100.00
G01 X18.9821 Y15.1499
G01 X19.0313 Y15.2540
G01 X19.1327 Y15.4058
G01 X19.2679 Y15.5435
G01 X19.2679 Y16.8911
G01 X19.2086 Y17.0364
G01 X19.1825 Y17.1674
G01 X19.1781 Y17.2420
G01 X19.1912 Y17.3908
G01 X19.2391 Y17.5489
G01 X19.3003 Y17.6723
G01 X19.4069 Y17.7944
G01 X19.5233 Y17.8879
G01 X19.6558 Y17.9570
G01 X19.7992 Y17.9988
G01 X19.9480 Y18.0119
G01 X20.0964 Y17.9957
G01 X20.2389 Y17.9509
G01 X20.3567 Y17.8879
G01 X20.4172 Y17.8440
G01 X20.5340 Y17.7272
G01 X20.6082 Y17.6162
G01 X20.6415 Y17.5475
G01 X20.6888 Y17.3908
G01 X20.7019 Y17.2580
G01 X20.6888 Y17.1092
G01 X20.6470 Y16.9658
G01 X20.5921 Y16.8570
G01 X20.5921 Y15.5254
G01 X20.7073 Y15.4058
G01 X20.8087 Y15.2540
G01 X20.8579 Y15.1499
G01 X20.9109 Y14.9752
G01 X20.9278 Y14.8613
G01 X20.9276 Y14.6748
G01 X20.8907 Y14.4839
G01 X20.8518 Y14.3754
G01 X20.7658 Y14.2144
G01 X20.6412 Y14.0601
G01 X20.4888 Y13.9330
G01 X20.3146 Y13.8382
G01 X20.1252 Y13.7791
G01 X20.0113 Y13.7622
G01 X19.8248 Y13.7624
G01 X19.7278 Y13.7764
G01 X19.6186 Y13.8040
G01 X19.4488 Y13.8744
G01 X19.2842 Y13.9827
G01 X19.2101 Y14.0488
G01 X19.1402 Y14.1249
G01 X19.0313 Y14.2860
G01 X18.9821 Y14.3901
G01 X18.9260 Y14.5804
G01 X18.9081 Y14.7780
G01 X18.9264 Y14.9622
G00 Z2.0000
G00 X19.0248 Y14.9460
G01 F50.00
G01 Z-0.0700
G01 F100.00
G01 X19.0762 Y15.1169
G01 X19.1598 Y15.2743
G01 X19.2728 Y15.4129
G01 X19.3676 Y15.4950
G01 X19.3676 Y16.9180
G01 X19.3054 Y17.0607
G01 X19.2812 Y17.1820
G01 X19.2777 Y17.2469
G01 X19.2899 Y17.3762
G01 X19.3270 Y17.5006
G01 X19.3801 Y17.6124
G01 X19.4695 Y17.7161
G01 X19.5697 Y17.7991
G01 X19.6843 Y17.8610
G01 X19.8078 Y17.8990
G01 X19.9369 Y17.9123
G01 X20.0662 Y17.9001
G01 X20.1906 Y17.8630
G01 X20.3105 Y17.7990
G01 X20.4061 Y17.7205
G01 X20.4500 Y17.6725
G01 X20.5255 Y17.5595
G01 X20.5729 Y17.4452
G01 X20.5901 Y17.3762
G01 X20.6023 Y17.2469
G01 X20.5890 Y17.1178
G01 X20.5507 Y16.9937
G01 X20.4924 Y16.8846
G01 X20.4924 Y15.4801
G01 X20.5672 Y15.4129
G01 X20.6768 Y15.2794
G01 X20.7260 Y15.1973
G01 X20.7939 Y15.0319
G01 X20.8282 Y14.8564
G01 X20.8282 Y14.6836
G01 X20.8141 Y14.5890
G01 X20.7638 Y14.4231
G01 X20.6802 Y14.2657
G01 X20.5672 Y14.1271
G01 X20.4964 Y14.0629
G01 X20.3473 Y13.9640
G01 X20.1819 Y13.8961
G01 X20.0064 Y13.8618
G01 X19.8321 Y13.8619
G01 X19.6581 Y13.8961
G01 X19.5681 Y13.9283
G01 X19.4106 Y14.0132
G01 X19.2728 Y14.1271
G01 X19.1598 Y14.2657
G01 X19.0760 Y14.4237
G01 X19.0247 Y14.5950
G01 X19.0077 Y14.7731
G01 X19.0248 Y14.9460
G00 Z2.0000
G00 X21.4664 Y12.4222
G01 F50.00
G01 Z-0.0700
G01 F100.00
G01 X21.4940 Y12.5314
G01 X21.5644 Y12.7012
G01 X21.6727 Y12.8658
G01 X21.7501 Y12.9512
G01 X21.8912 Y13.0670
G01 X21.9900 Y13.1262
G01 X22.1586 Y13.1960
G01 X22.3529 Y13.2363
G01 X22.4680 Y13.2419
G01 X22.6522 Y13.2236
G01 X22.7614 Y13.1960
G01 X22.9312 Y13.1256
G01 X23.0958 Y13.0173
G01 X23.1812 Y12.9399
G01 X23.2970 Y12.7988
G01 X23.3562 Y12.7000
G01 X23.4260 Y12.5314
G01 X23.4540 Y12.4196
G01 X23.4719 Y12.2380
G01 X23.4676 Y12.1348
G01 X23.4307 Y11.9439
G01 X23.3556 Y11.7588
G01 X23.2473 Y11.5942
G01 X23.1321 Y11.4746
G01 X23.1321 Y9.3750
G01 X23.1240 Y9.3242
G01 X23.0997 Y9.2777
G01 X23.0673 Y9.2453
G01 X23.0358 Y9.2269
G01 X22.9700 Y9.2129
G01 X21.9540 Y9.2137
G01 X21.9042 Y9.2269
G01 X21.8727 Y9.2453
G01 X21.8403 Y9.2777
G01 X21.8219 Y9.3092
G01 X21.8079 Y9.3750
G01 X21.8079 Y11.4565
G01 X21.6828 Y11.5819
G01 X21.6142 Y11.6744
G01 X21.5282 Y11.8354
G01 X21.4940 Y11.9286
G01 X21.4660 Y12.0404
G01 X21.4522 Y12.1387
G01 X21.4522 Y12.3213
G01 X21.4664 Y12.4222
G00 Z2.0000
G00 X21.5518 Y12.3164
G01 F50.00
G01 Z-0.0700
G01 F100.00
G01 X21.5879 Y12.4977
G01 X21.6542 Y12.6578
G01 X21.7529 Y12.8064
G01 X21.8171 Y12.8772
G01 X21.9506 Y12.9868
G01 X22.0327 Y13.0360
G01 X22.1923 Y13.1021
G01 X22.3675 Y13.1376
G01 X22.4631 Y13.1423
G01 X22.6360 Y13.1252
G01 X22.8063 Y13.0740
G01 X22.8927 Y13.0331
G01 X23.0364 Y12.9371
G01 X23.1633 Y12.8111
G01 X23.2202 Y12.7343
G01 X23.3017 Y12.5819
G01 X23.3541 Y12.4110
G01 X23.3682 Y12.3164
G01 X23.3681 Y12.1421
G01 X23.3339 Y11.9681
G01 X23.3017 Y11.8781
G01 X23.2168 Y11.7206
G01 X23.1072 Y11.5871
G01 X23.0324 Y11.5199
G01 X23.0324 Y9.3750
G01 X23.0199 Y9.3376
G01 X22.9953 Y9.3180
G01 X22.9700 Y9.3126
G01 X21.9700 Y9.3126
G01 X21.9326 Y9.3251
G01 X21.9130 Y9.3497
G01 X21.9076 Y9.3750
G01 X21.9076 Y11.5050
G01 X21.8171 Y11.5828
G01 X21.7529 Y11.6536
G01 X21.6569 Y11.7973
G01 X21.6160 Y11.8837
G01 X21.5659 Y12.0490
G01 X21.5518 Y12.1436
G01 X21.5518 Y12.3164
G00 Z2.0000
G00 X16.4848 Y12.4060
G01 F50.00
G01 Z-0.0700
G01 F100.00
G01 X16.5360 Y12.5763
G01 X16.5769 Y12.6627
G01 X16.6729 Y12.8064
G01 X16.7989 Y12.9333
G01 X16.8757 Y12.9902
G01 X17.0281 Y13.0717
G01 X17.1990 Y13.1241
G01 X17.2936 Y13.1382
G01 X17.4664 Y13.1382
G01 X17.5610 Y13.1241
G01 X17.7269 Y13.0738
G01 X17.8843 Y12.9902
G01 X18.0229 Y12.8772
G01 X18.0871 Y12.8064
G01 X18.1860 Y12.6573
G01 X18.2521 Y12.4977
G01 X18.2753 Y12.4050
G01 X18.2923 Y12.2331
G01 X18.2876 Y12.1375
G01 X18.2521 Y11.9623
G01 X18.1860 Y11.8027
G01 X18.1368 Y11.7206
G01 X18.0272 Y11.5871
G01 X17.9524 Y11.5199
G01 X17.9524 Y10.0320
G01 X17.9930 Y9.9506
G01 X18.0301 Y9.8262
G01 X18.0423 Y9.7031
G01 X18.0301 Y9.5738
G01 X17.9930 Y9.4494
G01 X17.9470 Y9.3497
G01 X17.8900 Y9.2775
G01 X17.8025 Y9.1900
G01 X17.7503 Y9.1509
G01 X17.6895 Y9.1145
G01 X17.5752 Y9.0671
G01 X17.4480 Y9.0412
G01 X17.3181 Y9.0406
G01 X17.1907 Y9.0654
G01 X17.0705 Y9.1145
G01 X16.9622 Y9.1861
G01 X16.8700 Y9.2775
G01 X16.7972 Y9.3853
G01 X16.7471 Y9.5048
G01 X16.7206 Y9.6381
G01 X16.7212 Y9.7680
G01 X16.7310 Y9.8322
G01 X16.7670 Y9.9506
G01 X16.8276 Y10.0654
G01 X16.8276 Y11.5050
G01 X16.7371 Y11.5828
G01 X16.6729 Y11.6536
G01 X16.5769 Y11.7973
G01 X16.5360 Y11.8837
G01 X16.4859 Y12.0490
G01 X16.4718 Y12.1436
G01 X16.4718 Y12.3164
G01 X16.4848 Y12.4060
G00 Z2.0000
G00 X16.3864 Y12.4222
G01 F50.00
G01 Z-0.0700
G01 F100.00
G01 X16.4421 Y12.6099
G01 X16.4913 Y12.7140
G01 X16.5927 Y12.8658
G01 X16.7319 Y13.0072
G01 X16.8244 Y13.0758
G01 X16.9854 Y13.1618
G01 X17.1748 Y13.2209
G01 X17.2887 Y13.2378
G01 X17.4713 Y13.2378
G01 X17.5852 Y13.2209
G01 X17.7614 Y13.1674
G01 X17.9356 Y13.0758
G01 X18.0281 Y13.0072
G01 X18.1598 Y12.8751
G01 X18.2687 Y12.7140
G01 X18.3179 Y12.6099
G01 X18.3709 Y12.4352
G01 X18.3878 Y12.3213
G01 X18.3878 Y12.1387
G01 X18.3709 Y12.0248
G01 X18.3174 Y11.8486
G01 X18.2687 Y11.7460
G01 X18.1673 Y11.5942
G01 X18.0521 Y11.4746
G01 X18.0521 Y10.0589
G01 X18.1068 Y9.9288
G01 X18.1288 Y9.8408
G01 X18.1419 Y9.7080
G01 X18.1288 Y9.5592
G01 X18.0870 Y9.4158
G01 X18.0131 Y9.2695
G01 X17.9244 Y9.1669
G01 X17.8572 Y9.1060
G01 X17.7456 Y9.0315
G01 X17.6642 Y8.9930
G01 X17.5208 Y8.9512
G01 X17.3720 Y8.9381
G01 X17.2236 Y8.9543
G01 X17.0811 Y8.9991
G01 X16.9501 Y9.0709
G01 X16.8356 Y9.1669
G01 X16.7421 Y9.2833
G01 X16.6730 Y9.4158
G01 X16.6312 Y9.5592
G01 X16.6181 Y9.7080
G01 X16.6225 Y9.7826
G01 X16.6486 Y9.9136
G01 X16.6791 Y9.9989
G01 X16.7279 Y10.0930
G01 X16.7279 Y11.4565
G01 X16.6028 Y11.5819
G01 X16.5342 Y11.6744
G01 X16.4482 Y11.8354
G01 X16.4140 Y11.9286
G01 X16.3860 Y12.0404
G01 X16.3722 Y12.1387
G01 X16.3722 Y12.3213
G01 X16.3864 Y12.4222
G00 Z2.0000
G00 X21.7430 Y17.5342
G01 F50.00
G01 Z-0.0700
G01 F100.00
G01 X21.8209 Y17.6799
G01 X21.9056 Y17.7831
G01 X22.0333 Y17.8879
G01 X22.0979 Y17.9257
G01 X22.2212 Y17.9768
G01 X22.3092 Y17.9988
G01 X22.4420 Y18.0119
G01 X22.6064 Y17.9957
G01 X22.7342 Y17.9570
G01 X22.8162 Y17.9182
G01 X22.8799 Y17.8791
G01 X22.9831 Y17.7944
G01 X23.0546 Y17.7129
G01 X23.0931 Y17.6805
G01 X23.1181 Y17.6408
G01 X23.1957 Y17.4064
G01 X23.2119 Y17.2580
G01 X23.1957 Y17.0936
G01 X23.1321 Y16.8979
G01 X23.1321 Y15.7821
G01 X23.3260 Y15.7813
G01 X23.3758 Y15.7681
G01 X23.4073 Y15.7497
G01 X23.4397 Y15.7173
G01 X23.4581 Y15.6858
G01 X23.4713 Y15.6360
G01 X23.4713 Y13.9040
G01 X23.4581 Y13.8542
G01 X23.4397 Y13.8227
G01 X23.4073 Y13.7903
G01 X23.3758 Y13.7719
G01 X23.3100 Y13.7579
G01 X21.6100 Y13.7579
G01 X21.5592 Y13.7660
G01 X21.5127 Y13.7903
G01 X21.4803 Y13.8227
G01 X21.4619 Y13.8542
G01 X21.4479 Y13.9200
G01 X21.4510 Y15.6518
G01 X21.4619 Y15.6858
G01 X21.4869 Y15.7255
G01 X21.5127 Y15.7497
G01 X21.5592 Y15.7740
G01 X21.6100 Y15.7821
G01 X21.8079 Y15.7821
G01 X21.8079 Y16.8403
G01 X21.7485 Y16.9525
G01 X21.7186 Y17.0364
G01 X21.6925 Y17.1674
G01 X21.6881 Y17.2420
G01 X21.7043 Y17.4064
G01 X21.7430 Y17.5342
G00 Z2.0000
G00 X21.8370 Y17.5006
G01 F50.00
G01 Z-0.0700
G01 F100.00
G01 X21.9010 Y17.6205
G01 X21.9795 Y17.7161
G01 X22.0846 Y17.8024
G01 X22.1405 Y17.8355
G01 X22.2548 Y17.8829
G01 X22.3238 Y17.9001
G01 X22.4469 Y17.9123
G01 X22.5822 Y17.8990
G01 X22.7006 Y17.8630
G01 X22.7649 Y17.8326
G01 X22.8725 Y17.7600
G01 X23.0270 Y17.6003
G01 X23.0324 Y17.5654
G01 X23.0630 Y17.5006
G01 X23.0990 Y17.3822
G01 X23.1123 Y17.2531
G01 X23.0990 Y17.1178
G01 X23.0324 Y16.9139
G01 X23.0324 Y15.6824
G01 X23.3222 Y15.6811
G01 X23.3573 Y15.6606
G01 X23.3720 Y15.6261
G01 X23.3724 Y13.9200
G01 X23.3599 Y13.8826
G01 X23.3353 Y13.8630
G01 X23.3100 Y13.8576
G01 X21.6100 Y13.8576
G01 X21.5726 Y13.8701
G01 X21.5530 Y13.8947
G01 X21.5476 Y13.9200
G01 X21.5489 Y15.6322
G01 X21.5694 Y15.6673
G01 X21.6039 Y15.6820
G01 X21.9076 Y15.6824
G01 X21.9076 Y16.8706
G01 X21.8645 Y16.9405
G01 X21.8171 Y17.0548
G01 X21.7999 Y17.1238
G01 X21.7877 Y17.2469
G01 X21.8010 Y17.3822
G01 X21.8370 Y17.5006
G00 Z2.0000
G00 X21.0574 Y22.1099
G01 F50.00
G01 Z-0.0700
G01 F100.00
G01 X21.0910 Y22.1655
G01 X21.1695 Y22.2611
G01 X21.2746 Y22.3474
G01 X21.3305 Y22.3805
G01 X21.4448 Y22.4279
G01 X21.5138 Y22.4451
G01 X21.6369 Y22.4573
G01 X21.7722 Y22.4440
G01 X21.8906 Y22.4080
G01 X21.9495 Y22.3805
G01 X22.0625 Y22.3050
G01 X22.1500 Y22.2175
G01 X22.1891 Y22.1653
G01 X22.2530 Y22.0456
G01 X22.2890 Y21.9272
G01 X22.2988 Y21.8630
G01 X22.2988 Y21.1770
G01 X22.2890 Y21.1128
G01 X22.2530 Y20.9944
G01 X22.1924 Y20.8796
G01 X22.1105 Y20.7789
G01 X22.0103 Y20.6959
G01 X21.8963 Y20.6343
G01 X21.7722 Y20.5960
G01 X21.6431 Y20.5827
G01 X21.5138 Y20.5949
G01 X21.3894 Y20.6320
G01 X21.2746 Y20.6926
G01 X21.1739 Y20.7745
G01 X21.0909 Y20.8747
G01 X21.0545 Y20.9355
G01 X21.0071 Y21.0498
G01 X20.9899 Y21.1188
G01 X20.9777 Y21.2419
G01 X20.9806 Y21.8569
G01 X21.0071 Y21.9902
G01 X21.0574 Y22.1099
G00 Z2.0000
G00 X20.9718 Y22.1612
G01 F50.00
G01 Z-0.0700
G01 F100.00
G01 X21.0109 Y22.2249
G01 X21.0956 Y22.3281
G01 X21.2233 Y22.4329
G01 X21.2879 Y22.4707
G01 X21.4112 Y22.5218
G01 X21.4992 Y22.5438
G01 X21.6320 Y22.5569
G01 X21.7964 Y22.5407
G01 X21.9242 Y22.5020
G01 X21.9921 Y22.4707
G01 X22.1295 Y22.3789
G01 X22.2239 Y22.2845
G01 X22.2695 Y22.2243
G01 X22.3470 Y22.0792
G01 X22.3857 Y21.9514
G01 X22.3975 Y21.8776
G01 X22.3975 Y21.1624
G01 X22.3857 Y21.0886
G01 X22.3470 Y20.9608
G01 X22.2779 Y20.8283
G01 X22.1844 Y20.7119
G01 X22.0693 Y20.6155
G01 X21.9389 Y20.5441
G01 X21.7964 Y20.4993
G01 X21.6480 Y20.4831
G01 X21.4992 Y20.4962
G01 X21.3558 Y20.5380
G01 X21.2233 Y20.6071
G01 X21.1069 Y20.7006
G01 X21.0105 Y20.8157
G01 X20.9643 Y20.8929
G01 X20.9132 Y21.0162
G01 X20.8912 Y21.1042
G01 X20.8781 Y21.2370
G01 X20.8825 Y21.8776
G01 X20.9132 Y22.0238
G01 X20.9718 Y22.1612
G00 Z2.0000
G00 X19.0574 Y22.1099
G01 F50.00
G01 Z-0.0700
G01 F100.00
G01 X19.0910 Y22.1655
G01 X19.1695 Y22.2611
G01 X19.2746 Y22.3474
G01 X19.3305 Y22.3805
G01 X19.4448 Y22.4279
G01 X19.5138 Y22.4451
G01 X19.6369 Y22.4573
G01 X19.7722 Y22.4440
G01 X19.8906 Y22.4080
G01 X19.9495 Y22.3805
G01 X20.0625 Y22.3050
G01 X20.1500 Y22.2175
G01 X20.1891 Y22.1653
G01 X20.2530 Y22.0456
G01 X20.2890 Y21.9272
G01 X20.2988 Y21.8630
G01 X20.2988 Y21.1770
G01 X20.2890 Y21.1128
G01 X20.2530 Y20.9944
G01 X20.1924 Y20.8796
G01 X20.1105 Y20.7789
G01 X20.0103 Y20.6959
G01 X19.8963 Y20.6343
G01 X19.7722 Y20.5960
G01 X19.6431 Y20.5827
G01 X19.5138 Y20.5949
G01 X19.3894 Y20.6320
G01 X19.2746 Y20.6926
G01 X19.1739 Y20.7745
G01 X19.0909 Y20.8747
G01 X19.0545 Y20.9355
G01 X19.0071 Y21.0498
G01 X18.9899 Y21.1188
G01 X18.9777 Y21.2419
G01 X18.9806 Y21.8569
G01 X19.0071 Y21.9902
G01 X19.0574 Y22.1099
G00 Z2.0000
G00 X18.9718 Y22.1612
G01 F50.00
G01 Z-0.0700
G01 F100.00
G01 X19.0109 Y22.2249
G01 X19.0956 Y22.3281
G01 X19.2233 Y22.4329
G01 X19.2879 Y22.4707
G01 X19.4112 Y22.5218
G01 X19.4992 Y22.5438
G01 X19.6320 Y22.5569
G01 X19.7964 Y22.5407
G01 X19.9242 Y22.5020
G01 X19.9921 Y22.4707
G01 X20.1295 Y22.3789
G01 X20.2239 Y22.2845
G01 X20.2695 Y22.2243
G01 X20.3470 Y22.0792
G01 X20.3857 Y21.9514
G01 X20.3975 Y21.8776
G01 X20.3975 Y21.1624
G01 X20.3857 Y21.0886
G01 X20.3470 Y20.9608
G01 X20.2779 Y20.8283
G01 X20.1844 Y20.7119
G01 X20.0693 Y20.6155
G01 X19.9389 Y20.5441
G01 X19.7964 Y20.4993
G01 X19.6480 Y20.4831
G01 X19.4992 Y20.4962
G01 X19.3558 Y20.5380
G01 X19.2233 Y20.6071
G01 X19.1069 Y20.7006
G01 X19.0105 Y20.8157
G01 X18.9643 Y20.8929
G01 X18.9132 Y21.0162
G01 X18.8912 Y21.1042
G01 X18.8781 Y21.2370
G01 X18.8825 Y21.8776
G01 X18.9132 Y22.0238
G01 X18.9718 Y22.1612
G00 Z2.0000
G00 X17.0574 Y22.1099
G01 F50.00
G01 Z-0.0700
G01 F100.00
G01 X17.0910 Y22.1655
G01 X17.1695 Y22.2611
G01 X17.2746 Y22.3474
G01 X17.3305 Y22.3805
G01 X17.4448 Y22.4279
G01 X17.5138 Y22.4451
G01 X17.6369 Y22.4573
G01 X17.7722 Y22.4440
G01 X17.8906 Y22.4080
G01 X17.9495 Y22.3805
G01 X18.0625 Y22.3050
G01 X18.1500 Y22.2175
G01 X18.1891 Y22.1653
G01 X18.2530 Y22.0456
G01 X18.2890 Y21.9272
G01 X18.2988 Y21.8630
G01 X18.2988 Y21.1770
G01 X18.2890 Y21.1128
G01 X18.2530 Y20.9944
G01 X18.1924 Y20.8796
G01 X18.1105 Y20.7789
G01 X18.0103 Y20.6959
G01 X17.8963 Y20.6343
G01 X17.7722 Y20.5960
G01 X17.6431 Y20.5827
G01 X17.5138 Y20.5949
G01 X17.3894 Y20.6320
G01 X17.2746 Y20.6926
G01 X17.1739 Y20.7745
G01 X17.0909 Y20.8747
G01 X17.0545 Y20.9355
G01 X17.0071 Y21.0498
G01 X16.9899 Y21.1188
G01 X16.9777 Y21.2419
G01 X16.9806 Y21.8569
G01 X17.0071 Y21.9902
G01 X17.0574 Y22.1099
G00 Z2.0000
G00 X16.9718 Y22.1612
G01 F50.00
G01 Z-0.0700
G01 F100.00
G01 X17.0109 Y22.2249
G01 X17.0956 Y22.3281
G01 X17.2233 Y22.4329
G01 X17.2879 Y22.4707
G01 X17.4112 Y22.5218
G01 X17.4992 Y22.5438
G01 X17.6320 Y22.5569
G01 X17.7964 Y22.5407
G01 X17.9242 Y22.5020
G01 X17.9921 Y22.4707
G01 X18.1295 Y22.3789
G01 X18.2239 Y22.2845
G01 X18.2695 Y22.2243
G01 X18.3470 Y22.0792
G01 X18.3857 Y21.9514
G01 X18.3975 Y21.8776
G01 X18.3975 Y21.1624
G01 X18.3857 Y21.0886
G01 X18.3470 Y20.9608
G01 X18.2779 Y20.8283
G01 X18.1844 Y20.7119
G01 X18.0693 Y20.6155
G01 X17.9389 Y20.5441
G01 X17.7964 Y20.4993
G01 X17.6480 Y20.4831
G01 X17.4992 Y20.4962
G01 X17.3558 Y20.5380
G01 X17.2233 Y20.6071
G01 X17.1069 Y20.7006
G01 X17.0105 Y20.8157
G01 X16.9643 Y20.8929
G01 X16.9132 Y21.0162
G01 X16.8912 Y21.1042
G01 X16.8781 Y21.2370
G01 X16.8825 Y21.8776
G01 X16.9132 Y22.0238
G01 X16.9718 Y22.1612
G00 Z2.0000
G00 X15.0574 Y22.1099
G01 F50.00
G01 Z-0.0700
G01 F100.00
G01 X15.0910 Y22.1655
G01 X15.1695 Y22.2611
G01 X15.2746 Y22.3474
G01 X15.3305 Y22.3805
G01 X15.4448 Y22.4279
G01 X15.5138 Y22.4451
G01 X15.6369 Y22.4573
G01 X15.7722 Y22.4440
G01 X15.8906 Y22.4080
G01 X15.9495 Y22.3805
G01 X16.0625 Y22.3050
G01 X16.1500 Y22.2175
G01 X16.1891 Y22.1653
G01 X16.2530 Y22.0456
G01 X16.2890 Y21.9272
G01 X16.2988 Y21.8630
G01 X16.2988 Y21.1770
G01 X16.2890 Y21.1128
G01 X16.2530 Y20.9944
G01 X16.1924 Y20.8796
G01 X16.1105 Y20.7789
G01 X16.0103 Y20.6959
G01 X15.8963 Y20.6343
G01 X15.7722 Y20.5960
G01 X15.6431 Y20.5827
G01 X15.5138 Y20.5949
G01 X15.3894 Y20.6320
G01 X15.2746 Y20.6926
G01 X15.1739 Y20.7745
G01 X15.0909 Y20.8747
G01 X15.0545 Y20.9355
G01 X15.0071 Y21.0498
G01 X14.9899 Y21.1188
G01 X14.9777 Y21.2419
G01 X14.9806 Y21.8569
G01 X15.0071 Y21.9902
G01 X15.0574 Y22.1099
G00 Z2.0000
G00 X14.9718 Y22.1612
G01 F50.00
G01 Z-0.0700
G01 F100.00
G01 X15.0109 Y22.2249
G01 X15.0956 Y22.3281
G01 X15.2233 Y22.4329
G01 X15.2879 Y22.4707
G01 X15.4112 Y22.5218
G01 X15.4992 Y22.5438
G01 X15.6320 Y22.5569
G01 X15.7964 Y22.5407
G01 X15.9242 Y22.5020
G01 X15.9921 Y22.4707
G01 X16.1295 Y22.3789
G01 X16.2239 Y22.2845
G01 X16.2695 Y22.2243
G01 X16.3470 Y22.0792
G01 X16.3857 Y21.9514
G01 X16.3975 Y21.8776
G01 X16.3975 Y21.1624
G01 X16.3857 Y21.0886
G01 X16.3470 Y20.9608
G01 X16.2779 Y20.8283
G01 X16.1844 Y20.7119
G01 X16.0693 Y20.6155
G01 X15.9389 Y20.5441
G01 X15.7964 Y20.4993
G01 X15.6480 Y20.4831
G01 X15.4992 Y20.4962
G01 X15.3558 Y20.5380
G01 X15.2233 Y20.6071
G01 X15.1069 Y20.7006
G01 X15.0105 Y20.8157
G01 X14.9643 Y20.8929
G01 X14.9132 Y21.0162
G01 X14.8912 Y21.1042
G01 X14.8781 Y21.2370
G01 X14.8825 Y21.8776
G01 X14.9132 Y22.0238
G01 X14.9718 Y22.1612
G00 Z2.0000
G00 X12.9905 Y22.2335
G01 F50.00
G01 Z-0.0700
G01 F100.00
G01 X13.0321 Y22.3210
G01 X13.0943 Y22.3883
G01 X13.1733 Y22.4347
G01 X13.2624 Y22.4561
G01 X14.0237 Y22.4555
G01 X14.0836 Y22.4429
G01 X14.1399 Y22.4190
G01 X14.1905 Y22.3845
G01 X14.2333 Y22.3407
G01 X14.2640 Y22.2949
G01 X14.2879 Y22.2386
G01 X14.3023 Y22.1481
G01 X14.3023 Y20.8919
G01 X14.2957 Y20.8311
G01 X14.2668 Y20.7505
G01 X14.2333 Y20.6993
G01 X14.1857 Y20.6517
G01 X14.1067 Y20.6053
G01 X14.0176 Y20.5839
G01 X13.2869 Y20.5827
G01 X13.2261 Y20.5893
G01 X13.1455 Y20.6182
G01 X13.0943 Y20.6517
G01 X13.0467 Y20.6993
G01 X13.0160 Y20.7451
G01 X12.9921 Y20.8014
G01 X12.9777 Y20.8919
G01 X12.9777 Y22.1450
G01 X12.9905 Y22.2335
G00 Z2.0000
G00 X12.8940 Y22.2589
G01 F50.00
G01 Z-0.0700
G01 F100.00
G01 X12.9431 Y22.3672
G01 X13.0225 Y22.4584
G01 X13.1250 Y22.5225
G01 X13.2417 Y22.5542
G01 X14.0383 Y22.5542
G01 X14.1172 Y22.5369
G01 X14.1912 Y22.5045
G01 X14.2575 Y22.4584
G01 X14.3135 Y22.4002
G01 X14.3736 Y22.2953
G01 X14.4007 Y22.1775
G01 X14.4019 Y20.8870
G01 X14.3924 Y20.8068
G01 X14.3570 Y20.7078
G01 X14.3135 Y20.6398
G01 X14.2452 Y20.5715
G01 X14.1403 Y20.5114
G01 X14.0225 Y20.4843
G01 X13.2575 Y20.4843
G01 X13.1761 Y20.4990
G01 X13.1028 Y20.5280
G01 X13.0348 Y20.5715
G01 X12.9665 Y20.6398
G01 X12.9305 Y20.6938
G01 X12.8981 Y20.7678
G01 X12.8781 Y20.8870
G01 X12.8779 Y22.1450
G01 X12.8940 Y22.2589
G00 Z2.0000
G00 X17.8128 Y27.8329
G01 F50.00
G01 Z-0.0700
G01 F100.00
G01 X17.9819 Y27.9865
G01 X18.1630 Y28.1211
G01 X18.3573 Y28.2378
G01 X18.5623 Y28.3351
G01 X18.7759 Y28.4118
G01 X18.9959 Y28.4672
G01 X19.2203 Y28.5008
G01 X19.4469 Y28.5123
G01 X19.6736 Y28.5014
G01 X19.8981 Y28.4684
G01 X20.1183 Y28.4136
G01 X20.3320 Y28.3374
G01 X20.5373 Y28.2407
G01 X20.7321 Y28.1243
G01 X20.9145 Y27.9894
G01 X21.0829 Y27.8372
G01 X21.2365 Y27.6681
G01 X21.3711 Y27.4870
G01 X21.4878 Y27.2927
G01 X21.5851 Y27.0877
G01 X21.6618 Y26.8741
G01 X21.7172 Y26.6541
G01 X21.7508 Y26.4297
G01 X21.7623 Y26.2031
G01 X21.7514 Y25.9764
G01 X21.7184 Y25.7519
G01 X21.6636 Y25.5317
G01 X21.5874 Y25.3180
G01 X21.4907 Y25.1127
G01 X21.3743 Y24.9179
G01 X21.2394 Y24.7355
G01 X21.0872 Y24.5671
G01 X20.9181 Y24.4135
G01 X20.7370 Y24.2789
G01 X20.5427 Y24.1622
G01 X20.3377 Y24.0649
G01 X20.1241 Y23.9882
G01 X19.9041 Y23.9328
G01 X19.6797 Y23.8992
G01 X19.4531 Y23.8877
G01 X19.2264 Y23.8986
G01 X19.0019 Y23.9316
G01 X18.7817 Y23.9864
G01 X18.5680 Y24.0626
G01 X18.3627 Y24.1593
G01 X18.1679 Y24.2757
G01 X17.9855 Y24.4106
G01 X17.8171 Y24.5628
G01 X17.6645 Y24.7307
G01 X17.5289 Y24.9130
G01 X17.4122 Y25.1073
G01 X17.3149 Y25.3123
G01 X17.2382 Y25.5259
G01 X17.1828 Y25.7459
G01 X17.1492 Y25.9703
G01 X17.1377 Y26.1969
G01 X17.1486 Y26.4236
G01 X17.1816 Y26.6481
G01 X17.2364 Y26.8683
G01 X17.3126 Y27.0820
G01 X17.4093 Y27.2873
G01 X17.5257 Y27.4821
G01 X17.6606 Y27.6645
G01 X17.8128 Y27.8329
G00 Z2.0000
G00 X17.7389 Y27.8999
G01 F50.00
G01 Z-0.0700
G01 F100.00
G01 X17.9167 Y28.0620
G01 X18.1040 Y28.2014
G01 X18.3060 Y28.3234
G01 X18.5197 Y28.4253
G01 X18.7422 Y28.5057
G01 X18.9717 Y28.5640
G01 X19.2057 Y28.5995
G01 X19.4420 Y28.6119
G01 X19.6785 Y28.6011
G01 X19.9127 Y28.5671
G01 X20.1425 Y28.5104
G01 X20.3657 Y28.4314
G01 X20.5800 Y28.3309
G01 X20.7834 Y28.2099
G01 X20.9740 Y28.0695
G01 X21.1499 Y27.9111
G01 X21.3120 Y27.7333
G01 X21.4514 Y27.5460
G01 X21.5734 Y27.3440
G01 X21.6753 Y27.1303
G01 X21.7557 Y26.9078
G01 X21.8140 Y26.6783
G01 X21.8495 Y26.4443
G01 X21.8619 Y26.2080
G01 X21.8511 Y25.9715
G01 X21.8171 Y25.7373
G01 X21.7604 Y25.5075
G01 X21.6814 Y25.2843
G01 X21.5809 Y25.0700
G01 X21.4599 Y24.8666
G01 X21.3195 Y24.6760
G01 X21.1611 Y24.5001
G01 X20.9833 Y24.3380
G01 X20.7960 Y24.1986
G01 X20.5940 Y24.0766
G01 X20.3803 Y23.9747
G01 X20.1578 Y23.8943
G01 X19.9283 Y23.8360
G01 X19.6943 Y23.8005
G01 X19.4580 Y23.7881
G01 X19.2215 Y23.7989
G01 X18.9873 Y23.8329
G01 X18.7575 Y23.8896
G01 X18.5343 Y23.9686
G01 X18.3200 Y24.0691
G01 X18.1166 Y24.1901
G01 X17.9260 Y24.3305
G01 X17.7501 Y24.4889
G01 X17.5906 Y24.6637
G01 X17.4486 Y24.8540
G01 X17.3266 Y25.0560
G01 X17.2247 Y25.2697
G01 X17.1443 Y25.4922
G01 X17.0860 Y25.7217
G01 X17.0505 Y25.9557
G01 X17.0381 Y26.1920
G01 X17.0489 Y26.4285
G01 X17.0829 Y26.6627
G01 X17.1396 Y26.8925
G01 X17.2186 Y27.1157
G01 X17.3191 Y27.3300
G01 X17.4401 Y27.5334
G01 X17.5805 Y27.7240
G01 X17.7389 Y27.8999
G00 Z2.0000
G00 X22.9718 Y22.1612
G01 F50.00
G01 Z-0.0700
G01 F100.00
G01 X23.0109 Y22.2249
G01 X23.0956 Y22.3281
G01 X23.2233 Y22.4329
G01 X23.2879 Y22.4707
G01 X23.4112 Y22.5218
G01 X23.4992 Y22.5438
G01 X23.6320 Y22.5569
G01 X23.7964 Y22.5407
G01 X23.9242 Y22.5020
G01 X23.9921 Y22.4707
G01 X24.1295 Y22.3789
G01 X24.2239 Y22.2845
G01 X24.2695 Y22.2243
G01 X24.3470 Y22.0792
G01 X24.3857 Y21.9514
G01 X24.3975 Y21.8776
G01 X24.3975 Y21.1624
G01 X24.3857 Y21.0886
G01 X24.3470 Y20.9608
G01 X24.2779 Y20.8283
G01 X24.1844 Y20.7119
G01 X24.0693 Y20.6155
G01 X23.9389 Y20.5441
G01 X23.7964 Y20.4993
G01 X23.6480 Y20.4831
G01 X23.4992 Y20.4962
G01 X23.3558 Y20.5380
G01 X23.2233 Y20.6071
G01 X23.1069 Y20.7006
G01 X23.0105 Y20.8157
G01 X22.9643 Y20.8929
G01 X22.9132 Y21.0162
G01 X22.8912 Y21.1042
G01 X22.8781 Y21.2370
G01 X22.8825 Y21.8776
G01 X22.9132 Y22.0238
G01 X22.9718 Y22.1612
G00 Z2.0000
G00 X23.0574 Y22.1099
G01 F50.00
G01 Z-0.0700
G01 F100.00
G01 X23.0910 Y22.1655
G01 X23.1695 Y22.2611
G01 X23.2746 Y22.3474
G01 X23.3305 Y22.3805
G01 X23.4448 Y22.4279
G01 X23.5138 Y22.4451
G01 X23.6369 Y22.4573
G01 X23.7722 Y22.4440
G01 X23.8906 Y22.4080
G01 X23.9495 Y22.3805
G01 X24.0625 Y22.3050
G01 X24.1500 Y22.2175
G01 X24.1891 Y22.1653
G01 X24.2530 Y22.0456
G01 X24.2890 Y21.9272
G01 X24.2988 Y21.8630
G01 X24.2988 Y21.1770
G01 X24.2890 Y21.1128
G01 X24.2530 Y20.9944
G01 X24.1924 Y20.8796
G01 X24.1105 Y20.7789
G01 X24.0103 Y20.6959
G01 X23.8963 Y20.6343
G01 X23.7722 Y20.5960
G01 X23.6431 Y20.5827
G01 X23.5138 Y20.5949
G01 X23.3894 Y20.6320
G01 X23.2746 Y20.6926
G01 X23.1739 Y20.7745
G01 X23.0909 Y20.8747
G01 X23.0545 Y20.9355
G01 X23.0071 Y21.0498
G01 X22.9899 Y21.1188
G01 X22.9777 Y21.2419
G01 X22.9806 Y21.8569
G01 X23.0071 Y21.9902
G01 X23.0574 Y22.1099
G00 Z2.0000
G00 X26.9615 Y20.7588
G01 F50.00
G01 Z-0.0700
G01 F100.00
G01 X27.0230 Y20.9617
G01 X27.0786 Y21.0792
G01 X27.1379 Y21.1766
G01 X27.2724 Y21.3405
G01 X28.1432 Y22.2045
G01 X28.2476 Y22.2819
G01 X28.3458 Y22.3399
G01 X28.4493 Y22.3880
G01 X28.5570 Y22.4257
G01 X28.6678 Y22.4526
G01 X28.8788 Y22.4734
G01 X31.5194 Y22.4736
G01 X33.3379 Y24.2921
G01 X33.3381 Y25.0680
G01 X33.3541 Y25.2301
G01 X33.3797 Y25.3323
G01 X33.4495 Y25.4969
G01 X33.5501 Y25.6447
G01 X33.6776 Y25.7700
G01 X33.8271 Y25.8680
G01 X33.9929 Y25.9350
G01 X34.1527 Y25.9667
G01 X34.2420 Y25.9719
G01 X35.7500 Y25.9721
G01 X35.8473 Y25.9667
G01 X36.0223 Y25.9303
G01 X36.1729 Y25.8680
G01 X36.2500 Y25.8226
G01 X36.3347 Y25.7599
G01 X36.4004 Y25.6992
G01 X36.5038 Y25.5732
G01 X36.5505 Y25.4969
G01 X36.5955 Y25.4016
G01 X36.6250 Y25.3171
G01 X36.6583 Y25.1415
G01 X36.6619 Y23.5520
G01 X36.6459 Y23.3899
G01 X36.6203 Y23.2877
G01 X36.5574 Y23.1359
G01 X36.4600 Y22.9876
G01 X36.3892 Y22.9096
G01 X36.2500 Y22.7974
G01 X36.0916 Y22.7145
G01 X35.9357 Y22.6672
G01 X35.7500 Y22.6479
G01 X34.9821 Y22.6479
G01 X32.8231 Y20.4889
G01 X32.7446 Y20.4175
G01 X32.6534 Y20.3489
G01 X32.5219 Y20.2726
G01 X33.6468 Y20.2726
G01 X33.7204 Y20.3705
G01 X33.8192 Y20.4795
G01 X33.9518 Y20.5997
G01 X34.0833 Y20.6963
G01 X34.2096 Y20.7719
G01 X34.3714 Y20.8485
G01 X34.5100 Y20.8980
G01 X34.6680 Y20.9384
G01 X34.8292 Y20.9631
G01 X35.0080 Y20.9719
G01 X35.1708 Y20.9631
G01 X35.3164 Y20.9415
G01 X35.4900 Y20.8980
G01 X35.6301 Y20.8479
G01 X35.7764 Y20.7794
G01 X35.9299 Y20.6874
G01 X36.0605 Y20.5896
G01 X36.1808 Y20.4795
G01 X36.2796 Y20.3705
G01 X36.3774 Y20.2399
G01 X36.4694 Y20.0864
G01 X36.5385 Y19.9386
G01 X36.5880 Y19.8000
G01 X36.6315 Y19.6264
G01 X36.6547 Y19.4650
G01 X36.6619 Y19.3180
G01 X36.6547 Y19.1550
G01 X36.6315 Y18.9936
G01 X36.5880 Y18.8200
G01 X36.5379 Y18.6799
G01 X36.4619 Y18.5196
G01 X36.3774 Y18.3801
G01 X36.2796 Y18.2495
G01 X36.1808 Y18.1405
G01 X36.0605 Y18.0304
G01 X35.9167 Y17.9237
G01 X35.7764 Y17.8406
G01 X35.6286 Y17.7715
G01 X35.4748 Y17.7173
G01 X35.3164 Y17.6785
G01 X35.1550 Y17.6553
G01 X35.0080 Y17.6481
G01 X34.8450 Y17.6553
G01 X34.6680 Y17.6816
G01 X34.5100 Y17.7220
G01 X34.3699 Y17.7721
G01 X34.2096 Y17.8481
G01 X34.0501 Y17.9474
G01 X32.3060 Y17.9474
G01 X32.3894 Y17.8774
G01 X36.3684 Y13.8984
G01 X36.4169 Y13.8439
G01 X36.4802 Y13.7492
G01 X36.5148 Y13.6761
G01 X36.5479 Y13.5670
G01 X36.5624 Y13.4300
G01 X36.5624 Y9.9400
G01 X36.5582 Y9.8672
G01 X36.5360 Y9.7554
G01 X36.4802 Y9.6208
G01 X36.4169 Y9.5261
G01 X36.3738 Y9.4774
G01 X34.9471 Y8.0504
G01 X34.9442 Y7.8617
G01 X34.9125 Y7.7450
G01 X34.8484 Y7.6425
G01 X34.7902 Y7.5865
G01 X34.7362 Y7.5505
G01 X34.6470 Y7.5135
G01 X34.5430 Y7.4981
G01 X33.0350 Y7.4979
G01 X32.9078 Y7.5181
G01 X32.8338 Y7.5505
G01 X32.7798 Y7.5865
G01 X32.7216 Y7.6425
G01 X32.6755 Y7.7088
G01 X32.6431 Y7.7828
G01 X32.6258 Y7.8617
G01 X32.6243 Y9.1425
G01 X32.6514 Y9.2603
G01 X32.6881 Y9.3322
G01 X32.7216 Y9.3775
G01 X32.7798 Y9.4335
G01 X32.8338 Y9.4695
G01 X32.9078 Y9.5019
G01 X32.9624 Y9.5156
G01 X33.0350 Y9.5221
G01 X34.5451 Y9.5218
G01 X35.2376 Y10.2144
G01 X35.2376 Y13.1556
G01 X31.6466 Y16.7466
G01 X29.4892 Y16.7466
G01 X29.3678 Y16.7580
G01 X29.2893 Y16.7777
G01 X29.1700 Y16.8288
G01 X29.0752 Y16.8921
G01 X29.0266 Y16.9352
G01 X28.0098 Y17.9516
G01 X27.8654 Y17.9715
G01 X27.7550 Y17.9999
G01 X27.6478 Y18.0391
G01 X27.4608 Y18.1391
G01 X27.3679 Y18.2070
G01 X27.2837 Y18.2824
G01 X27.1964 Y18.3787
G01 X27.1291 Y18.4708
G01 X27.0711 Y18.5691
G01 X27.0230 Y18.6725
G01 X26.9853 Y18.7802
G01 X26.9440 Y18.9881
G01 X26.9374 Y19.1100
G01 X26.9374 Y20.5242
G01 X26.9426 Y20.6342
G01 X26.9615 Y20.7588
G00 Z2.0000
G00 X27.0582 Y20.7346
G01 F50.00
G01 Z-0.0700
G01 F100.00
G01 X27.0839 Y20.8356
G01 X27.1613 Y21.0225
G01 X27.2180 Y21.1172
G01 X27.3463 Y21.2735
G01 X28.2102 Y22.1306
G01 X28.2989 Y22.1964
G01 X28.3885 Y22.2497
G01 X28.4829 Y22.2940
G01 X28.5812 Y22.3289
G01 X28.6825 Y22.3540
G01 X28.8837 Y22.3738
G01 X31.5608 Y22.3739
G01 X33.4377 Y24.2507
G01 X33.4377 Y25.0631
G01 X33.4419 Y25.1427
G01 X33.4718 Y25.2929
G01 X33.5324 Y25.4407
G01 X33.6240 Y25.5777
G01 X33.7371 Y25.6898
G01 X33.8698 Y25.7778
G01 X34.0171 Y25.8382
G01 X34.1673 Y25.8681
G01 X34.2469 Y25.8723
G01 X35.8327 Y25.8681
G01 X35.9887 Y25.8364
G01 X36.1302 Y25.7778
G01 X36.1987 Y25.7371
G01 X36.3265 Y25.6322
G01 X36.4237 Y25.5138
G01 X36.4649 Y25.4456
G01 X36.5282 Y25.2929
G01 X36.5581 Y25.1427
G01 X36.5623 Y25.0631
G01 X36.5581 Y23.4773
G01 X36.5264 Y23.3213
G01 X36.4649 Y23.1744
G01 X36.4237 Y23.1062
G01 X36.3265 Y22.9878
G01 X36.2038 Y22.8863
G01 X36.0580 Y22.8084
G01 X35.9829 Y22.7818
G01 X35.8327 Y22.7519
G01 X34.9407 Y22.7477
G01 X32.7525 Y20.5595
G01 X32.6729 Y20.4875
G01 X32.5889 Y20.4256
G01 X32.4993 Y20.3723
G01 X32.4049 Y20.3280
G01 X32.3066 Y20.2931
G01 X32.2053 Y20.2680
G01 X32.0041 Y20.2482
G01 X29.3270 Y20.2481
G01 X29.1629 Y20.0840
G01 X29.1579 Y19.0073
G01 X29.1430 Y18.9057
G01 X29.1179 Y18.8044
G01 X29.0526 Y18.6411
G01 X29.7222 Y17.9716
G01 X31.9241 Y17.9715
G01 X32.0277 Y17.9613
G01 X32.0872 Y17.9464
G01 X32.1391 Y17.9275
G01 X32.2310 Y17.8784
G01 X32.3188 Y17.8068
G01 X36.2978 Y13.8278
G01 X36.3660 Y13.7451
G01 X36.4185 Y13.6481
G01 X36.4511 Y13.5427
G01 X36.4626 Y13.4300
G01 X36.4626 Y9.9400
G01 X36.4595 Y9.8818
G01 X36.4392 Y9.7796
G01 X36.3947 Y9.6721
G01 X36.3368 Y9.5855
G01 X36.2999 Y9.5444
G01 X34.8474 Y8.0935
G01 X34.8461 Y7.8824
G01 X34.8329 Y7.8164
G01 X34.8090 Y7.7601
G01 X34.7745 Y7.7095
G01 X34.7307 Y7.6667
G01 X34.6849 Y7.6360
G01 X34.6227 Y7.6103
G01 X34.5350 Y7.5977
G01 X33.0350 Y7.5977
G01 X32.9414 Y7.6121
G01 X32.8851 Y7.6360
G01 X32.8393 Y7.6667
G01 X32.7917 Y7.7143
G01 X32.7582 Y7.7655
G01 X32.7353 Y7.8223
G01 X32.7239 Y7.8824
G01 X32.7245 Y9.1437
G01 X32.7355 Y9.1985
G01 X32.7582 Y9.2545
G01 X32.8164 Y9.3330
G01 X32.8905 Y9.3868
G01 X32.9414 Y9.4079
G01 X33.0013 Y9.4205
G01 X34.5827 Y9.4184
G01 X35.3374 Y10.1730
G01 X35.3374 Y13.1970
G01 X31.6880 Y16.8464
G01 X29.4892 Y16.8464
G01 X29.3824 Y16.8567
G01 X29.3229 Y16.8716
G01 X29.2213 Y16.9143
G01 X29.1347 Y16.9722
G01 X29.0936 Y17.0091
G01 X28.0531 Y18.0494
G01 X27.8897 Y18.0682
G01 X27.7886 Y18.0939
G01 X27.6905 Y18.1293
G01 X27.5121 Y18.2246
G01 X27.4278 Y18.2868
G01 X27.3507 Y18.3563
G01 X27.2765 Y18.4381
G01 X27.2146 Y18.5221
G01 X27.1613 Y18.6117
G01 X27.1170 Y18.7061
G01 X27.0821 Y18.8044
G01 X27.0426 Y19.0028
G01 X27.0371 Y19.1100
G01 X27.0371 Y20.5242
G01 X27.0421 Y20.6269
G01 X27.0582 Y20.7346
G00 Z2.0000
G00 X29.5789 Y19.8876
G01 F50.00
G01 Z-0.0700
G01 F100.00
G01 X29.6027 Y19.9823
G01 X29.6321 Y20.0360
G01 X29.6670 Y20.0786
G01 X29.7455 Y20.1368
G01 X29.8023 Y20.1597
G01 X29.8624 Y20.1711
G01 X33.6978 Y20.1729
G01 X33.7904 Y20.2987
G01 X33.8975 Y20.4169
G01 X34.0065 Y20.5157
G01 X34.1295 Y20.6073
G01 X34.2662 Y20.6892
G01 X34.4050 Y20.7545
G01 X34.5436 Y20.8041
G01 X34.6982 Y20.8429
G01 X34.8499 Y20.8651
G01 X34.9969 Y20.8723
G01 X35.1562 Y20.8645
G01 X35.3078 Y20.8417
G01 X35.4564 Y20.8041
G01 X35.5956 Y20.7543
G01 X35.7391 Y20.6864
G01 X35.8705 Y20.6073
G01 X35.9935 Y20.5157
G01 X36.1069 Y20.4125
G01 X36.2096 Y20.2987
G01 X36.2979 Y20.1797
G01 X36.3792 Y20.0438
G01 X36.4445 Y19.9050
G01 X36.4959 Y19.7606
G01 X36.5329 Y19.6118
G01 X36.5551 Y19.4601
G01 X36.5623 Y19.3069
G01 X36.5545 Y19.1538
G01 X36.5317 Y19.0022
G01 X36.4959 Y18.8594
G01 X36.4422 Y18.7093
G01 X36.3764 Y18.5709
G01 X36.3007 Y18.4446
G01 X36.2096 Y18.3213
G01 X36.1069 Y18.2075
G01 X35.9935 Y18.1043
G01 X35.8705 Y18.0127
G01 X35.7338 Y17.9308
G01 X35.5950 Y17.8655
G01 X35.4564 Y17.8159
G01 X35.3018 Y17.7771
G01 X35.1501 Y17.7549
G01 X34.9969 Y17.7477
G01 X34.8438 Y17.7555
G01 X34.6922 Y17.7783
G01 X34.5436 Y17.8159
G01 X34.3993 Y17.8678
G01 X34.2609 Y17.9336
G01 X34.0831 Y18.0471
G01 X29.8563 Y18.0495
G01 X29.8015 Y18.0605
G01 X29.7455 Y18.0832
G01 X29.6714 Y18.1370
G01 X29.6160 Y18.2101
G01 X29.5831 Y18.3021
G01 X29.5777 Y18.3600
G01 X29.5789 Y19.8876
G00 Z2.0000
G00 X29.2576 Y19.0040
G01 F50.00
G01 Z-0.0700
G01 F100.00
G01 X29.2385 Y18.8754
G01 X29.2101 Y18.7650
G01 X29.1727 Y18.6622
G01 X29.4780 Y18.3569
G01 X29.4793 Y19.8925
G01 X29.4876 Y19.9482
G01 X29.5125 Y20.0250
G01 X29.5519 Y20.0955
G01 X29.5959 Y20.1484
G01 X29.3684 Y20.1484
G01 X29.2626 Y20.0426
G01 X29.2576 Y19.0040
G00 Z2.0000
G00 X27.7905 Y24.2385
G01 F50.00
G01 Z-0.0700
G01 F100.00
G01 X27.8321 Y24.3260
G01 X27.8943 Y24.3933
G01 X27.9733 Y24.4397
G01 X28.0624 Y24.4611
G01 X29.5931 Y24.4623
G01 X29.6836 Y24.4479
G01 X29.7660 Y24.4079
G01 X29.8295 Y24.3505
G01 X29.8640 Y24.2999
G01 X29.8897 Y24.2377
G01 X29.9011 Y24.1776
G01 X29.9023 Y22.9469
G01 X29.8879 Y22.8564
G01 X29.8479 Y22.7740
G01 X29.7905 Y22.7105
G01 X29.7345 Y22.6732
G01 X29.6777 Y22.6503
G01 X29.5931 Y22.6377
G01 X28.0869 Y22.6377
G01 X27.9964 Y22.6521
G01 X27.9140 Y22.6921
G01 X27.8505 Y22.7495
G01 X27.8160 Y22.8001
G01 X27.7903 Y22.8623
G01 X27.7789 Y22.9224
G01 X27.7777 Y24.1500
G01 X27.7905 Y24.2385
G00 Z2.0000
G00 X27.6940 Y24.2639
G01 F50.00
G01 Z-0.0700
G01 F100.00
G01 X27.7431 Y24.3722
G01 X27.8225 Y24.4634
G01 X27.9250 Y24.5275
G01 X28.0417 Y24.5592
G01 X29.5980 Y24.5619
G01 X29.7172 Y24.5419
G01 X29.8255 Y24.4881
G01 X29.9034 Y24.4175
G01 X29.9495 Y24.3512
G01 X29.9865 Y24.2620
G01 X30.0007 Y24.1825
G01 X30.0007 Y22.9175
G01 X29.9819 Y22.8228
G01 X29.9281 Y22.7145
G01 X29.8575 Y22.6366
G01 X29.7912 Y22.5905
G01 X29.7020 Y22.5535
G01 X29.6225 Y22.5393
G01 X28.0820 Y22.5381
G01 X27.9628 Y22.5581
G01 X27.8545 Y22.6119
G01 X27.7766 Y22.6825
G01 X27.7305 Y22.7488
G01 X27.6935 Y22.8380
G01 X27.6793 Y22.9175
G01 X27.6779 Y24.1500
G01 X27.6940 Y24.2639
G00 Z2.0000
G00 X27.7959 Y26.2310
G01 F50.00
G01 Z-0.0700
G01 F100.00
G01 X27.8483 Y26.4019
G01 X27.8869 Y26.4827
G01 X27.9829 Y26.6264
G01 X28.1136 Y26.7571
G01 X28.2627 Y26.8560
G01 X28.4223 Y26.9221
G01 X28.5975 Y26.9576
G01 X28.9900 Y26.9623
G01 X29.1660 Y26.9452
G01 X29.3369 Y26.8938
G01 X29.4943 Y26.8102
G01 X29.6329 Y26.6972
G01 X29.7468 Y26.5594
G01 X29.8317 Y26.4019
G01 X29.8841 Y26.2310
G01 X29.9023 Y26.0531
G01 X29.8852 Y25.8740
G01 X29.8317 Y25.6981
G01 X29.7931 Y25.6173
G01 X29.6971 Y25.4736
G01 X29.5664 Y25.3429
G01 X29.4173 Y25.2440
G01 X29.2577 Y25.1779
G01 X29.0825 Y25.1424
G01 X28.6900 Y25.1377
G01 X28.5140 Y25.1548
G01 X28.3431 Y25.2062
G01 X28.1806 Y25.2932
G01 X28.0428 Y25.4071
G01 X27.9298 Y25.5457
G01 X27.8460 Y25.7037
G01 X27.7947 Y25.8750
G01 X27.7777 Y26.0531
G01 X27.7959 Y26.2310
G00 Z2.0000
G00 X27.6991 Y26.2552
G01 F50.00
G01 Z-0.0700
G01 F100.00
G01 X27.7582 Y26.4446
G01 X27.8013 Y26.5340
G01 X27.9027 Y26.6858
G01 X27.9801 Y26.7712
G01 X28.0542 Y26.8373
G01 X28.2200 Y26.9462
G01 X28.3886 Y27.0160
G01 X28.5829 Y27.0563
G01 X28.9900 Y27.0621
G01 X29.1822 Y27.0436
G01 X29.3714 Y26.9874
G01 X29.5456 Y26.8958
G01 X29.6999 Y26.7712
G01 X29.8270 Y26.6188
G01 X29.9218 Y26.4446
G01 X29.9809 Y26.2552
G01 X30.0019 Y26.0580
G01 X29.9976 Y25.9548
G01 X29.9836 Y25.8578
G01 X29.9274 Y25.6686
G01 X29.8856 Y25.5788
G01 X29.8270 Y25.4812
G01 X29.6999 Y25.3288
G01 X29.6258 Y25.2627
G01 X29.4740 Y25.1613
G01 X29.2914 Y25.0840
G01 X29.0971 Y25.0437
G01 X28.6900 Y25.0379
G01 X28.4978 Y25.0564
G01 X28.3086 Y25.1126
G01 X28.2188 Y25.1544
G01 X28.1212 Y25.2130
G01 X27.9688 Y25.3401
G01 X27.8442 Y25.4944
G01 X27.7521 Y25.6701
G01 X27.6960 Y25.8604
G01 X27.6781 Y26.0580
G01 X27.6991 Y26.2552
G00 Z2.0000
G00 X26.6021 Y14.0082
G01 F50.00
G01 Z-0.0700
G01 F100.00
G01 X26.6599 Y14.1673
G01 X26.7330 Y14.3199
G01 X26.8206 Y14.4646
G01 X26.9221 Y14.6001
G01 X27.0363 Y14.7250
G01 X27.1622 Y14.8380
G01 X27.2986 Y14.9382
G01 X27.4441 Y15.0245
G01 X27.5842 Y15.0908
G01 X27.7570 Y15.1525
G01 X27.9214 Y15.1928
G01 X28.0889 Y15.2169
G01 X28.2580 Y15.2244
G01 X28.4269 Y15.2153
G01 X28.5812 Y15.1924
G01 X28.7582 Y15.1479
G01 X28.9173 Y15.0901
G01 X29.0699 Y15.0170
G01 X29.2146 Y14.9294
G01 X29.3501 Y14.8279
G01 X29.4750 Y14.7137
G01 X29.5880 Y14.5878
G01 X29.6882 Y14.4514
G01 X29.7745 Y14.3059
G01 X29.8408 Y14.1658
G01 X29.9025 Y13.9930
G01 X29.9428 Y13.8286
G01 X29.9669 Y13.6611
G01 X29.9744 Y13.4920
G01 X29.9653 Y13.3231
G01 X29.9424 Y13.1688
G01 X29.8979 Y12.9918
G01 X29.8401 Y12.8327
G01 X29.7670 Y12.6801
G01 X29.6794 Y12.5354
G01 X29.5779 Y12.3999
G01 X29.4637 Y12.2750
G01 X29.3378 Y12.1620
G01 X29.2014 Y12.0618
G01 X29.0559 Y11.9755
G01 X28.9158 Y11.9092
G01 X28.7430 Y11.8475
G01 X28.5786 Y11.8072
G01 X28.4111 Y11.7831
G01 X28.2420 Y11.7756
G01 X28.0731 Y11.7847
G01 X27.9188 Y11.8076
G01 X27.7418 Y11.8521
G01 X27.5827 Y11.9099
G01 X27.4301 Y11.9830
G01 X27.2854 Y12.0706
G01 X27.1499 Y12.1721
G01 X27.0250 Y12.2863
G01 X26.9120 Y12.4122
G01 X26.8118 Y12.5486
G01 X26.7255 Y12.6941
G01 X26.6592 Y12.8342
G01 X26.5975 Y13.0070
G01 X26.5572 Y13.1714
G01 X26.5331 Y13.3389
G01 X26.5256 Y13.5080
G01 X26.5347 Y13.6769
G01 X26.5576 Y13.8312
G01 X26.6021 Y14.0082
G00 Z2.0000
G00 X26.6961 Y13.9746
G01 F50.00
G01 Z-0.0700
G01 F100.00
G01 X26.7501 Y14.1246
G01 X26.8185 Y14.2686
G01 X26.9007 Y14.4052
G01 X26.9960 Y14.5331
G01 X27.1033 Y14.6511
G01 X27.2216 Y14.7579
G01 X27.3499 Y14.8527
G01 X27.4816 Y14.9316
G01 X27.6260 Y15.0002
G01 X27.7813 Y15.0557
G01 X27.9360 Y15.0942
G01 X28.0938 Y15.1173
G01 X28.2531 Y15.1248
G01 X28.4123 Y15.1167
G01 X28.5650 Y15.0940
G01 X28.7246 Y15.0539
G01 X28.8746 Y14.9999
G01 X29.0186 Y14.9315
G01 X29.1552 Y14.8493
G01 X29.2831 Y14.7540
G01 X29.4011 Y14.6467
G01 X29.5079 Y14.5284
G01 X29.6027 Y14.4001
G01 X29.6816 Y14.2684
G01 X29.7502 Y14.1240
G01 X29.8057 Y13.9687
G01 X29.8442 Y13.8140
G01 X29.8673 Y13.6562
G01 X29.8748 Y13.4969
G01 X29.8667 Y13.3377
G01 X29.8440 Y13.1850
G01 X29.8039 Y13.0254
G01 X29.7499 Y12.8754
G01 X29.6815 Y12.7314
G01 X29.5993 Y12.5948
G01 X29.5040 Y12.4669
G01 X29.3967 Y12.3489
G01 X29.2784 Y12.2421
G01 X29.1501 Y12.1473
G01 X29.0184 Y12.0684
G01 X28.8740 Y11.9998
G01 X28.7187 Y11.9443
G01 X28.5640 Y11.9058
G01 X28.4062 Y11.8827
G01 X28.2469 Y11.8752
G01 X28.0877 Y11.8833
G01 X27.9350 Y11.9060
G01 X27.7754 Y11.9461
G01 X27.6254 Y12.0001
G01 X27.4814 Y12.0685
G01 X27.3448 Y12.1507
G01 X27.2169 Y12.2460
G01 X27.0989 Y12.3533
G01 X26.9921 Y12.4716
G01 X26.8973 Y12.5999
G01 X26.8184 Y12.7316
G01 X26.7498 Y12.8760
G01 X26.6943 Y13.0313
G01 X26.6558 Y13.1860
G01 X26.6327 Y13.3438
G01 X26.6252 Y13.5031
G01 X26.6333 Y13.6623
G01 X26.6560 Y13.8150
G01 X26.6961 Y13.9746
G00 Z2.0000
G00 X32.6414 Y11.2022
G01 F50.00
G01 Z-0.0700
G01 F100.00
G01 X32.6976 Y11.3914
G01 X32.7394 Y11.4812
G01 X32.7980 Y11.5788
G01 X32.9251 Y11.7312
G01 X32.9992 Y11.7973
G01 X33.1510 Y11.8987
G01 X33.3336 Y11.9760
G01 X33.5279 Y12.0163
G01 X33.9350 Y12.0221
G01 X34.1272 Y12.0036
G01 X34.3164 Y11.9474
G01 X34.4906 Y11.8558
G01 X34.6449 Y11.7312
G01 X34.7720 Y11.5788
G01 X34.8668 Y11.4046
G01 X34.9259 Y11.2152
G01 X34.9469 Y11.0180
G01 X34.9426 Y10.9148
G01 X34.9286 Y10.8178
G01 X34.8724 Y10.6286
G01 X34.8306 Y10.5388
G01 X34.7720 Y10.4412
G01 X34.6449 Y10.2888
G01 X34.5708 Y10.2227
G01 X34.4190 Y10.1213
G01 X34.2364 Y10.0440
G01 X34.0421 Y10.0037
G01 X33.6350 Y9.9979
G01 X33.4428 Y10.0164
G01 X33.2536 Y10.0726
G01 X33.0794 Y10.1642
G01 X32.9251 Y10.2888
G01 X32.7980 Y10.4412
G01 X32.7032 Y10.6154
G01 X32.6441 Y10.8048
G01 X32.6231 Y11.0020
G01 X32.6274 Y11.1052
G01 X32.6414 Y11.2022
G00 Z2.0000
G00 X32.7398 Y11.1860
G01 F50.00
G01 Z-0.0700
G01 F100.00
G01 X32.7912 Y11.3569
G01 X32.8782 Y11.5194
G01 X32.9921 Y11.6572
G01 X33.0586 Y11.7171
G01 X33.2023 Y11.8131
G01 X33.3673 Y11.8821
G01 X33.5425 Y11.9176
G01 X34.0275 Y11.9176
G01 X34.2027 Y11.8821
G01 X34.3628 Y11.8158
G01 X34.5114 Y11.7171
G01 X34.6393 Y11.5900
G01 X34.7410 Y11.4373
G01 X34.8089 Y11.2719
G01 X34.8432 Y11.0964
G01 X34.8426 Y10.9175
G01 X34.8291 Y10.8290
G01 X34.7790 Y10.6637
G01 X34.6952 Y10.5057
G01 X34.5822 Y10.3671
G01 X34.4393 Y10.2498
G01 X34.2813 Y10.1660
G01 X34.1100 Y10.1147
G01 X33.9350 Y10.0977
G01 X33.5425 Y10.1024
G01 X33.3673 Y10.1379
G01 X33.2023 Y10.2069
G01 X33.0586 Y10.3029
G01 X32.9921 Y10.3628
G01 X32.8782 Y10.5006
G01 X32.7933 Y10.6581
G01 X32.7409 Y10.8290
G01 X32.7227 Y11.0069
G01 X32.7398 Y11.1860
G00 Z2.0000
M05
G00 Z2.0000
G00 Z2.00


