(G-code generated by FlatCAM Evo vUnstable - Version Date: 2023/6/31)

(Name: Toolhead PCB-F_Cu.gbr_iso_combined_cnc)
(Type: G-code from Geometry)
(Units: MM)

(Created on Thursday, 25 September 2025 at 14:50)

(This preprocessor is the default preprocessor.)
(It is made to work with MACH3 compatible motion controllers.)

(TOOL DIAMETER: 0.1375 mm)
(Feedrate_XY: 100.0 mm/min)
(Feedrate_Z: 50.0 mm/min)
(Feedrate rapids 1500.0 mm/min)

(Z_Cut: -0.07 mm)
(Z_Move: 2.0 mm)
(Z Start: None mm)
(Z End: 2.0 mm)
(X,Y End: None mm)
(Steps per circle: 16)
(Preprocessor Geometry: default)

(X range:    1.2763 ...   36.6787  mm)
(Y range:    7.4813 ...   28.7790  mm)

(Spindle Speed: 0.0 RPM)
G21
G90
G94

G01 F100.00
G00 Z2.0000

M03
G4 P1.0
G01 F100.00
G00 X2.3243 Y9.2601
G01 F50.00
G01 Z-0.0700
G01 F100.00
G01 X2.3669 Y9.3498
G01 X2.4304 Y9.4185
G01 X2.5112 Y9.4657
G01 X2.6021 Y9.4875
G01 X4.1334 Y9.4887
G01 X4.2257 Y9.4740
G01 X4.3098 Y9.4331
G01 X4.3742 Y9.3748
G01 X4.4094 Y9.3232
G01 X4.4359 Y9.2593
G01 X4.4475 Y9.1979
G01 X4.4487 Y7.9666
G01 X4.4340 Y7.8743
G01 X4.3931 Y7.7902
G01 X4.3348 Y7.7258
G01 X4.2772 Y7.6874
G01 X4.2193 Y7.6641
G01 X4.1334 Y7.6513
G01 X2.6266 Y7.6513
G01 X2.5343 Y7.6660
G01 X2.4502 Y7.7069
G01 X2.3858 Y7.7652
G01 X2.3506 Y7.8168
G01 X2.3241 Y7.8807
G01 X2.3125 Y7.9421
G01 X2.3113 Y9.1700
G01 X2.3243 Y9.2601
G00 Z2.0000
G00 X2.2179 Y9.2881
G01 F50.00
G01 Z-0.0700
G01 F100.00
G01 X2.2688 Y9.4008
G01 X2.3514 Y9.4957
G01 X2.4579 Y9.5626
G01 X2.5793 Y9.5956
G01 X4.1388 Y9.5985
G01 X4.2628 Y9.5775
G01 X4.3754 Y9.5214
G01 X4.4557 Y9.4486
G01 X4.5038 Y9.3797
G01 X4.5426 Y9.2860
G01 X4.5573 Y9.2033
G01 X4.5573 Y7.9367
G01 X4.5375 Y7.8372
G01 X4.4814 Y7.7246
G01 X4.4086 Y7.6443
G01 X4.3397 Y7.5962
G01 X4.2460 Y7.5574
G01 X4.1633 Y7.5427
G01 X2.6212 Y7.5415
G01 X2.4972 Y7.5625
G01 X2.3846 Y7.6186
G01 X2.3208 Y7.6732
G01 X2.2688 Y7.7392
G01 X2.2225 Y7.8372
G01 X2.2044 Y7.9193
G01 X2.2013 Y9.1700
G01 X2.2179 Y9.2881
G00 Z2.0000
G00 X2.3285 Y11.2470
G01 F50.00
G01 Z-0.0700
G01 F100.00
G01 X2.3802 Y11.4191
G01 X2.4680 Y11.5832
G01 X2.5828 Y11.7220
G01 X2.6498 Y11.7823
G01 X2.7940 Y11.8786
G01 X2.9601 Y11.9481
G01 X3.1366 Y11.9839
G01 X3.6234 Y11.9839
G01 X3.7999 Y11.9481
G01 X3.9606 Y11.8815
G01 X4.1102 Y11.7823
G01 X4.2391 Y11.6541
G01 X4.3418 Y11.5001
G01 X4.4101 Y11.3334
G01 X4.4446 Y11.1567
G01 X4.4439 Y10.9766
G01 X4.4304 Y10.8875
G01 X4.3800 Y10.7216
G01 X4.2957 Y10.5624
G01 X4.1820 Y10.4228
G01 X4.0376 Y10.3043
G01 X3.8784 Y10.2200
G01 X3.7059 Y10.1683
G01 X3.5300 Y10.1513
G01 X3.1366 Y10.1561
G01 X2.9601 Y10.1919
G01 X2.7940 Y10.2614
G01 X2.6498 Y10.3577
G01 X2.5828 Y10.4180
G01 X2.4680 Y10.5568
G01 X2.3826 Y10.7153
G01 X2.3296 Y10.8875
G01 X2.3113 Y11.0666
G01 X2.3285 Y11.2470
G00 Z2.0000
G00 X2.2200 Y11.2649
G01 F50.00
G01 Z-0.0700
G01 F100.00
G01 X2.2770 Y11.4571
G01 X2.3194 Y11.5484
G01 X2.3797 Y11.6487
G01 X2.5089 Y11.8035
G01 X2.5843 Y11.8706
G01 X2.7374 Y11.9730
G01 X2.9230 Y12.0517
G01 X3.1205 Y12.0927
G01 X3.5300 Y12.0987
G01 X3.7249 Y12.0800
G01 X3.9171 Y12.0230
G01 X4.0941 Y11.9301
G01 X4.2511 Y11.8035
G01 X4.3224 Y11.7260
G01 X4.3803 Y11.6487
G01 X4.4769 Y11.4717
G01 X4.5371 Y11.2793
G01 X4.5585 Y11.0788
G01 X4.5542 Y10.9735
G01 X4.5400 Y10.8751
G01 X4.4830 Y10.6829
G01 X4.4406 Y10.5916
G01 X4.3803 Y10.4913
G01 X4.2511 Y10.3365
G01 X4.1757 Y10.2694
G01 X4.0226 Y10.1670
G01 X3.8370 Y10.0883
G01 X3.6395 Y10.0473
G01 X3.2300 Y10.0413
G01 X3.0351 Y10.0600
G01 X2.8429 Y10.1170
G01 X2.6659 Y10.2099
G01 X2.5089 Y10.3365
G01 X2.4376 Y10.4140
G01 X2.3797 Y10.4913
G01 X2.2831 Y10.6683
G01 X2.2229 Y10.8607
G01 X2.2015 Y11.0612
G01 X2.2058 Y11.1665
G01 X2.2200 Y11.2649
G00 Z2.0000
G00 X1.3993 Y16.9601
G01 F50.00
G01 Z-0.0700
G01 F100.00
G01 X1.4419 Y17.0498
G01 X1.5054 Y17.1185
G01 X1.5862 Y17.1657
G01 X1.6771 Y17.1875
G01 X2.9829 Y17.1875
G01 X3.0451 Y17.1757
G01 X3.1022 Y17.1526
G01 X3.1863 Y17.0890
G01 X3.6610 Y17.0890
G01 X3.6610 Y21.1950
G01 X3.6727 Y21.3093
G01 X3.7057 Y21.4158
G01 X3.7588 Y21.5139
G01 X3.8277 Y21.5973
G01 X6.9151 Y24.6848
G01 X6.9485 Y24.7890
G01 X7.0071 Y24.8987
G01 X7.0898 Y25.0004
G01 X7.1434 Y25.0490
G01 X7.2471 Y25.1183
G01 X7.3677 Y25.1689
G01 X7.4379 Y25.1865
G01 X7.5650 Y25.1987
G01 X8.1839 Y25.1951
G01 X8.3123 Y25.1689
G01 X8.3740 Y25.1465
G01 X8.4651 Y25.0990
G01 X11.3453 Y25.0990
G01 X11.4278 Y25.1513
G01 X11.5427 Y25.1989
G01 X11.6129 Y25.2165
G01 X11.7366 Y25.2287
G01 X11.8738 Y25.2152
G01 X11.9928 Y25.1791
G01 X12.0582 Y25.1481
G01 X12.1616 Y25.0790
G01 X12.2152 Y25.0304
G01 X12.2943 Y24.9340
G01 X12.3313 Y24.8722
G01 X12.3789 Y24.7573
G01 X12.3965 Y24.6871
G01 X12.4087 Y24.5634
G01 X12.4051 Y24.4911
G01 X12.3809 Y24.3691
G01 X12.3565 Y24.3010
G01 X12.2979 Y24.1913
G01 X12.2547 Y24.1332
G01 X12.1668 Y24.0453
G01 X12.1087 Y24.0021
G01 X11.9984 Y23.9432
G01 X11.9309 Y23.9191
G01 X11.8022 Y23.8942
G01 X11.6778 Y23.8942
G01 X11.5491 Y23.9191
G01 X11.4440 Y23.9610
G01 X8.4651 Y23.9610
G01 X8.3734 Y23.9132
G01 X8.3123 Y23.8911
G01 X8.1839 Y23.8649
G01 X7.7009 Y23.8613
G01 X4.7990 Y20.9593
G01 X4.7990 Y16.9657
G01 X5.9448 Y15.8199
G01 X6.0428 Y15.7891
G01 X6.1082 Y15.7581
G01 X6.1643 Y15.7241
G01 X6.2604 Y15.6452
G01 X6.3479 Y15.5387
G01 X6.3813 Y15.4822
G01 X6.4289 Y15.3673
G01 X6.4558 Y15.2322
G01 X6.4551 Y15.1011
G01 X6.4289 Y14.9727
G01 X6.4065 Y14.9110
G01 X6.3590 Y14.8199
G01 X6.3590 Y12.2857
G01 X9.3057 Y9.3390
G01 X13.4743 Y9.3390
G01 X14.2810 Y10.1457
G01 X14.2812 Y11.5018
G01 X14.1880 Y11.5828
G01 X14.0780 Y11.7168
G01 X14.0282 Y11.7999
G01 X13.9619 Y11.9601
G01 X13.9383 Y12.0541
G01 X13.9213 Y12.2266
G01 X13.9261 Y12.3234
G01 X13.9619 Y12.4999
G01 X14.0282 Y12.6601
G01 X14.0780 Y12.7432
G01 X14.1880 Y12.8772
G01 X14.2598 Y12.9423
G01 X14.4040 Y13.0386
G01 X14.4916 Y13.0800
G01 X14.6641 Y13.1317
G01 X14.8366 Y13.1487
G01 X14.9334 Y13.1439
G01 X15.1099 Y13.1081
G01 X15.2706 Y13.0415
G01 X15.4202 Y12.9423
G01 X15.5491 Y12.8141
G01 X15.6486 Y12.6660
G01 X15.6900 Y12.5784
G01 X15.7417 Y12.4059
G01 X15.7587 Y12.2334
G01 X15.7545 Y12.1416
G01 X15.7404 Y12.0475
G01 X15.6900 Y11.8816
G01 X15.6486 Y11.7940
G01 X15.5523 Y11.6498
G01 X15.4188 Y11.5167
G01 X15.4188 Y9.3750
G01 X15.4101 Y9.3416
G01 X15.3913 Y9.3200
G01 X15.3568 Y9.3066
G01 X15.0509 Y9.3062
G01 X14.0735 Y8.3324
G01 X13.9752 Y8.2667
G01 X13.8784 Y8.2266
G01 X13.8177 Y8.2114
G01 X13.7100 Y8.2010
G01 X9.0700 Y8.2010
G01 X9.0109 Y8.2042
G01 X8.9081 Y8.2246
G01 X8.7988 Y8.2698
G01 X8.7117 Y8.3281
G01 X8.6677 Y8.3677
G01 X5.3877 Y11.6477
G01 X5.3481 Y11.6917
G01 X5.2898 Y11.7788
G01 X5.2446 Y11.8881
G01 X5.2242 Y11.9909
G01 X5.2210 Y12.0500
G01 X5.2210 Y14.8199
G01 X5.1732 Y14.9116
G01 X5.1401 Y15.0152
G01 X4.2043 Y15.9510
G01 X3.1863 Y15.9510
G01 X3.1348 Y15.9069
G01 X3.0801 Y15.8769
G01 X3.0205 Y15.8581
G01 X2.9550 Y15.8513
G01 X1.7016 Y15.8513
G01 X1.6395 Y15.8581
G01 X1.5578 Y15.8874
G01 X1.5002 Y15.9258
G01 X1.4419 Y15.9902
G01 X1.4093 Y16.0512
G01 X1.3882 Y16.1354
G01 X1.3863 Y16.8700
G01 X1.3993 Y16.9601
G00 Z2.0000
G00 X1.4669 Y18.8382
G01 F50.00
G01 Z-0.0700
G01 F100.00
G01 X1.5403 Y18.9468
G01 X1.6334 Y19.0390
G01 X1.7428 Y19.1113
G01 X1.8022 Y19.1391
G01 X1.9212 Y19.1752
G01 X2.0550 Y19.1887
G01 X2.6050 Y19.1887
G01 X2.6739 Y19.1851
G01 X2.7959 Y19.1609
G01 X2.9172 Y19.1113
G01 X3.0266 Y19.0390
G01 X3.1197 Y18.9468
G01 X3.1933 Y18.8379
G01 X3.2439 Y18.7173
G01 X3.2701 Y18.5889
G01 X3.2708 Y18.4578
G01 X3.2459 Y18.3291
G01 X3.1931 Y18.2018
G01 X3.1591 Y18.1457
G01 X3.0802 Y18.0496
G01 X2.9737 Y17.9621
G01 X2.9172 Y17.9287
G01 X2.8023 Y17.8811
G01 X2.7321 Y17.8635
G01 X2.6050 Y17.8513
G01 X2.0516 Y17.8513
G01 X1.9861 Y17.8549
G01 X1.8641 Y17.8791
G01 X1.7368 Y17.9319
G01 X1.6282 Y18.0053
G01 X1.5403 Y18.0932
G01 X1.5009 Y18.1457
G01 X1.4382 Y18.2616
G01 X1.3985 Y18.3929
G01 X1.3892 Y18.4578
G01 X1.3892 Y18.5822
G01 X1.4161 Y18.7173
G01 X1.4669 Y18.8382
G00 Z2.0000
G00 X1.3725 Y18.8947
G01 F50.00
G01 Z-0.0700
G01 F100.00
G01 X1.4587 Y19.0207
G01 X1.5679 Y19.1274
G01 X1.6957 Y19.2107
G01 X1.8374 Y19.2676
G01 X1.9700 Y19.2939
G01 X2.0462 Y19.2985
G01 X2.6050 Y19.2987
G01 X2.7483 Y19.2853
G01 X2.8394 Y19.2625
G01 X2.9797 Y19.2025
G01 X3.1057 Y19.1163
G01 X3.2124 Y19.0071
G01 X3.2957 Y18.8793
G01 X3.3526 Y18.7376
G01 X3.3806 Y18.5876
G01 X3.3789 Y18.4350
G01 X3.3475 Y18.2856
G01 X3.3209 Y18.2140
G01 X3.2572 Y18.0948
G01 X3.1493 Y17.9633
G01 X3.0302 Y17.8678
G01 X2.9643 Y17.8293
G01 X2.8394 Y17.7775
G01 X2.7483 Y17.7547
G01 X2.6050 Y17.7413
G01 X2.0462 Y17.7415
G01 X1.9117 Y17.7547
G01 X1.8206 Y17.7775
G01 X1.7490 Y17.8041
G01 X1.6298 Y17.8678
G01 X1.5107 Y17.9633
G01 X1.4121 Y18.0808
G01 X1.3324 Y18.2302
G01 X1.2931 Y18.3595
G01 X1.2811 Y18.4350
G01 X1.2794 Y18.5876
G01 X1.3125 Y18.7544
G01 X1.3725 Y18.8947
G00 Z2.0000
G00 X1.4669 Y20.8382
G01 F50.00
G01 Z-0.0700
G01 F100.00
G01 X1.5403 Y20.9468
G01 X1.6334 Y21.0390
G01 X1.7428 Y21.1113
G01 X1.8022 Y21.1391
G01 X1.9212 Y21.1752
G01 X2.0550 Y21.1887
G01 X2.6050 Y21.1887
G01 X2.6739 Y21.1851
G01 X2.7959 Y21.1609
G01 X2.9172 Y21.1113
G01 X3.0266 Y21.0390
G01 X3.1197 Y20.9468
G01 X3.1933 Y20.8379
G01 X3.2439 Y20.7173
G01 X3.2701 Y20.5889
G01 X3.2708 Y20.4578
G01 X3.2459 Y20.3291
G01 X3.1931 Y20.2018
G01 X3.1591 Y20.1457
G01 X3.0802 Y20.0496
G01 X2.9737 Y19.9621
G01 X2.9172 Y19.9287
G01 X2.8023 Y19.8811
G01 X2.7321 Y19.8635
G01 X2.6050 Y19.8513
G01 X2.0516 Y19.8513
G01 X1.9861 Y19.8549
G01 X1.8641 Y19.8791
G01 X1.7368 Y19.9319
G01 X1.6282 Y20.0053
G01 X1.5403 Y20.0932
G01 X1.5009 Y20.1457
G01 X1.4382 Y20.2616
G01 X1.3985 Y20.3929
G01 X1.3892 Y20.4578
G01 X1.3892 Y20.5822
G01 X1.4161 Y20.7173
G01 X1.4669 Y20.8382
G00 Z2.0000
G00 X1.3725 Y20.8947
G01 F50.00
G01 Z-0.0700
G01 F100.00
G01 X1.4587 Y21.0207
G01 X1.5679 Y21.1274
G01 X1.6957 Y21.2107
G01 X1.8374 Y21.2676
G01 X1.9700 Y21.2939
G01 X2.0462 Y21.2985
G01 X2.6050 Y21.2987
G01 X2.7483 Y21.2853
G01 X2.8394 Y21.2625
G01 X2.9797 Y21.2025
G01 X3.1057 Y21.1163
G01 X3.2124 Y21.0071
G01 X3.2957 Y20.8793
G01 X3.3526 Y20.7376
G01 X3.3806 Y20.5876
G01 X3.3789 Y20.4350
G01 X3.3475 Y20.2856
G01 X3.3209 Y20.2140
G01 X3.2572 Y20.0948
G01 X3.1493 Y19.9633
G01 X3.0302 Y19.8678
G01 X2.9643 Y19.8293
G01 X2.8394 Y19.7775
G01 X2.7483 Y19.7547
G01 X2.6050 Y19.7413
G01 X2.0462 Y19.7415
G01 X1.9117 Y19.7547
G01 X1.8206 Y19.7775
G01 X1.7490 Y19.8041
G01 X1.6298 Y19.8678
G01 X1.5107 Y19.9633
G01 X1.4121 Y20.0808
G01 X1.3324 Y20.2302
G01 X1.2931 Y20.3595
G01 X1.2811 Y20.4350
G01 X1.2794 Y20.5876
G01 X1.3125 Y20.7544
G01 X1.3725 Y20.8947
G00 Z2.0000
G00 X1.4669 Y22.8382
G01 F50.00
G01 Z-0.0700
G01 F100.00
G01 X1.5403 Y22.9468
G01 X1.6334 Y23.0390
G01 X1.7428 Y23.1113
G01 X1.8022 Y23.1391
G01 X1.9212 Y23.1752
G01 X2.0550 Y23.1887
G01 X2.6050 Y23.1887
G01 X2.6739 Y23.1851
G01 X2.7959 Y23.1609
G01 X2.9172 Y23.1113
G01 X3.0266 Y23.0390
G01 X3.1197 Y22.9468
G01 X3.1933 Y22.8379
G01 X3.2439 Y22.7173
G01 X3.2701 Y22.5889
G01 X3.2708 Y22.4578
G01 X3.2459 Y22.3291
G01 X3.1931 Y22.2018
G01 X3.1591 Y22.1457
G01 X3.0802 Y22.0496
G01 X2.9737 Y21.9621
G01 X2.9172 Y21.9287
G01 X2.8023 Y21.8811
G01 X2.7321 Y21.8635
G01 X2.6050 Y21.8513
G01 X2.0516 Y21.8513
G01 X1.9861 Y21.8549
G01 X1.8641 Y21.8791
G01 X1.7368 Y21.9319
G01 X1.6282 Y22.0053
G01 X1.5403 Y22.0932
G01 X1.5009 Y22.1457
G01 X1.4382 Y22.2616
G01 X1.3985 Y22.3929
G01 X1.3892 Y22.4578
G01 X1.3892 Y22.5822
G01 X1.4161 Y22.7173
G01 X1.4669 Y22.8382
G00 Z2.0000
G00 X1.3725 Y22.8947
G01 F50.00
G01 Z-0.0700
G01 F100.00
G01 X1.4587 Y23.0207
G01 X1.5679 Y23.1274
G01 X1.6957 Y23.2107
G01 X1.8374 Y23.2676
G01 X1.9700 Y23.2939
G01 X2.0462 Y23.2985
G01 X2.6050 Y23.2987
G01 X2.7483 Y23.2853
G01 X2.8394 Y23.2625
G01 X2.9797 Y23.2025
G01 X3.1057 Y23.1163
G01 X3.2124 Y23.0071
G01 X3.2957 Y22.8793
G01 X3.3526 Y22.7376
G01 X3.3806 Y22.5876
G01 X3.3789 Y22.4350
G01 X3.3475 Y22.2856
G01 X3.3209 Y22.2140
G01 X3.2572 Y22.0948
G01 X3.1493 Y21.9633
G01 X3.0302 Y21.8678
G01 X2.9643 Y21.8293
G01 X2.8394 Y21.7775
G01 X2.7483 Y21.7547
G01 X2.6050 Y21.7413
G01 X2.0462 Y21.7415
G01 X1.9117 Y21.7547
G01 X1.8206 Y21.7775
G01 X1.7490 Y21.8041
G01 X1.6298 Y21.8678
G01 X1.5107 Y21.9633
G01 X1.4121 Y22.0808
G01 X1.3324 Y22.2302
G01 X1.2931 Y22.3595
G01 X1.2811 Y22.4350
G01 X1.2794 Y22.5876
G01 X1.3125 Y22.7544
G01 X1.3725 Y22.8947
G00 Z2.0000
G00 X1.4669 Y24.8382
G01 F50.00
G01 Z-0.0700
G01 F100.00
G01 X1.5403 Y24.9468
G01 X1.6334 Y25.0390
G01 X1.7428 Y25.1113
G01 X1.8022 Y25.1391
G01 X1.9212 Y25.1752
G01 X2.0550 Y25.1887
G01 X2.6050 Y25.1887
G01 X2.6739 Y25.1851
G01 X2.7959 Y25.1609
G01 X2.9172 Y25.1113
G01 X3.0266 Y25.0390
G01 X3.1197 Y24.9468
G01 X3.1933 Y24.8379
G01 X3.2439 Y24.7173
G01 X3.2701 Y24.5889
G01 X3.2708 Y24.4578
G01 X3.2459 Y24.3291
G01 X3.1931 Y24.2018
G01 X3.1591 Y24.1457
G01 X3.0802 Y24.0496
G01 X2.9737 Y23.9621
G01 X2.9172 Y23.9287
G01 X2.8023 Y23.8811
G01 X2.7321 Y23.8635
G01 X2.6050 Y23.8513
G01 X2.0516 Y23.8513
G01 X1.9861 Y23.8549
G01 X1.8641 Y23.8791
G01 X1.7368 Y23.9319
G01 X1.6282 Y24.0053
G01 X1.5403 Y24.0932
G01 X1.5009 Y24.1457
G01 X1.4382 Y24.2616
G01 X1.3985 Y24.3929
G01 X1.3892 Y24.4578
G01 X1.3892 Y24.5822
G01 X1.4161 Y24.7173
G01 X1.4669 Y24.8382
G00 Z2.0000
G00 X1.3725 Y24.8947
G01 F50.00
G01 Z-0.0700
G01 F100.00
G01 X1.4587 Y25.0207
G01 X1.5679 Y25.1274
G01 X1.6957 Y25.2107
G01 X1.8374 Y25.2676
G01 X1.9700 Y25.2939
G01 X2.0462 Y25.2985
G01 X2.6050 Y25.2987
G01 X2.7483 Y25.2853
G01 X2.8394 Y25.2625
G01 X2.9797 Y25.2025
G01 X3.1057 Y25.1163
G01 X3.2124 Y25.0071
G01 X3.2957 Y24.8793
G01 X3.3526 Y24.7376
G01 X3.3806 Y24.5876
G01 X3.3789 Y24.4350
G01 X3.3475 Y24.2856
G01 X3.3209 Y24.2140
G01 X3.2572 Y24.0948
G01 X3.1493 Y23.9633
G01 X3.0302 Y23.8678
G01 X2.9643 Y23.8293
G01 X2.8394 Y23.7775
G01 X2.7483 Y23.7547
G01 X2.6050 Y23.7413
G01 X2.0462 Y23.7415
G01 X1.9117 Y23.7547
G01 X1.8206 Y23.7775
G01 X1.7490 Y23.8041
G01 X1.6298 Y23.8678
G01 X1.5107 Y23.9633
G01 X1.4121 Y24.0808
G01 X1.3324 Y24.2302
G01 X1.2931 Y24.3595
G01 X1.2811 Y24.4350
G01 X1.2794 Y24.5876
G01 X1.3125 Y24.7544
G01 X1.3725 Y24.8947
G00 Z2.0000
G00 X1.4669 Y26.8382
G01 F50.00
G01 Z-0.0700
G01 F100.00
G01 X1.5403 Y26.9468
G01 X1.6334 Y27.0390
G01 X1.7428 Y27.1113
G01 X1.8022 Y27.1391
G01 X1.9212 Y27.1752
G01 X2.0550 Y27.1887
G01 X2.6050 Y27.1887
G01 X2.6739 Y27.1851
G01 X2.7959 Y27.1609
G01 X2.9172 Y27.1113
G01 X3.0266 Y27.0390
G01 X3.1197 Y26.9468
G01 X3.1933 Y26.8379
G01 X3.2439 Y26.7173
G01 X3.2701 Y26.5889
G01 X3.2708 Y26.4578
G01 X3.2459 Y26.3291
G01 X3.1931 Y26.2018
G01 X3.1591 Y26.1457
G01 X3.0802 Y26.0496
G01 X2.9737 Y25.9621
G01 X2.9172 Y25.9287
G01 X2.8023 Y25.8811
G01 X2.7321 Y25.8635
G01 X2.6050 Y25.8513
G01 X2.0516 Y25.8513
G01 X1.9861 Y25.8549
G01 X1.8641 Y25.8791
G01 X1.7368 Y25.9319
G01 X1.6282 Y26.0053
G01 X1.5403 Y26.0932
G01 X1.5009 Y26.1457
G01 X1.4382 Y26.2616
G01 X1.3985 Y26.3929
G01 X1.3892 Y26.4578
G01 X1.3892 Y26.5822
G01 X1.4161 Y26.7173
G01 X1.4669 Y26.8382
G00 Z2.0000
G00 X1.3725 Y26.8947
G01 F50.00
G01 Z-0.0700
G01 F100.00
G01 X1.4587 Y27.0207
G01 X1.5679 Y27.1274
G01 X1.6957 Y27.2107
G01 X1.8374 Y27.2676
G01 X1.9700 Y27.2939
G01 X2.0462 Y27.2985
G01 X2.6050 Y27.2987
G01 X2.7483 Y27.2853
G01 X2.8394 Y27.2625
G01 X2.9797 Y27.2025
G01 X3.1057 Y27.1163
G01 X3.2124 Y27.0071
G01 X3.2957 Y26.8793
G01 X3.3526 Y26.7376
G01 X3.3806 Y26.5876
G01 X3.3789 Y26.4350
G01 X3.3475 Y26.2856
G01 X3.3209 Y26.2140
G01 X3.2572 Y26.0948
G01 X3.1493 Y25.9633
G01 X3.0302 Y25.8678
G01 X2.9643 Y25.8293
G01 X2.8394 Y25.7775
G01 X2.7483 Y25.7547
G01 X2.6050 Y25.7413
G01 X2.0462 Y25.7415
G01 X1.9117 Y25.7547
G01 X1.8206 Y25.7775
G01 X1.7490 Y25.8041
G01 X1.6298 Y25.8678
G01 X1.5107 Y25.9633
G01 X1.4121 Y26.0808
G01 X1.3324 Y26.2302
G01 X1.2931 Y26.3595
G01 X1.2811 Y26.4350
G01 X1.2794 Y26.5876
G01 X1.3125 Y26.7544
G01 X1.3725 Y26.8947
G00 Z2.0000
G00 X6.8825 Y26.9047
G01 F50.00
G01 Z-0.0700
G01 F100.00
G01 X6.9687 Y27.0307
G01 X7.0779 Y27.1374
G01 X7.2057 Y27.2207
G01 X7.3474 Y27.2776
G01 X7.4800 Y27.3039
G01 X7.5562 Y27.3085
G01 X8.1150 Y27.3087
G01 X8.2583 Y27.2953
G01 X8.3494 Y27.2725
G01 X8.4897 Y27.2125
G01 X8.6157 Y27.1263
G01 X8.7224 Y27.0171
G01 X8.8057 Y26.8893
G01 X8.8626 Y26.7476
G01 X8.8906 Y26.5976
G01 X8.8889 Y26.4450
G01 X8.8575 Y26.2956
G01 X8.8309 Y26.2240
G01 X8.7672 Y26.1048
G01 X8.6593 Y25.9733
G01 X8.5402 Y25.8778
G01 X8.4743 Y25.8393
G01 X8.3494 Y25.7875
G01 X8.2583 Y25.7647
G01 X8.1150 Y25.7513
G01 X7.5562 Y25.7515
G01 X7.4217 Y25.7647
G01 X7.3306 Y25.7875
G01 X7.2590 Y25.8141
G01 X7.1398 Y25.8778
G01 X7.0207 Y25.9733
G01 X6.9221 Y26.0908
G01 X6.8424 Y26.2402
G01 X6.8031 Y26.3695
G01 X6.7911 Y26.4450
G01 X6.7894 Y26.5976
G01 X6.8225 Y26.7644
G01 X6.8825 Y26.9047
G00 Z2.0000
G00 X6.9769 Y26.8482
G01 F50.00
G01 Z-0.0700
G01 F100.00
G01 X7.0503 Y26.9568
G01 X7.1434 Y27.0490
G01 X7.2528 Y27.1213
G01 X7.3122 Y27.1491
G01 X7.4312 Y27.1852
G01 X7.5650 Y27.1987
G01 X8.1150 Y27.1987
G01 X8.1839 Y27.1951
G01 X8.3059 Y27.1709
G01 X8.4272 Y27.1213
G01 X8.5366 Y27.0490
G01 X8.6297 Y26.9568
G01 X8.7033 Y26.8479
G01 X8.7539 Y26.7273
G01 X8.7801 Y26.5989
G01 X8.7808 Y26.4678
G01 X8.7559 Y26.3391
G01 X8.7031 Y26.2118
G01 X8.6691 Y26.1557
G01 X8.5902 Y26.0596
G01 X8.4837 Y25.9721
G01 X8.4272 Y25.9387
G01 X8.3123 Y25.8911
G01 X8.2421 Y25.8735
G01 X8.1150 Y25.8613
G01 X7.5616 Y25.8613
G01 X7.4961 Y25.8649
G01 X7.3741 Y25.8891
G01 X7.2468 Y25.9419
G01 X7.1382 Y26.0153
G01 X7.0503 Y26.1032
G01 X7.0109 Y26.1557
G01 X6.9482 Y26.2716
G01 X6.9085 Y26.4029
G01 X6.8992 Y26.4678
G01 X6.8992 Y26.5922
G01 X6.9261 Y26.7273
G01 X6.9769 Y26.8482
G00 Z2.0000
G00 X6.9769 Y22.8482
G01 F50.00
G01 Z-0.0700
G01 F100.00
G01 X7.0503 Y22.9568
G01 X7.1434 Y23.0490
G01 X7.2528 Y23.1213
G01 X7.3122 Y23.1491
G01 X7.4312 Y23.1852
G01 X7.5650 Y23.1987
G01 X8.1150 Y23.1987
G01 X8.1839 Y23.1951
G01 X8.3059 Y23.1709
G01 X8.4272 Y23.1213
G01 X8.5366 Y23.0490
G01 X8.6297 Y22.9568
G01 X8.7033 Y22.8479
G01 X8.7539 Y22.7273
G01 X8.7801 Y22.5989
G01 X8.7808 Y22.4678
G01 X8.7559 Y22.3391
G01 X8.7031 Y22.2118
G01 X8.6691 Y22.1557
G01 X8.5902 Y22.0596
G01 X8.4837 Y21.9721
G01 X8.4272 Y21.9387
G01 X8.3123 Y21.8911
G01 X8.2421 Y21.8735
G01 X8.1150 Y21.8613
G01 X7.5616 Y21.8613
G01 X7.4961 Y21.8649
G01 X7.3741 Y21.8891
G01 X7.2468 Y21.9419
G01 X7.1382 Y22.0153
G01 X7.0503 Y22.1032
G01 X7.0109 Y22.1557
G01 X6.9482 Y22.2716
G01 X6.9085 Y22.4029
G01 X6.8992 Y22.4678
G01 X6.8992 Y22.5922
G01 X6.9261 Y22.7273
G01 X6.9769 Y22.8482
G00 Z2.0000
G00 X6.8825 Y20.9047
G01 F50.00
G01 Z-0.0700
G01 F100.00
G01 X6.9687 Y21.0307
G01 X7.0779 Y21.1374
G01 X7.2057 Y21.2207
G01 X7.3474 Y21.2776
G01 X7.4800 Y21.3039
G01 X7.5562 Y21.3085
G01 X8.1150 Y21.3087
G01 X8.2583 Y21.2953
G01 X8.3494 Y21.2725
G01 X8.4897 Y21.2125
G01 X8.6157 Y21.1263
G01 X8.7224 Y21.0171
G01 X8.8057 Y20.8893
G01 X8.8626 Y20.7476
G01 X8.8906 Y20.5976
G01 X8.8889 Y20.4450
G01 X8.8575 Y20.2956
G01 X8.8309 Y20.2240
G01 X8.7672 Y20.1048
G01 X8.6593 Y19.9733
G01 X8.5402 Y19.8778
G01 X8.4743 Y19.8393
G01 X8.3494 Y19.7875
G01 X8.2583 Y19.7647
G01 X8.1150 Y19.7513
G01 X7.5562 Y19.7515
G01 X7.4217 Y19.7647
G01 X7.3306 Y19.7875
G01 X7.2590 Y19.8141
G01 X7.1398 Y19.8778
G01 X7.0207 Y19.9733
G01 X6.9221 Y20.0908
G01 X6.8424 Y20.2402
G01 X6.8031 Y20.3695
G01 X6.7911 Y20.4450
G01 X6.7894 Y20.5976
G01 X6.8225 Y20.7644
G01 X6.8825 Y20.9047
G00 Z2.0000
G00 X6.9769 Y20.8482
G01 F50.00
G01 Z-0.0700
G01 F100.00
G01 X7.0503 Y20.9568
G01 X7.1434 Y21.0490
G01 X7.2528 Y21.1213
G01 X7.3122 Y21.1491
G01 X7.4312 Y21.1852
G01 X7.5650 Y21.1987
G01 X8.1150 Y21.1987
G01 X8.1839 Y21.1951
G01 X8.3059 Y21.1709
G01 X8.4272 Y21.1213
G01 X8.5366 Y21.0490
G01 X8.6297 Y20.9568
G01 X8.7033 Y20.8479
G01 X8.7539 Y20.7273
G01 X8.7801 Y20.5989
G01 X8.7808 Y20.4678
G01 X8.7559 Y20.3391
G01 X8.7031 Y20.2118
G01 X8.6691 Y20.1557
G01 X8.5902 Y20.0596
G01 X8.4837 Y19.9721
G01 X8.4272 Y19.9387
G01 X8.3123 Y19.8911
G01 X8.2421 Y19.8735
G01 X8.1150 Y19.8613
G01 X7.5616 Y19.8613
G01 X7.4961 Y19.8649
G01 X7.3741 Y19.8891
G01 X7.2468 Y19.9419
G01 X7.1382 Y20.0153
G01 X7.0503 Y20.1032
G01 X7.0109 Y20.1557
G01 X6.9482 Y20.2716
G01 X6.9085 Y20.4029
G01 X6.8992 Y20.4678
G01 X6.8992 Y20.5922
G01 X6.9261 Y20.7273
G01 X6.9769 Y20.8482
G00 Z2.0000
G00 X6.8029 Y18.9981
G01 F50.00
G01 Z-0.0700
G01 F100.00
G01 X6.8538 Y19.1108
G01 X6.9364 Y19.2057
G01 X7.0429 Y19.2726
G01 X7.1643 Y19.3056
G01 X8.4738 Y19.3085
G01 X8.5572 Y19.2986
G01 X8.6593 Y19.2621
G01 X8.7436 Y19.2057
G01 X8.8164 Y19.1254
G01 X8.8643 Y19.0359
G01 X8.8906 Y18.9307
G01 X8.8935 Y18.1712
G01 X8.8836 Y18.0878
G01 X8.8471 Y17.9857
G01 X8.7907 Y17.9014
G01 X8.7104 Y17.8286
G01 X8.6209 Y17.7807
G01 X8.5157 Y17.7544
G01 X7.2062 Y17.7515
G01 X7.1228 Y17.7614
G01 X7.0207 Y17.7979
G01 X6.9499 Y17.8432
G01 X6.8782 Y17.9149
G01 X6.8224 Y18.0079
G01 X6.7930 Y18.1050
G01 X6.7863 Y18.1800
G01 X6.7863 Y18.8800
G01 X6.8029 Y18.9981
G00 Z2.0000
G00 X6.9093 Y18.9701
G01 F50.00
G01 Z-0.0700
G01 F100.00
G01 X6.9482 Y19.0542
G01 X7.0102 Y19.1242
G01 X7.0899 Y19.1731
G01 X7.1804 Y19.1968
G01 X8.4650 Y19.1987
G01 X8.5305 Y19.1919
G01 X8.6122 Y19.1626
G01 X8.6698 Y19.1242
G01 X8.7281 Y19.0598
G01 X8.7607 Y18.9988
G01 X8.7818 Y18.9146
G01 X8.7837 Y18.1766
G01 X8.7769 Y18.1145
G01 X8.7476 Y18.0328
G01 X8.7092 Y17.9752
G01 X8.6392 Y17.9132
G01 X8.5607 Y17.8760
G01 X8.4929 Y17.8625
G01 X7.2150 Y17.8613
G01 X7.1495 Y17.8681
G01 X7.0678 Y17.8974
G01 X7.0102 Y17.9358
G01 X6.9519 Y18.0002
G01 X6.9193 Y18.0612
G01 X6.8982 Y18.1454
G01 X6.8963 Y18.8800
G01 X6.9093 Y18.9701
G00 Z2.0000
G00 X5.0019 Y20.8082
G01 F50.00
G01 Z-0.0700
G01 F100.00
G01 X5.0710 Y20.9116
G01 X5.1196 Y20.9652
G01 X5.2157 Y21.0441
G01 X5.2721 Y21.0783
G01 X5.3372 Y21.1091
G01 X5.4562 Y21.1452
G01 X5.5934 Y21.1587
G01 X5.7171 Y21.1465
G01 X5.7873 Y21.1289
G01 X5.8490 Y21.1065
G01 X5.9587 Y21.0479
G01 X6.0652 Y20.9604
G01 X6.1443 Y20.8640
G01 X6.1813 Y20.8022
G01 X6.2309 Y20.6809
G01 X6.2558 Y20.5522
G01 X6.2558 Y20.4278
G01 X6.2309 Y20.2991
G01 X6.2065 Y20.2310
G01 X6.1486 Y20.1225
G01 X5.7588 Y19.2864
G01 X5.7588 Y18.3499
G01 X6.8799 Y17.2288
G01 X12.4900 Y17.2288
G01 X12.5422 Y17.2205
G01 X12.6094 Y17.1794
G01 X13.5194 Y16.2694
G01 X13.5546 Y16.2177
G01 X13.5688 Y16.1500
G01 X13.5688 Y14.2145
G01 X14.1045 Y13.6788
G01 X18.6549 Y13.6781
G01 X18.7077 Y13.6646
G01 X18.7569 Y13.6317
G01 X19.4010 Y12.9877
G01 X19.4899 Y13.0418
G01 X19.6501 Y13.1081
G01 X19.7441 Y13.1317
G01 X19.9166 Y13.1487
G01 X20.0134 Y13.1439
G01 X20.1899 Y13.1081
G01 X20.3501 Y13.0418
G01 X20.4332 Y12.9920
G01 X20.5054 Y12.9380
G01 X20.6280 Y12.8154
G01 X20.7318 Y12.6601
G01 X20.7700 Y12.5784
G01 X20.8204 Y12.4125
G01 X20.8387 Y12.2334
G01 X20.8204 Y12.0475
G01 X20.7700 Y11.8816
G01 X20.7318 Y11.7999
G01 X20.6280 Y11.6446
G01 X20.4988 Y11.5167
G01 X20.4988 Y9.3750
G01 X20.4850 Y9.3337
G01 X20.4634 Y9.3149
G01 X20.4300 Y9.3062
G01 X19.4300 Y9.3062
G01 X19.3887 Y9.3200
G01 X19.3672 Y9.3471
G01 X19.3612 Y9.3750
G01 X19.3612 Y11.5018
G01 X19.2728 Y11.5780
G01 X19.2109 Y11.6459
G01 X19.1114 Y11.7940
G01 X19.0419 Y11.9601
G01 X19.0054 Y12.1433
G01 X19.0055 Y12.3184
G01 X19.0399 Y12.4934
G01 X19.1085 Y12.6606
G01 X19.1623 Y12.7490
G01 X18.5701 Y13.3412
G01 X14.0346 Y13.3412
G01 X13.9889 Y13.3476
G01 X13.9521 Y13.3628
G01 X13.9152 Y13.3906
G01 X13.2806 Y14.0252
G01 X13.2524 Y14.0628
G01 X13.2376 Y14.0989
G01 X13.2312 Y14.1446
G01 X13.2312 Y16.0801
G01 X12.4201 Y16.8912
G01 X6.8100 Y16.8912
G01 X6.7578 Y16.8995
G01 X6.7135 Y16.9216
G01 X5.4706 Y18.1606
G01 X5.4354 Y18.2123
G01 X5.4212 Y18.2800
G01 X5.4212 Y19.2864
G01 X5.0314 Y20.1226
G01 X4.9732 Y20.2316
G01 X4.9491 Y20.2991
G01 X4.9242 Y20.4278
G01 X4.9249 Y20.5589
G01 X4.9511 Y20.6873
G01 X5.0019 Y20.8082
G00 Z2.0000
G00 X4.9826 Y20.9771
G01 F50.00
G01 Z-0.0700
G01 F100.00
G01 X5.1029 Y21.0974
G01 X5.2153 Y21.1725
G01 X5.2856 Y21.2067
G01 X5.4467 Y21.2553
G01 X5.5224 Y21.2656
G01 X5.6576 Y21.2656
G01 X5.8244 Y21.2325
G01 X5.8960 Y21.2059
G01 X6.0152 Y21.1422
G01 X6.1467 Y21.0343
G01 X6.2325 Y20.9298
G01 X6.2728 Y20.8641
G01 X6.3325 Y20.7244
G01 X6.3553 Y20.6333
G01 X6.3685 Y20.4988
G01 X6.3553 Y20.3467
G01 X6.3059 Y20.1840
G01 X6.2468 Y20.0725
G01 X5.8688 Y19.2620
G01 X5.8688 Y18.3955
G01 X6.9255 Y17.3388
G01 X12.4900 Y17.3388
G01 X12.5793 Y17.3240
G01 X12.6600 Y17.2809
G01 X13.5971 Y16.3471
G01 X13.6540 Y16.2647
G01 X13.6715 Y16.2130
G01 X13.6788 Y16.1500
G01 X13.6788 Y14.2601
G01 X14.1501 Y13.7888
G01 X14.5316 Y13.7888
G01 X14.3616 Y13.8594
G01 X14.2613 Y13.9197
G01 X14.1189 Y14.0365
G01 X14.0476 Y14.1140
G01 X13.9370 Y14.2774
G01 X13.8864 Y14.3845
G01 X13.8329 Y14.5607
G01 X13.8156 Y14.6779
G01 X13.8156 Y14.8621
G01 X13.8295 Y14.9621
G01 X13.8532 Y15.0602
G01 X13.8870 Y15.1571
G01 X13.9294 Y15.2484
G01 X13.9897 Y15.3487
G01 X14.0505 Y15.4293
G01 X14.1712 Y15.5509
G01 X14.1712 Y16.8870
G01 X14.1374 Y16.9602
G01 X14.0981 Y17.0895
G01 X14.0844 Y17.1824
G01 X14.0844 Y17.3176
G01 X14.0981 Y17.4105
G01 X14.1441 Y17.5560
G01 X14.2070 Y17.6822
G01 X14.3033 Y17.7943
G01 X14.4348 Y17.9022
G01 X14.5556 Y17.9667
G01 X14.6424 Y17.9976
G01 X14.7750 Y18.0239
G01 X14.8688 Y18.0285
G01 X14.9450 Y18.0239
G01 X15.0776 Y17.9976
G01 X15.1660 Y17.9659
G01 X15.2852 Y17.9022
G01 X15.4167 Y17.7943
G01 X15.5025 Y17.6898
G01 X15.5428 Y17.6241
G01 X15.5826 Y17.5398
G01 X15.6219 Y17.4105
G01 X15.6385 Y17.2588
G01 X15.6253 Y17.1067
G01 X15.5826 Y16.9602
G01 X15.5288 Y16.8524
G01 X15.5288 Y15.5328
G01 X15.6324 Y15.4260
G01 X15.6903 Y15.3487
G01 X15.7430 Y15.2626
G01 X15.7936 Y15.1555
G01 X15.8471 Y14.9793
G01 X15.8627 Y14.8795
G01 X15.8685 Y14.7788
G01 X15.8627 Y14.6605
G01 X15.8268 Y14.4798
G01 X15.7930 Y14.3829
G01 X15.7430 Y14.2774
G01 X15.6406 Y14.1243
G01 X15.5611 Y14.0365
G01 X15.4187 Y13.9197
G01 X15.3171 Y13.8588
G01 X15.1484 Y13.7888
G01 X17.0716 Y13.7888
G01 X16.9016 Y13.8594
G01 X16.8013 Y13.9197
G01 X16.6589 Y14.0365
G01 X16.5876 Y14.1140
G01 X16.5199 Y14.2059
G01 X16.4331 Y14.3683
G01 X16.3932 Y14.4798
G01 X16.3573 Y14.6605
G01 X16.3515 Y14.7612
G01 X16.3573 Y14.8795
G01 X16.3932 Y15.0602
G01 X16.4270 Y15.1571
G01 X16.4694 Y15.2484
G01 X16.5297 Y15.3487
G01 X16.5905 Y15.4293
G01 X16.7112 Y15.5509
G01 X16.7112 Y16.8524
G01 X16.6574 Y16.9602
G01 X16.6147 Y17.1067
G01 X16.6015 Y17.2412
G01 X16.6147 Y17.3933
G01 X16.6641 Y17.5560
G01 X16.7278 Y17.6752
G01 X16.7837 Y17.7507
G01 X16.8793 Y17.8463
G01 X16.9408 Y17.8929
G01 X17.0902 Y17.9726
G01 X17.2195 Y18.0119
G01 X17.2950 Y18.0239
G01 X17.4650 Y18.0239
G01 X17.5976 Y17.9976
G01 X17.6860 Y17.9659
G01 X17.8052 Y17.9022
G01 X17.8671 Y17.8574
G01 X17.9367 Y17.7943
G01 X18.0463 Y17.6618
G01 X18.1225 Y17.4844
G01 X18.1556 Y17.3176
G01 X18.1556 Y17.1824
G01 X18.1419 Y17.0895
G01 X18.1026 Y16.9602
G01 X18.0688 Y16.8870
G01 X18.0688 Y15.5328
G01 X18.1724 Y15.4260
G01 X18.2303 Y15.3487
G01 X18.3269 Y15.1717
G01 X18.3617 Y15.0770
G01 X18.3905 Y14.9621
G01 X18.4085 Y14.7612
G01 X18.3900 Y14.5751
G01 X18.3617 Y14.4630
G01 X18.2906 Y14.2916
G01 X18.2303 Y14.1913
G01 X18.1135 Y14.0489
G01 X18.0257 Y13.9694
G01 X17.8726 Y13.8670
G01 X17.6884 Y13.7888
G01 X18.6400 Y13.7888
G01 X18.7293 Y13.7740
G01 X18.7875 Y13.7465
G01 X18.8308 Y13.7132
G01 X19.4174 Y13.1269
G01 X19.5345 Y13.1836
G01 X19.7279 Y13.2405
G01 X19.9288 Y13.2585
G01 X20.0165 Y13.2542
G01 X20.1293 Y13.2371
G01 X20.3217 Y13.1769
G01 X20.4987 Y13.0803
G01 X20.6535 Y12.9511
G01 X20.7124 Y12.8860
G01 X20.7801 Y12.7941
G01 X20.8669 Y12.6317
G01 X20.9068 Y12.5202
G01 X20.9444 Y12.3221
G01 X20.9444 Y12.1379
G01 X20.9300 Y12.0351
G01 X20.9068 Y11.9398
G01 X20.8730 Y11.8429
G01 X20.8306 Y11.7516
G01 X20.7206 Y11.5843
G01 X20.6088 Y11.4672
G01 X20.6088 Y9.3750
G01 X20.5998 Y9.3190
G01 X20.5730 Y9.2678
G01 X20.5168 Y9.2187
G01 X20.4688 Y9.2005
G01 X20.4300 Y9.1962
G01 X19.4124 Y9.1971
G01 X19.3432 Y9.2187
G01 X19.2870 Y9.2678
G01 X19.2602 Y9.3190
G01 X19.2512 Y9.3750
G01 X19.2512 Y11.4491
G01 X19.1194 Y11.5843
G01 X19.0088 Y11.7529
G01 X18.9332 Y11.9398
G01 X18.8956 Y12.1379
G01 X18.8956 Y12.3221
G01 X18.9129 Y12.4393
G01 X18.9670 Y12.6171
G01 X19.0231 Y12.7326
G01 X18.5245 Y13.2312
G01 X17.6127 Y13.2312
G01 X17.7817 Y13.1769
G01 X17.9441 Y13.0901
G01 X18.0393 Y13.0195
G01 X18.1695 Y12.8893
G01 X18.2401 Y12.7941
G01 X18.3269 Y12.6317
G01 X18.3668 Y12.5202
G01 X18.4027 Y12.3395
G01 X18.4085 Y12.2388
G01 X18.4027 Y12.1205
G01 X18.3668 Y11.9398
G01 X18.3330 Y11.8429
G01 X18.2906 Y11.7516
G01 X18.2303 Y11.6513
G01 X18.1695 Y11.5707
G01 X18.0688 Y11.4672
G01 X18.0688 Y10.0630
G01 X18.1225 Y9.9344
G01 X18.1453 Y9.8433
G01 X18.1585 Y9.7088
G01 X18.1453 Y9.5567
G01 X18.1026 Y9.4102
G01 X18.0257 Y9.2587
G01 X17.9367 Y9.1557
G01 X17.8671 Y9.0926
G01 X17.7547 Y9.0175
G01 X17.6844 Y8.9833
G01 X17.5976 Y8.9524
G01 X17.4650 Y8.9261
G01 X17.2950 Y8.9261
G01 X17.2195 Y8.9381
G01 X17.0902 Y8.9774
G01 X16.9402 Y9.0575
G01 X16.8233 Y9.1557
G01 X16.7278 Y9.2748
G01 X16.6574 Y9.4102
G01 X16.6147 Y9.5567
G01 X16.6015 Y9.6912
G01 X16.6147 Y9.8433
G01 X16.6574 Y9.9898
G01 X16.7112 Y10.0976
G01 X16.7112 Y11.4491
G01 X16.5905 Y11.5707
G01 X16.5297 Y11.6513
G01 X16.4770 Y11.7374
G01 X16.4264 Y11.8445
G01 X16.3729 Y12.0207
G01 X16.3573 Y12.1205
G01 X16.3556 Y12.3221
G01 X16.3729 Y12.4393
G01 X16.4270 Y12.6171
G01 X16.5199 Y12.7941
G01 X16.5905 Y12.8893
G01 X16.7207 Y13.0195
G01 X16.8159 Y13.0901
G01 X16.9783 Y13.1769
G01 X17.1473 Y13.2312
G01 X15.0727 Y13.2312
G01 X15.2417 Y13.1769
G01 X15.4041 Y13.0901
G01 X15.4993 Y13.0195
G01 X15.6324 Y12.8860
G01 X15.7430 Y12.7226
G01 X15.7936 Y12.6155
G01 X15.8471 Y12.4393
G01 X15.8644 Y12.3221
G01 X15.8644 Y12.1379
G01 X15.8505 Y12.0379
G01 X15.8268 Y11.9398
G01 X15.7930 Y11.8429
G01 X15.7506 Y11.7516
G01 X15.6903 Y11.6513
G01 X15.6295 Y11.5707
G01 X15.5288 Y11.4672
G01 X15.5288 Y9.3750
G01 X15.5245 Y9.3362
G01 X15.5063 Y9.2882
G01 X15.4573 Y9.2320
G01 X15.4226 Y9.2117
G01 X15.3676 Y9.1971
G01 X15.0965 Y9.1962
G01 X14.1474 Y8.2509
G01 X14.0798 Y8.2007
G01 X13.9779 Y8.1462
G01 X13.8986 Y8.1179
G01 X13.7853 Y8.0953
G01 X9.0612 Y8.0912
G01 X8.9462 Y8.1025
G01 X8.8646 Y8.1230
G01 X8.7564 Y8.1679
G01 X8.6462 Y8.2397
G01 X5.3099 Y11.5699
G01 X5.2597 Y11.6262
G01 X5.1955 Y11.7223
G01 X5.1379 Y11.8614
G01 X5.1153 Y11.9747
G01 X5.1112 Y12.0412
G01 X5.1110 Y14.7895
G01 X5.0733 Y14.8656
G01 X5.0408 Y14.9589
G01 X4.1587 Y15.8410
G01 X3.2296 Y15.8410
G01 X3.1647 Y15.7962
G01 X3.1109 Y15.7707
G01 X3.0300 Y15.7480
G01 X2.9550 Y15.7413
G01 X1.6962 Y15.7415
G01 X1.6128 Y15.7514
G01 X1.5107 Y15.7879
G01 X1.4399 Y15.8332
G01 X1.3682 Y15.9049
G01 X1.3124 Y15.9979
G01 X1.2830 Y16.0950
G01 X1.2763 Y16.1700
G01 X1.2763 Y16.8700
G01 X1.2864 Y16.9622
G01 X1.3312 Y17.0797
G01 X1.3682 Y17.1351
G01 X1.4264 Y17.1957
G01 X1.5329 Y17.2626
G01 X1.6543 Y17.2956
G01 X2.9883 Y17.2973
G01 X3.1109 Y17.2693
G01 X3.1647 Y17.2438
G01 X3.2296 Y17.1990
G01 X3.5510 Y17.1990
G01 X3.5510 Y21.1950
G01 X3.5660 Y21.3360
G01 X3.6062 Y21.4629
G01 X3.6705 Y21.5794
G01 X3.7499 Y21.6751
G01 X6.8158 Y24.7411
G01 X6.8491 Y24.8360
G01 X6.9225 Y24.9698
G01 X7.0207 Y25.0867
G01 X7.1258 Y25.1729
G01 X7.2057 Y25.2207
G01 X7.3306 Y25.2725
G01 X7.4217 Y25.2953
G01 X7.5562 Y25.3085
G01 X8.2000 Y25.3039
G01 X8.3494 Y25.2725
G01 X8.4955 Y25.2090
G01 X11.3099 Y25.2090
G01 X11.4340 Y25.2759
G01 X11.5224 Y25.3076
G01 X11.6550 Y25.3339
G01 X11.7488 Y25.3385
G01 X11.8833 Y25.3253
G01 X11.9744 Y25.3025
G01 X12.0460 Y25.2759
G01 X12.1652 Y25.2122
G01 X12.2967 Y25.1043
G01 X12.3829 Y24.9992
G01 X12.4307 Y24.9193
G01 X12.4626 Y24.8498
G01 X12.5019 Y24.7205
G01 X12.5185 Y24.5512
G01 X12.5019 Y24.3995
G01 X12.4626 Y24.2702
G01 X12.4307 Y24.2007
G01 X12.3363 Y24.0593
G01 X12.2271 Y23.9526
G01 X12.0993 Y23.8693
G01 X12.0298 Y23.8374
G01 X11.9005 Y23.7981
G01 X11.8076 Y23.7844
G01 X11.6550 Y23.7861
G01 X11.5224 Y23.8124
G01 X11.4193 Y23.8510
G01 X8.4955 Y23.8510
G01 X8.3494 Y23.7875
G01 X8.2000 Y23.7561
G01 X7.7465 Y23.7513
G01 X7.2252 Y23.2299
G01 X7.3474 Y23.2776
G01 X7.4974 Y23.3056
G01 X8.1826 Y23.3056
G01 X8.2755 Y23.2919
G01 X8.4210 Y23.2459
G01 X8.5402 Y23.1822
G01 X8.6157 Y23.1263
G01 X8.7224 Y23.0171
G01 X8.8057 Y22.8893
G01 X8.8376 Y22.8198
G01 X8.8769 Y22.6905
G01 X8.8935 Y22.5388
G01 X8.8803 Y22.3867
G01 X8.8376 Y22.2402
G01 X8.7672 Y22.1048
G01 X8.6717 Y21.9857
G01 X8.6021 Y21.9226
G01 X8.4743 Y21.8393
G01 X8.3494 Y21.7875
G01 X8.2000 Y21.7561
G01 X7.4974 Y21.7544
G01 X7.3474 Y21.7824
G01 X7.2057 Y21.8393
G01 X7.0779 Y21.9226
G01 X6.9687 Y22.0293
G01 X6.8822 Y22.1559
G01 X6.8225 Y22.2956
G01 X6.7911 Y22.4450
G01 X6.7894 Y22.5976
G01 X6.8174 Y22.7476
G01 X6.8651 Y22.8698
G01 X4.9090 Y20.9137
G01 X4.9090 Y20.8672
G01 X4.9826 Y20.9771
G00 Z2.0000
G00 X8.0436 Y13.8484
G01 F50.00
G01 Z-0.0700
G01 F100.00
G01 X8.0815 Y13.9993
G01 X8.1444 Y14.1746
G01 X8.2182 Y14.3287
G01 X8.3068 Y14.4748
G01 X8.4093 Y14.6116
G01 X8.5248 Y14.7377
G01 X8.6520 Y14.8518
G01 X8.7897 Y14.9529
G01 X8.9368 Y15.0400
G01 X9.0916 Y15.1123
G01 X9.2529 Y15.1691
G01 X9.4188 Y15.2098
G01 X9.5880 Y15.2340
G01 X9.7588 Y15.2415
G01 X9.9164 Y15.2337
G01 X10.0984 Y15.2064
G01 X10.2493 Y15.1685
G01 X10.4246 Y15.1056
G01 X10.5787 Y15.0318
G01 X10.7248 Y14.9432
G01 X10.8616 Y14.8407
G01 X10.9877 Y14.7252
G01 X11.1018 Y14.5980
G01 X11.2029 Y14.4603
G01 X11.2900 Y14.3132
G01 X11.3623 Y14.1584
G01 X11.4191 Y13.9971
G01 X11.4598 Y13.8312
G01 X11.4840 Y13.6620
G01 X11.4915 Y13.4912
G01 X11.4837 Y13.3336
G01 X11.4564 Y13.1516
G01 X11.4185 Y13.0007
G01 X11.3556 Y12.8254
G01 X11.2818 Y12.6713
G01 X11.1932 Y12.5252
G01 X11.0907 Y12.3884
G01 X10.9752 Y12.2623
G01 X10.8480 Y12.1482
G01 X10.7103 Y12.0471
G01 X10.5632 Y11.9600
G01 X10.4084 Y11.8877
G01 X10.2471 Y11.8309
G01 X10.0812 Y11.7902
G01 X9.9120 Y11.7660
G01 X9.7412 Y11.7585
G01 X9.5836 Y11.7663
G01 X9.4016 Y11.7936
G01 X9.2507 Y11.8315
G01 X9.0754 Y11.8944
G01 X8.9213 Y11.9682
G01 X8.7752 Y12.0568
G01 X8.6384 Y12.1593
G01 X8.5123 Y12.2748
G01 X8.3982 Y12.4020
G01 X8.2971 Y12.5397
G01 X8.2100 Y12.6868
G01 X8.1377 Y12.8416
G01 X8.0809 Y13.0029
G01 X8.0402 Y13.1688
G01 X8.0160 Y13.3380
G01 X8.0085 Y13.5088
G01 X8.0163 Y13.6664
G01 X8.0436 Y13.8484
G00 Z2.0000
G00 X8.1503 Y13.8216
G01 F50.00
G01 Z-0.0700
G01 F100.00
G01 X8.1878 Y13.9712
G01 X8.2438 Y14.1275
G01 X8.3097 Y14.2667
G01 X8.3952 Y14.4093
G01 X8.4908 Y14.5377
G01 X8.5986 Y14.6561
G01 X8.7125 Y14.7594
G01 X8.8463 Y14.8586
G01 X8.9838 Y14.9406
G01 X9.1287 Y15.0088
G01 X9.2796 Y15.0624
G01 X9.4350 Y15.1010
G01 X9.5934 Y15.1241
G01 X9.7534 Y15.1317
G01 X9.9083 Y15.1240
G01 X10.0716 Y15.0997
G01 X10.2212 Y15.0622
G01 X10.3775 Y15.0062
G01 X10.5167 Y14.9403
G01 X10.6593 Y14.8548
G01 X10.7877 Y14.7592
G01 X10.9061 Y14.6514
G01 X11.0094 Y14.5375
G01 X11.1086 Y14.4037
G01 X11.1906 Y14.2662
G01 X11.2588 Y14.1213
G01 X11.3124 Y13.9704
G01 X11.3510 Y13.8150
G01 X11.3741 Y13.6566
G01 X11.3817 Y13.4966
G01 X11.3740 Y13.3417
G01 X11.3497 Y13.1784
G01 X11.3122 Y13.0288
G01 X11.2562 Y12.8725
G01 X11.1903 Y12.7333
G01 X11.1048 Y12.5907
G01 X11.0092 Y12.4623
G01 X10.9014 Y12.3439
G01 X10.7875 Y12.2406
G01 X10.6537 Y12.1414
G01 X10.5162 Y12.0594
G01 X10.3713 Y11.9912
G01 X10.2204 Y11.9376
G01 X10.0650 Y11.8990
G01 X9.9066 Y11.8759
G01 X9.7466 Y11.8683
G01 X9.5917 Y11.8760
G01 X9.4284 Y11.9003
G01 X9.2788 Y11.9378
G01 X9.1225 Y11.9938
G01 X8.9833 Y12.0597
G01 X8.8407 Y12.1452
G01 X8.7123 Y12.2408
G01 X8.5939 Y12.3486
G01 X8.4906 Y12.4625
G01 X8.3914 Y12.5963
G01 X8.3094 Y12.7338
G01 X8.2412 Y12.8787
G01 X8.1876 Y13.0296
G01 X8.1490 Y13.1850
G01 X8.1259 Y13.3434
G01 X8.1183 Y13.5034
G01 X8.1260 Y13.6583
G01 X8.1503 Y13.8216
G00 Z2.0000
G00 X14.0160 Y13.2319
G01 F50.00
G01 Z-0.0700
G01 F100.00
G01 X13.9199 Y13.2560
G01 X13.8438 Y13.3068
G01 X13.2029 Y13.9475
G01 X13.1460 Y14.0299
G01 X13.1285 Y14.0816
G01 X13.1212 Y14.1446
G01 X13.1212 Y16.0345
G01 X12.3745 Y16.7812
G01 X6.8100 Y16.7812
G01 X6.7470 Y16.7885
G01 X6.6953 Y16.8060
G01 X6.6129 Y16.8629
G01 X5.3929 Y18.0829
G01 X5.3473 Y18.1428
G01 X5.3209 Y18.2075
G01 X5.3114 Y18.2712
G01 X5.3112 Y19.2620
G01 X4.9090 Y20.1128
G01 X4.9090 Y17.0113
G01 X6.0011 Y15.9192
G01 X6.0798 Y15.8926
G01 X6.1647 Y15.8525
G01 X6.2771 Y15.7774
G01 X6.3467 Y15.7143
G01 X6.4325 Y15.6098
G01 X6.4728 Y15.5441
G01 X6.5126 Y15.4598
G01 X6.5519 Y15.3305
G01 X6.5685 Y15.1788
G01 X6.5553 Y15.0267
G01 X6.5126 Y14.8802
G01 X6.4690 Y14.7895
G01 X6.4690 Y12.3313
G01 X9.3513 Y9.4490
G01 X13.4287 Y9.4490
G01 X14.1710 Y10.1913
G01 X14.1712 Y11.4491
G01 X14.0505 Y11.5707
G01 X13.9897 Y11.6513
G01 X13.9370 Y11.7374
G01 X13.8864 Y11.8445
G01 X13.8329 Y12.0207
G01 X13.8173 Y12.1205
G01 X13.8115 Y12.2212
G01 X13.8173 Y12.3395
G01 X13.8532 Y12.5202
G01 X13.8931 Y12.6317
G01 X13.9799 Y12.7941
G01 X14.0505 Y12.8893
G01 X14.1807 Y13.0195
G01 X14.2759 Y13.0901
G01 X14.4383 Y13.1769
G01 X14.6073 Y13.2312
G01 X14.0160 Y13.2319
G00 Z2.0000
G00 X13.9385 Y14.9470
G01 F50.00
G01 Z-0.0700
G01 F100.00
G01 X13.9902 Y15.1191
G01 X14.0743 Y15.2776
G01 X14.1880 Y15.4172
G01 X14.2812 Y15.4982
G01 X14.2812 Y16.9162
G01 X14.2191 Y17.0591
G01 X14.1949 Y17.1811
G01 X14.1913 Y17.2466
G01 X14.2035 Y17.3771
G01 X14.2409 Y17.5028
G01 X14.2950 Y17.6163
G01 X14.3848 Y17.7204
G01 X14.4860 Y17.8043
G01 X14.6016 Y17.8668
G01 X14.7262 Y17.9052
G01 X14.8566 Y17.9187
G01 X14.9871 Y17.9065
G01 X15.1128 Y17.8691
G01 X15.2343 Y17.8041
G01 X15.3304 Y17.7252
G01 X15.3747 Y17.6768
G01 X15.4513 Y17.5622
G01 X15.4989 Y17.4473
G01 X15.5165 Y17.3771
G01 X15.5287 Y17.2534
G01 X15.5165 Y17.1229
G01 X15.4791 Y16.9972
G01 X15.4188 Y16.8828
G01 X15.4188 Y15.4833
G01 X15.4920 Y15.4172
G01 X15.6020 Y15.2832
G01 X15.6518 Y15.2001
G01 X15.7201 Y15.0334
G01 X15.7546 Y14.8567
G01 X15.7546 Y14.6833
G01 X15.7404 Y14.5875
G01 X15.6898 Y14.4209
G01 X15.6057 Y14.2624
G01 X15.4920 Y14.1228
G01 X15.4202 Y14.0577
G01 X15.2701 Y13.9582
G01 X15.1034 Y13.8899
G01 X14.9267 Y13.8554
G01 X14.7516 Y13.8555
G01 X14.5766 Y13.8899
G01 X14.4853 Y13.9226
G01 X14.3268 Y14.0080
G01 X14.1880 Y14.1228
G01 X14.0743 Y14.2624
G01 X13.9900 Y14.4216
G01 X13.9383 Y14.5941
G01 X13.9213 Y14.7734
G01 X13.9385 Y14.9470
G00 Z2.0000
G00 X16.4785 Y14.9470
G01 F50.00
G01 Z-0.0700
G01 F100.00
G01 X16.5302 Y15.1191
G01 X16.6143 Y15.2776
G01 X16.7280 Y15.4172
G01 X16.8212 Y15.4982
G01 X16.8212 Y16.8820
G01 X16.7635 Y16.9910
G01 X16.7391 Y17.0591
G01 X16.7149 Y17.1811
G01 X16.7113 Y17.2466
G01 X16.7235 Y17.3771
G01 X16.7609 Y17.5028
G01 X16.8221 Y17.6187
G01 X16.9048 Y17.7204
G01 X17.0060 Y17.8043
G01 X17.1216 Y17.8668
G01 X17.2462 Y17.9052
G01 X17.3766 Y17.9187
G01 X17.5071 Y17.9065
G01 X17.6328 Y17.8691
G01 X17.6982 Y17.8381
G01 X17.8016 Y17.7690
G01 X17.8552 Y17.7204
G01 X17.9422 Y17.6197
G01 X17.9991 Y17.5028
G01 X18.0365 Y17.3771
G01 X18.0487 Y17.2534
G01 X18.0365 Y17.1229
G01 X17.9991 Y16.9972
G01 X17.9588 Y16.9162
G01 X17.9588 Y15.4833
G01 X18.0320 Y15.4172
G01 X18.1420 Y15.2832
G01 X18.1918 Y15.2001
G01 X18.2601 Y15.0334
G01 X18.2946 Y14.8567
G01 X18.2946 Y14.6833
G01 X18.2804 Y14.5875
G01 X18.2298 Y14.4209
G01 X18.1457 Y14.2624
G01 X18.0320 Y14.1228
G01 X17.9602 Y14.0577
G01 X17.8101 Y13.9582
G01 X17.6434 Y13.8899
G01 X17.4667 Y13.8554
G01 X17.2916 Y13.8555
G01 X17.1166 Y13.8899
G01 X17.0253 Y13.9226
G01 X16.8668 Y14.0080
G01 X16.7280 Y14.1228
G01 X16.6143 Y14.2624
G01 X16.5300 Y14.4216
G01 X16.4783 Y14.5941
G01 X16.4613 Y14.7734
G01 X16.4785 Y14.9470
G00 Z2.0000
G00 X18.9100 Y14.9649
G01 F50.00
G01 Z-0.0700
G01 F100.00
G01 X18.9664 Y15.1555
G01 X19.0170 Y15.2626
G01 X19.1194 Y15.4157
G01 X19.2512 Y15.5509
G01 X19.2512 Y16.8870
G01 X19.1924 Y17.0324
G01 X19.1661 Y17.1650
G01 X19.1615 Y17.2412
G01 X19.1747 Y17.3933
G01 X19.2241 Y17.5560
G01 X19.2870 Y17.6822
G01 X19.3957 Y17.8067
G01 X19.5148 Y17.9022
G01 X19.6502 Y17.9726
G01 X19.7967 Y18.0153
G01 X19.9488 Y18.0285
G01 X20.1005 Y18.0119
G01 X20.2460 Y17.9659
G01 X20.3652 Y17.9022
G01 X20.4271 Y17.8574
G01 X20.5474 Y17.7371
G01 X20.6225 Y17.6247
G01 X20.6567 Y17.5544
G01 X20.7053 Y17.3933
G01 X20.7185 Y17.2588
G01 X20.7053 Y17.1067
G01 X20.6626 Y16.9602
G01 X20.6088 Y16.8524
G01 X20.6088 Y15.5328
G01 X20.7206 Y15.4157
G01 X20.8230 Y15.2626
G01 X20.8736 Y15.1555
G01 X20.9271 Y14.9793
G01 X20.9444 Y14.8621
G01 X20.9442 Y14.6735
G01 X20.9068 Y14.4798
G01 X20.8669 Y14.3683
G01 X20.7801 Y14.2059
G01 X20.6535 Y14.0489
G01 X20.5760 Y13.9776
G01 X20.4987 Y13.9197
G01 X20.3217 Y13.8231
G01 X20.1293 Y13.7629
G01 X20.0121 Y13.7456
G01 X19.8235 Y13.7458
G01 X19.7251 Y13.7600
G01 X19.6130 Y13.7883
G01 X19.4416 Y13.8594
G01 X19.2743 Y13.9694
G01 X19.1989 Y14.0365
G01 X19.1276 Y14.1140
G01 X19.0170 Y14.2774
G01 X18.9664 Y14.3845
G01 X18.9095 Y14.5779
G01 X18.8915 Y14.7788
G01 X18.9100 Y14.9649
G00 Z2.0000
G00 X19.0185 Y14.9470
G01 F50.00
G01 Z-0.0700
G01 F100.00
G01 X19.0702 Y15.1191
G01 X19.1543 Y15.2776
G01 X19.2680 Y15.4172
G01 X19.3612 Y15.4982
G01 X19.3612 Y16.9162
G01 X19.2991 Y17.0591
G01 X19.2749 Y17.1811
G01 X19.2713 Y17.2466
G01 X19.2835 Y17.3771
G01 X19.3209 Y17.5028
G01 X19.3750 Y17.6163
G01 X19.4648 Y17.7204
G01 X19.5660 Y17.8043
G01 X19.6816 Y17.8668
G01 X19.8062 Y17.9052
G01 X19.9366 Y17.9187
G01 X20.0671 Y17.9065
G01 X20.1928 Y17.8691
G01 X20.3143 Y17.8041
G01 X20.4104 Y17.7252
G01 X20.4547 Y17.6768
G01 X20.5313 Y17.5622
G01 X20.5789 Y17.4473
G01 X20.5965 Y17.3771
G01 X20.6087 Y17.2534
G01 X20.5965 Y17.1229
G01 X20.5591 Y16.9972
G01 X20.4988 Y16.8828
G01 X20.4988 Y15.4833
G01 X20.5720 Y15.4172
G01 X20.6820 Y15.2832
G01 X20.7318 Y15.2001
G01 X20.8001 Y15.0334
G01 X20.8346 Y14.8567
G01 X20.8346 Y14.6833
G01 X20.8204 Y14.5875
G01 X20.7698 Y14.4209
G01 X20.6857 Y14.2624
G01 X20.5720 Y14.1228
G01 X20.5002 Y14.0577
G01 X20.3501 Y13.9582
G01 X20.1834 Y13.8899
G01 X20.0067 Y13.8554
G01 X19.8316 Y13.8555
G01 X19.6566 Y13.8899
G01 X19.5653 Y13.9226
G01 X19.4068 Y14.0080
G01 X19.2680 Y14.1228
G01 X19.1543 Y14.2624
G01 X19.0700 Y14.4216
G01 X19.0183 Y14.5941
G01 X19.0013 Y14.7734
G01 X19.0185 Y14.9470
G00 Z2.0000
G00 X21.4500 Y12.4249
G01 F50.00
G01 Z-0.0700
G01 F100.00
G01 X21.4783 Y12.5370
G01 X21.5494 Y12.7084
G01 X21.6594 Y12.8757
G01 X21.7389 Y12.9635
G01 X21.8813 Y13.0803
G01 X21.9829 Y13.1412
G01 X22.1530 Y13.2117
G01 X22.3505 Y13.2527
G01 X22.4688 Y13.2585
G01 X22.6549 Y13.2400
G01 X22.7670 Y13.2117
G01 X22.9384 Y13.1406
G01 X23.1057 Y13.0306
G01 X23.1935 Y12.9511
G01 X23.3103 Y12.8087
G01 X23.3712 Y12.7071
G01 X23.4417 Y12.5370
G01 X23.4705 Y12.4221
G01 X23.4885 Y12.2388
G01 X23.4842 Y12.1335
G01 X23.4468 Y11.9398
G01 X23.4130 Y11.8429
G01 X23.3706 Y11.7516
G01 X23.2606 Y11.5843
G01 X23.1488 Y11.4672
G01 X23.1488 Y9.3750
G01 X23.1398 Y9.3190
G01 X23.1130 Y9.2677
G01 X23.0773 Y9.2320
G01 X23.0426 Y9.2117
G01 X22.9700 Y9.1962
G01 X21.9524 Y9.1971
G01 X21.8974 Y9.2117
G01 X21.8627 Y9.2320
G01 X21.8270 Y9.2677
G01 X21.8067 Y9.3024
G01 X21.7912 Y9.3750
G01 X21.7912 Y11.4491
G01 X21.6705 Y11.5707
G01 X21.5999 Y11.6659
G01 X21.5131 Y11.8283
G01 X21.4783 Y11.9230
G01 X21.4495 Y12.0379
G01 X21.4356 Y12.1379
G01 X21.4356 Y12.3221
G01 X21.4500 Y12.4249
G00 Z2.0000
G00 X21.5454 Y12.3167
G01 F50.00
G01 Z-0.0700
G01 F100.00
G01 X21.5819 Y12.4999
G01 X21.6485 Y12.6606
G01 X21.7477 Y12.8102
G01 X21.8128 Y12.8820
G01 X21.9468 Y12.9920
G01 X22.0299 Y13.0418
G01 X22.1901 Y13.1081
G01 X22.3666 Y13.1439
G01 X22.4634 Y13.1487
G01 X22.6370 Y13.1315
G01 X22.8084 Y13.0800
G01 X22.8960 Y13.0386
G01 X23.0402 Y12.9423
G01 X23.1680 Y12.8154
G01 X23.2257 Y12.7376
G01 X23.3074 Y12.5847
G01 X23.3604 Y12.4125
G01 X23.3746 Y12.3167
G01 X23.3745 Y12.1416
G01 X23.3401 Y11.9666
G01 X23.3074 Y11.8753
G01 X23.2220 Y11.7168
G01 X23.1120 Y11.5828
G01 X23.0388 Y11.5167
G01 X23.0388 Y9.3750
G01 X23.0250 Y9.3337
G01 X22.9979 Y9.3122
G01 X22.9700 Y9.3062
G01 X21.9700 Y9.3062
G01 X21.9287 Y9.3200
G01 X21.9072 Y9.3471
G01 X21.9012 Y9.3750
G01 X21.9012 Y11.5018
G01 X21.8128 Y11.5780
G01 X21.7477 Y11.6498
G01 X21.6514 Y11.7940
G01 X21.6100 Y11.8816
G01 X21.5596 Y12.0475
G01 X21.5454 Y12.1433
G01 X21.5454 Y12.3167
G00 Z2.0000
G00 X16.4785 Y12.4070
G01 F50.00
G01 Z-0.0700
G01 F100.00
G01 X16.5300 Y12.5784
G01 X16.5714 Y12.6660
G01 X16.6677 Y12.8102
G01 X16.7946 Y12.9380
G01 X16.8724 Y12.9957
G01 X17.0253 Y13.0774
G01 X17.1975 Y13.1304
G01 X17.2933 Y13.1446
G01 X17.4667 Y13.1446
G01 X17.5625 Y13.1304
G01 X17.7291 Y13.0798
G01 X17.8876 Y12.9957
G01 X18.0272 Y12.8820
G01 X18.0923 Y12.8102
G01 X18.1918 Y12.6601
G01 X18.2581 Y12.4999
G01 X18.2817 Y12.4059
G01 X18.2987 Y12.2334
G01 X18.2939 Y12.1366
G01 X18.2581 Y11.9601
G01 X18.1918 Y11.7999
G01 X18.1420 Y11.7168
G01 X18.0320 Y11.5828
G01 X17.9588 Y11.5167
G01 X17.9588 Y10.0338
G01 X17.9991 Y9.9528
G01 X18.0365 Y9.8271
G01 X18.0487 Y9.7034
G01 X18.0365 Y9.5729
G01 X17.9991 Y9.4472
G01 X17.9528 Y9.3471
G01 X17.8947 Y9.2732
G01 X17.8068 Y9.1853
G01 X17.7540 Y9.1457
G01 X17.6922 Y9.1087
G01 X17.5773 Y9.0611
G01 X17.4489 Y9.0349
G01 X17.3178 Y9.0342
G01 X17.1891 Y9.0591
G01 X17.0678 Y9.1087
G01 X16.9584 Y9.1810
G01 X16.8653 Y9.2732
G01 X16.7917 Y9.3821
G01 X16.7411 Y9.5027
G01 X16.7142 Y9.6378
G01 X16.7149 Y9.7689
G01 X16.7411 Y9.8973
G01 X16.7635 Y9.9590
G01 X16.8212 Y10.0672
G01 X16.8212 Y11.5018
G01 X16.7328 Y11.5780
G01 X16.6677 Y11.6498
G01 X16.5714 Y11.7940
G01 X16.5300 Y11.8816
G01 X16.4796 Y12.0475
G01 X16.4654 Y12.1433
G01 X16.4654 Y12.3167
G01 X16.4785 Y12.4070
G00 Z2.0000
G00 X21.7274 Y17.5398
G01 F50.00
G01 Z-0.0700
G01 F100.00
G01 X21.8075 Y17.6898
G01 X21.8933 Y17.7943
G01 X22.0248 Y17.9022
G01 X22.0907 Y17.9407
G01 X22.2156 Y17.9925
G01 X22.3067 Y18.0153
G01 X22.4412 Y18.0285
G01 X22.6105 Y18.0119
G01 X22.7398 Y17.9726
G01 X22.8247 Y17.9325
G01 X22.8898 Y17.8925
G01 X22.9943 Y17.8067
G01 X23.1057 Y17.6913
G01 X23.1333 Y17.6476
G01 X23.2119 Y17.4105
G01 X23.2285 Y17.2588
G01 X23.2119 Y17.0895
G01 X23.1488 Y16.8953
G01 X23.1488 Y15.7988
G01 X23.3276 Y15.7979
G01 X23.3826 Y15.7833
G01 X23.4173 Y15.7630
G01 X23.4530 Y15.7273
G01 X23.4733 Y15.6926
G01 X23.4879 Y15.6376
G01 X23.4879 Y13.9024
G01 X23.4733 Y13.8474
G01 X23.4530 Y13.8127
G01 X23.4173 Y13.7770
G01 X23.3826 Y13.7567
G01 X23.3100 Y13.7412
G01 X21.6100 Y13.7412
G01 X21.5540 Y13.7502
G01 X21.5027 Y13.7770
G01 X21.4670 Y13.8127
G01 X21.4467 Y13.8474
G01 X21.4312 Y13.9200
G01 X21.4347 Y15.6551
G01 X21.4670 Y15.7273
G01 X21.5027 Y15.7630
G01 X21.5374 Y15.7833
G01 X21.5924 Y15.7979
G01 X21.7912 Y15.7988
G01 X21.7912 Y16.8357
G01 X21.7333 Y16.9456
G01 X21.7024 Y17.0324
G01 X21.6761 Y17.1650
G01 X21.6715 Y17.2412
G01 X21.6881 Y17.4105
G01 X21.7274 Y17.5398
G00 Z2.0000
G00 X21.8309 Y17.5028
G01 F50.00
G01 Z-0.0700
G01 F100.00
G01 X21.8959 Y17.6243
G01 X21.9748 Y17.7204
G01 X22.0813 Y17.8079
G01 X22.1378 Y17.8413
G01 X22.2527 Y17.8889
G01 X22.3229 Y17.9065
G01 X22.4466 Y17.9187
G01 X22.5838 Y17.9052
G01 X22.7028 Y17.8691
G01 X22.7682 Y17.8381
G01 X22.8768 Y17.7647
G01 X23.0328 Y17.6029
G01 X23.0388 Y17.5670
G01 X23.0691 Y17.5028
G01 X23.1052 Y17.3838
G01 X23.1187 Y17.2534
G01 X23.1052 Y17.1162
G01 X23.0388 Y16.9128
G01 X23.0388 Y15.6888
G01 X23.3235 Y15.6874
G01 X23.3622 Y15.6647
G01 X23.3784 Y15.6268
G01 X23.3788 Y13.9200
G01 X23.3650 Y13.8787
G01 X23.3379 Y13.8572
G01 X23.3100 Y13.8512
G01 X21.6100 Y13.8512
G01 X21.5687 Y13.8650
G01 X21.5472 Y13.8921
G01 X21.5412 Y13.9200
G01 X21.5426 Y15.6335
G01 X21.5614 Y15.6686
G01 X21.5965 Y15.6874
G01 X21.9012 Y15.6888
G01 X21.9012 Y16.8685
G01 X21.8587 Y16.9378
G01 X21.8111 Y17.0527
G01 X21.7935 Y17.1229
G01 X21.7813 Y17.2466
G01 X21.7948 Y17.3838
G01 X21.8309 Y17.5028
G00 Z2.0000
G00 X21.0519 Y22.1132
G01 F50.00
G01 Z-0.0700
G01 F100.00
G01 X21.0859 Y22.1693
G01 X21.1648 Y22.2654
G01 X21.2713 Y22.3529
G01 X21.3278 Y22.3863
G01 X21.4427 Y22.4339
G01 X21.5129 Y22.4515
G01 X21.6366 Y22.4637
G01 X21.7738 Y22.4502
G01 X21.8928 Y22.4141
G01 X21.9522 Y22.3863
G01 X22.0668 Y22.3097
G01 X22.1547 Y22.2218
G01 X22.1943 Y22.1690
G01 X22.2591 Y22.0478
G01 X22.2952 Y21.9288
G01 X22.3051 Y21.8639
G01 X22.3051 Y21.1761
G01 X22.2952 Y21.1112
G01 X22.2591 Y20.9922
G01 X22.1979 Y20.8763
G01 X22.1152 Y20.7746
G01 X22.0140 Y20.6907
G01 X21.8990 Y20.6285
G01 X21.7738 Y20.5898
G01 X21.6434 Y20.5763
G01 X21.5129 Y20.5885
G01 X21.3872 Y20.6259
G01 X21.2713 Y20.6871
G01 X21.1696 Y20.7698
G01 X21.0857 Y20.8710
G01 X21.0487 Y20.9328
G01 X21.0011 Y21.0477
G01 X20.9835 Y21.1179
G01 X20.9713 Y21.2416
G01 X20.9742 Y21.8572
G01 X21.0011 Y21.9923
G01 X21.0519 Y22.1132
G00 Z2.0000
G00 X20.9575 Y22.1697
G01 F50.00
G01 Z-0.0700
G01 F100.00
G01 X20.9975 Y22.2348
G01 X21.0833 Y22.3393
G01 X21.2148 Y22.4472
G01 X21.2807 Y22.4857
G01 X21.4056 Y22.5375
G01 X21.4967 Y22.5603
G01 X21.6312 Y22.5735
G01 X21.8005 Y22.5569
G01 X21.9298 Y22.5176
G01 X21.9993 Y22.4857
G01 X22.1407 Y22.3913
G01 X22.2363 Y22.2957
G01 X22.2829 Y22.2342
G01 X22.3626 Y22.0848
G01 X22.4019 Y21.9555
G01 X22.4139 Y21.8800
G01 X22.4139 Y21.1600
G01 X22.4019 Y21.0845
G01 X22.3626 Y20.9552
G01 X22.2922 Y20.8198
G01 X22.1967 Y20.7007
G01 X22.0792 Y20.6021
G01 X21.9460 Y20.5291
G01 X21.8005 Y20.4831
G01 X21.6488 Y20.4665
G01 X21.4967 Y20.4797
G01 X21.3502 Y20.5224
G01 X21.2148 Y20.5928
G01 X21.0957 Y20.6883
G01 X20.9971 Y20.8058
G01 X20.9493 Y20.8857
G01 X20.8975 Y21.0106
G01 X20.8747 Y21.1017
G01 X20.8615 Y21.2362
G01 X20.8661 Y21.8800
G01 X20.8975 Y22.0294
G01 X20.9575 Y22.1697
G00 Z2.0000
G00 X19.0519 Y22.1132
G01 F50.00
G01 Z-0.0700
G01 F100.00
G01 X19.0859 Y22.1693
G01 X19.1648 Y22.2654
G01 X19.2713 Y22.3529
G01 X19.3278 Y22.3863
G01 X19.4427 Y22.4339
G01 X19.5129 Y22.4515
G01 X19.6366 Y22.4637
G01 X19.7738 Y22.4502
G01 X19.8928 Y22.4141
G01 X19.9522 Y22.3863
G01 X20.0668 Y22.3097
G01 X20.1547 Y22.2218
G01 X20.1943 Y22.1690
G01 X20.2591 Y22.0478
G01 X20.2952 Y21.9288
G01 X20.3051 Y21.8639
G01 X20.3051 Y21.1761
G01 X20.2952 Y21.1112
G01 X20.2591 Y20.9922
G01 X20.1979 Y20.8763
G01 X20.1152 Y20.7746
G01 X20.0140 Y20.6907
G01 X19.8990 Y20.6285
G01 X19.7738 Y20.5898
G01 X19.6434 Y20.5763
G01 X19.5129 Y20.5885
G01 X19.3872 Y20.6259
G01 X19.2713 Y20.6871
G01 X19.1696 Y20.7698
G01 X19.0857 Y20.8710
G01 X19.0487 Y20.9328
G01 X19.0011 Y21.0477
G01 X18.9835 Y21.1179
G01 X18.9713 Y21.2416
G01 X18.9742 Y21.8572
G01 X19.0011 Y21.9923
G01 X19.0519 Y22.1132
G00 Z2.0000
G00 X18.9575 Y22.1697
G01 F50.00
G01 Z-0.0700
G01 F100.00
G01 X18.9975 Y22.2348
G01 X19.0833 Y22.3393
G01 X19.2148 Y22.4472
G01 X19.2807 Y22.4857
G01 X19.4056 Y22.5375
G01 X19.4967 Y22.5603
G01 X19.6312 Y22.5735
G01 X19.8005 Y22.5569
G01 X19.9298 Y22.5176
G01 X19.9993 Y22.4857
G01 X20.1407 Y22.3913
G01 X20.2363 Y22.2957
G01 X20.2829 Y22.2342
G01 X20.3626 Y22.0848
G01 X20.4019 Y21.9555
G01 X20.4139 Y21.8800
G01 X20.4139 Y21.1600
G01 X20.4019 Y21.0845
G01 X20.3626 Y20.9552
G01 X20.2922 Y20.8198
G01 X20.1967 Y20.7007
G01 X20.0792 Y20.6021
G01 X19.9460 Y20.5291
G01 X19.8005 Y20.4831
G01 X19.6488 Y20.4665
G01 X19.4967 Y20.4797
G01 X19.3502 Y20.5224
G01 X19.2148 Y20.5928
G01 X19.0957 Y20.6883
G01 X18.9971 Y20.8058
G01 X18.9493 Y20.8857
G01 X18.8975 Y21.0106
G01 X18.8747 Y21.1017
G01 X18.8615 Y21.2362
G01 X18.8661 Y21.8800
G01 X18.8975 Y22.0294
G01 X18.9575 Y22.1697
G00 Z2.0000
G00 X17.0519 Y22.1132
G01 F50.00
G01 Z-0.0700
G01 F100.00
G01 X17.0859 Y22.1693
G01 X17.1648 Y22.2654
G01 X17.2713 Y22.3529
G01 X17.3278 Y22.3863
G01 X17.4427 Y22.4339
G01 X17.5129 Y22.4515
G01 X17.6366 Y22.4637
G01 X17.7738 Y22.4502
G01 X17.8928 Y22.4141
G01 X17.9522 Y22.3863
G01 X18.0668 Y22.3097
G01 X18.1547 Y22.2218
G01 X18.1943 Y22.1690
G01 X18.2591 Y22.0478
G01 X18.2952 Y21.9288
G01 X18.3051 Y21.8639
G01 X18.3051 Y21.1761
G01 X18.2952 Y21.1112
G01 X18.2591 Y20.9922
G01 X18.1979 Y20.8763
G01 X18.1152 Y20.7746
G01 X18.0140 Y20.6907
G01 X17.8990 Y20.6285
G01 X17.7738 Y20.5898
G01 X17.6434 Y20.5763
G01 X17.5129 Y20.5885
G01 X17.3872 Y20.6259
G01 X17.2713 Y20.6871
G01 X17.1696 Y20.7698
G01 X17.0857 Y20.8710
G01 X17.0487 Y20.9328
G01 X17.0011 Y21.0477
G01 X16.9835 Y21.1179
G01 X16.9713 Y21.2416
G01 X16.9742 Y21.8572
G01 X17.0011 Y21.9923
G01 X17.0519 Y22.1132
G00 Z2.0000
G00 X16.9575 Y22.1697
G01 F50.00
G01 Z-0.0700
G01 F100.00
G01 X16.9975 Y22.2348
G01 X17.0833 Y22.3393
G01 X17.2148 Y22.4472
G01 X17.2807 Y22.4857
G01 X17.4056 Y22.5375
G01 X17.4967 Y22.5603
G01 X17.6312 Y22.5735
G01 X17.8005 Y22.5569
G01 X17.9298 Y22.5176
G01 X17.9993 Y22.4857
G01 X18.1407 Y22.3913
G01 X18.2363 Y22.2957
G01 X18.2829 Y22.2342
G01 X18.3626 Y22.0848
G01 X18.4019 Y21.9555
G01 X18.4139 Y21.8800
G01 X18.4139 Y21.1600
G01 X18.4019 Y21.0845
G01 X18.3626 Y20.9552
G01 X18.2922 Y20.8198
G01 X18.1967 Y20.7007
G01 X18.0792 Y20.6021
G01 X17.9460 Y20.5291
G01 X17.8005 Y20.4831
G01 X17.6488 Y20.4665
G01 X17.4967 Y20.4797
G01 X17.3502 Y20.5224
G01 X17.2148 Y20.5928
G01 X17.0957 Y20.6883
G01 X16.9971 Y20.8058
G01 X16.9493 Y20.8857
G01 X16.8975 Y21.0106
G01 X16.8747 Y21.1017
G01 X16.8615 Y21.2362
G01 X16.8661 Y21.8800
G01 X16.8975 Y22.0294
G01 X16.9575 Y22.1697
G00 Z2.0000
G00 X15.0519 Y22.1132
G01 F50.00
G01 Z-0.0700
G01 F100.00
G01 X15.0859 Y22.1693
G01 X15.1648 Y22.2654
G01 X15.2713 Y22.3529
G01 X15.3278 Y22.3863
G01 X15.4427 Y22.4339
G01 X15.5129 Y22.4515
G01 X15.6366 Y22.4637
G01 X15.7738 Y22.4502
G01 X15.8928 Y22.4141
G01 X15.9522 Y22.3863
G01 X16.0668 Y22.3097
G01 X16.1547 Y22.2218
G01 X16.1943 Y22.1690
G01 X16.2591 Y22.0478
G01 X16.2952 Y21.9288
G01 X16.3051 Y21.8639
G01 X16.3051 Y21.1761
G01 X16.2952 Y21.1112
G01 X16.2591 Y20.9922
G01 X16.1979 Y20.8763
G01 X16.1152 Y20.7746
G01 X16.0140 Y20.6907
G01 X15.8990 Y20.6285
G01 X15.7738 Y20.5898
G01 X15.6434 Y20.5763
G01 X15.5129 Y20.5885
G01 X15.3872 Y20.6259
G01 X15.2713 Y20.6871
G01 X15.1696 Y20.7698
G01 X15.0857 Y20.8710
G01 X15.0487 Y20.9328
G01 X15.0011 Y21.0477
G01 X14.9835 Y21.1179
G01 X14.9713 Y21.2416
G01 X14.9742 Y21.8572
G01 X15.0011 Y21.9923
G01 X15.0519 Y22.1132
G00 Z2.0000
G00 X14.9575 Y22.1697
G01 F50.00
G01 Z-0.0700
G01 F100.00
G01 X14.9975 Y22.2348
G01 X15.0833 Y22.3393
G01 X15.2148 Y22.4472
G01 X15.2807 Y22.4857
G01 X15.4056 Y22.5375
G01 X15.4967 Y22.5603
G01 X15.6312 Y22.5735
G01 X15.8005 Y22.5569
G01 X15.9298 Y22.5176
G01 X15.9993 Y22.4857
G01 X16.1407 Y22.3913
G01 X16.2363 Y22.2957
G01 X16.2829 Y22.2342
G01 X16.3626 Y22.0848
G01 X16.4019 Y21.9555
G01 X16.4139 Y21.8800
G01 X16.4139 Y21.1600
G01 X16.4019 Y21.0845
G01 X16.3626 Y20.9552
G01 X16.2922 Y20.8198
G01 X16.1967 Y20.7007
G01 X16.0792 Y20.6021
G01 X15.9460 Y20.5291
G01 X15.8005 Y20.4831
G01 X15.6488 Y20.4665
G01 X15.4967 Y20.4797
G01 X15.3502 Y20.5224
G01 X15.2148 Y20.5928
G01 X15.0957 Y20.6883
G01 X14.9971 Y20.8058
G01 X14.9493 Y20.8857
G01 X14.8975 Y21.0106
G01 X14.8747 Y21.1017
G01 X14.8615 Y21.2362
G01 X14.8661 Y21.8800
G01 X14.8975 Y22.0294
G01 X14.9575 Y22.1697
G00 Z2.0000
G00 X12.9843 Y22.2351
G01 F50.00
G01 Z-0.0700
G01 F100.00
G01 X13.0269 Y22.3248
G01 X13.0904 Y22.3935
G01 X13.1712 Y22.4407
G01 X13.2621 Y22.4625
G01 X14.0246 Y22.4618
G01 X14.0857 Y22.4490
G01 X14.1432 Y22.4244
G01 X14.1948 Y22.3892
G01 X14.2385 Y22.3446
G01 X14.2694 Y22.2982
G01 X14.2940 Y22.2407
G01 X14.3087 Y22.1484
G01 X14.3087 Y20.8916
G01 X14.3019 Y20.8295
G01 X14.2726 Y20.7478
G01 X14.2385 Y20.6954
G01 X14.1896 Y20.6465
G01 X14.1088 Y20.5993
G01 X14.0179 Y20.5775
G01 X13.2866 Y20.5763
G01 X13.2245 Y20.5831
G01 X13.1428 Y20.6124
G01 X13.0904 Y20.6465
G01 X13.0415 Y20.6954
G01 X13.0106 Y20.7418
G01 X12.9860 Y20.7993
G01 X12.9713 Y20.8916
G01 X12.9713 Y22.1450
G01 X12.9843 Y22.2351
G00 Z2.0000
G00 X12.8779 Y22.2631
G01 F50.00
G01 Z-0.0700
G01 F100.00
G01 X12.9288 Y22.3758
G01 X13.0114 Y22.4707
G01 X13.1179 Y22.5376
G01 X13.2393 Y22.5706
G01 X14.0407 Y22.5706
G01 X14.1228 Y22.5525
G01 X14.1997 Y22.5188
G01 X14.2686 Y22.4707
G01 X14.3268 Y22.4101
G01 X14.3893 Y22.3009
G01 X14.4173 Y22.1783
G01 X14.4185 Y20.8862
G01 X14.4086 Y20.8028
G01 X14.3721 Y20.7007
G01 X14.3268 Y20.6299
G01 X14.2551 Y20.5582
G01 X14.1459 Y20.4957
G01 X14.0233 Y20.4677
G01 X13.2567 Y20.4677
G01 X13.1719 Y20.4829
G01 X13.0957 Y20.5129
G01 X13.0249 Y20.5582
G01 X12.9532 Y20.6299
G01 X12.9162 Y20.6853
G01 X12.8825 Y20.7622
G01 X12.8615 Y20.8862
G01 X12.8613 Y22.1450
G01 X12.8779 Y22.2631
G00 Z2.0000
G00 X17.6431 Y27.8179
G01 F50.00
G01 Z-0.0700
G01 F100.00
G01 X17.7711 Y27.9891
G01 X17.9154 Y28.1470
G01 X18.0744 Y28.2900
G01 X18.2467 Y28.4167
G01 X18.4305 Y28.5259
G01 X18.6242 Y28.6165
G01 X18.8259 Y28.6878
G01 X19.0335 Y28.7389
G01 X19.2451 Y28.7694
G01 X19.4588 Y28.7790
G01 X19.6723 Y28.7677
G01 X19.8837 Y28.7355
G01 X20.0909 Y28.6827
G01 X20.2774 Y28.6159
G01 X20.4849 Y28.5176
G01 X20.6679 Y28.4069
G01 X20.8391 Y28.2789
G01 X20.9970 Y28.1346
G01 X21.1400 Y27.9756
G01 X21.2667 Y27.8033
G01 X21.3759 Y27.6195
G01 X21.4665 Y27.4258
G01 X21.5378 Y27.2241
G01 X21.5889 Y27.0165
G01 X21.6194 Y26.8049
G01 X21.6290 Y26.5912
G01 X21.6177 Y26.3777
G01 X21.5855 Y26.1663
G01 X21.5327 Y25.9591
G01 X21.4659 Y25.7726
G01 X21.3676 Y25.5651
G01 X21.2569 Y25.3821
G01 X21.1289 Y25.2109
G01 X20.9846 Y25.0530
G01 X20.8256 Y24.9100
G01 X20.6533 Y24.7833
G01 X20.4695 Y24.6741
G01 X20.2758 Y24.5835
G01 X20.0741 Y24.5122
G01 X19.8665 Y24.4611
G01 X19.6549 Y24.4306
G01 X19.4412 Y24.4210
G01 X19.2277 Y24.4323
G01 X19.0163 Y24.4645
G01 X18.8091 Y24.5173
G01 X18.6226 Y24.5841
G01 X18.4151 Y24.6824
G01 X18.2321 Y24.7931
G01 X18.0609 Y24.9211
G01 X17.9030 Y25.0654
G01 X17.7600 Y25.2244
G01 X17.6333 Y25.3967
G01 X17.5241 Y25.5805
G01 X17.4335 Y25.7742
G01 X17.3622 Y25.9759
G01 X17.3111 Y26.1835
G01 X17.2806 Y26.3951
G01 X17.2710 Y26.6088
G01 X17.2823 Y26.8223
G01 X17.3145 Y27.0337
G01 X17.3673 Y27.2409
G01 X17.4341 Y27.4274
G01 X17.5324 Y27.6349
G01 X17.6431 Y27.8179
G00 Z2.0000
G00 X17.7314 Y27.7524
G01 F50.00
G01 Z-0.0700
G01 F100.00
G01 X17.8527 Y27.9153
G01 X17.9893 Y28.0655
G01 X18.1399 Y28.2016
G01 X18.2979 Y28.3188
G01 X18.4776 Y28.4264
G01 X18.6613 Y28.5130
G01 X18.8526 Y28.5810
G01 X19.0496 Y28.6301
G01 X19.2505 Y28.6595
G01 X19.4534 Y28.6692
G01 X19.6562 Y28.6589
G01 X19.8570 Y28.6288
G01 X20.0539 Y28.5791
G01 X20.2394 Y28.5127
G01 X20.4284 Y28.4233
G01 X20.6024 Y28.3186
G01 X20.7653 Y28.1973
G01 X20.9155 Y28.0607
G01 X21.0516 Y27.9101
G01 X21.1688 Y27.7521
G01 X21.2764 Y27.5724
G01 X21.3630 Y27.3887
G01 X21.4310 Y27.1974
G01 X21.4801 Y27.0004
G01 X21.5095 Y26.7995
G01 X21.5192 Y26.5966
G01 X21.5089 Y26.3938
G01 X21.4788 Y26.1930
G01 X21.4291 Y25.9961
G01 X21.3627 Y25.8106
G01 X21.2733 Y25.6216
G01 X21.1686 Y25.4476
G01 X21.0473 Y25.2847
G01 X20.9107 Y25.1345
G01 X20.7601 Y24.9984
G01 X20.6021 Y24.8812
G01 X20.4224 Y24.7736
G01 X20.2387 Y24.6870
G01 X20.0474 Y24.6190
G01 X19.8504 Y24.5699
G01 X19.6495 Y24.5405
G01 X19.4466 Y24.5308
G01 X19.2438 Y24.5411
G01 X19.0430 Y24.5712
G01 X18.8461 Y24.6209
G01 X18.6606 Y24.6873
G01 X18.4716 Y24.7767
G01 X18.2976 Y24.8814
G01 X18.1347 Y25.0027
G01 X17.9845 Y25.1393
G01 X17.8484 Y25.2899
G01 X17.7312 Y25.4479
G01 X17.6236 Y25.6276
G01 X17.5370 Y25.8113
G01 X17.4690 Y26.0026
G01 X17.4199 Y26.1996
G01 X17.3905 Y26.4005
G01 X17.3808 Y26.6034
G01 X17.3911 Y26.8062
G01 X17.4212 Y27.0070
G01 X17.4709 Y27.2039
G01 X17.5373 Y27.3894
G01 X17.6267 Y27.5784
G01 X17.7314 Y27.7524
G00 Z2.0000
G00 X22.9575 Y22.1697
G01 F50.00
G01 Z-0.0700
G01 F100.00
G01 X22.9975 Y22.2348
G01 X23.0833 Y22.3393
G01 X23.2148 Y22.4472
G01 X23.2807 Y22.4857
G01 X23.4056 Y22.5375
G01 X23.4967 Y22.5603
G01 X23.6312 Y22.5735
G01 X23.8005 Y22.5569
G01 X23.9298 Y22.5176
G01 X23.9993 Y22.4857
G01 X24.1407 Y22.3913
G01 X24.2363 Y22.2957
G01 X24.2829 Y22.2342
G01 X24.3626 Y22.0848
G01 X24.4019 Y21.9555
G01 X24.4139 Y21.8800
G01 X24.4139 Y21.1600
G01 X24.4019 Y21.0845
G01 X24.3626 Y20.9552
G01 X24.2922 Y20.8198
G01 X24.1967 Y20.7007
G01 X24.0792 Y20.6021
G01 X23.9460 Y20.5291
G01 X23.8005 Y20.4831
G01 X23.6488 Y20.4665
G01 X23.4967 Y20.4797
G01 X23.3502 Y20.5224
G01 X23.2148 Y20.5928
G01 X23.0957 Y20.6883
G01 X22.9971 Y20.8058
G01 X22.9493 Y20.8857
G01 X22.8975 Y21.0106
G01 X22.8747 Y21.1017
G01 X22.8615 Y21.2362
G01 X22.8661 Y21.8800
G01 X22.8975 Y22.0294
G01 X22.9575 Y22.1697
G00 Z2.0000
G00 X23.0519 Y22.1132
G01 F50.00
G01 Z-0.0700
G01 F100.00
G01 X23.0859 Y22.1693
G01 X23.1648 Y22.2654
G01 X23.2713 Y22.3529
G01 X23.3278 Y22.3863
G01 X23.4427 Y22.4339
G01 X23.5129 Y22.4515
G01 X23.6366 Y22.4637
G01 X23.7738 Y22.4502
G01 X23.8928 Y22.4141
G01 X23.9522 Y22.3863
G01 X24.0668 Y22.3097
G01 X24.1547 Y22.2218
G01 X24.1943 Y22.1690
G01 X24.2591 Y22.0478
G01 X24.2952 Y21.9288
G01 X24.3051 Y21.8639
G01 X24.3051 Y21.1761
G01 X24.2952 Y21.1112
G01 X24.2591 Y20.9922
G01 X24.1979 Y20.8763
G01 X24.1152 Y20.7746
G01 X24.0140 Y20.6907
G01 X23.8990 Y20.6285
G01 X23.7738 Y20.5898
G01 X23.6434 Y20.5763
G01 X23.5129 Y20.5885
G01 X23.3872 Y20.6259
G01 X23.2713 Y20.6871
G01 X23.1696 Y20.7698
G01 X23.0857 Y20.8710
G01 X23.0487 Y20.9328
G01 X23.0011 Y21.0477
G01 X22.9835 Y21.1179
G01 X22.9713 Y21.2416
G01 X22.9742 Y21.8572
G01 X23.0011 Y21.9923
G01 X23.0519 Y22.1132
G00 Z2.0000
G00 X26.9453 Y20.7628
G01 F50.00
G01 Z-0.0700
G01 F100.00
G01 X27.0074 Y20.9673
G01 X27.0643 Y21.0877
G01 X27.1245 Y21.1865
G01 X27.2601 Y21.3517
G01 X28.1320 Y22.2168
G01 X28.2390 Y22.2962
G01 X28.3387 Y22.3550
G01 X28.4437 Y22.4036
G01 X28.5529 Y22.4418
G01 X28.6654 Y22.4691
G01 X28.8780 Y22.4900
G01 X31.5125 Y22.4903
G01 X33.3213 Y24.2990
G01 X33.3215 Y25.0688
G01 X33.3376 Y25.2325
G01 X33.3640 Y25.3379
G01 X33.4352 Y25.5054
G01 X33.5378 Y25.6558
G01 X33.6677 Y25.7833
G01 X33.8200 Y25.8830
G01 X33.9889 Y25.9511
G01 X34.1677 Y25.9849
G01 X35.7500 Y25.9887
G01 X35.8497 Y25.9832
G01 X36.0279 Y25.9460
G01 X36.1800 Y25.8830
G01 X36.2586 Y25.8369
G01 X36.3458 Y25.7722
G01 X36.4128 Y25.7104
G01 X36.5172 Y25.5832
G01 X36.5648 Y25.5054
G01 X36.6112 Y25.4072
G01 X36.6411 Y25.3211
G01 X36.6749 Y25.1423
G01 X36.6785 Y23.5512
G01 X36.6624 Y23.3875
G01 X36.6360 Y23.2821
G01 X36.5724 Y23.1287
G01 X36.4733 Y22.9777
G01 X36.4004 Y22.8972
G01 X36.2586 Y22.7831
G01 X36.0972 Y22.6988
G01 X35.9398 Y22.6510
G01 X35.7500 Y22.6313
G01 X34.9890 Y22.6313
G01 X32.8349 Y20.4771
G01 X32.7422 Y20.3940
G01 X32.5878 Y20.2893
G01 X33.6385 Y20.2893
G01 X33.7080 Y20.3816
G01 X33.8069 Y20.4907
G01 X33.9419 Y20.6131
G01 X34.0747 Y20.7105
G01 X34.2010 Y20.7862
G01 X34.3658 Y20.8641
G01 X34.5044 Y20.9137
G01 X34.6639 Y20.9546
G01 X34.8267 Y20.9796
G01 X35.0088 Y20.9885
G01 X35.1733 Y20.9796
G01 X35.3189 Y20.9580
G01 X35.4956 Y20.9137
G01 X35.6359 Y20.8635
G01 X35.7835 Y20.7945
G01 X35.9398 Y20.7008
G01 X36.0716 Y20.6020
G01 X36.1931 Y20.4907
G01 X36.2920 Y20.3816
G01 X36.3908 Y20.2498
G01 X36.4845 Y20.0935
G01 X36.5541 Y19.9442
G01 X36.6037 Y19.8056
G01 X36.6480 Y19.6289
G01 X36.6713 Y19.4658
G01 X36.6785 Y19.3188
G01 X36.6713 Y19.1542
G01 X36.6480 Y18.9911
G01 X36.6037 Y18.8144
G01 X36.5474 Y18.6595
G01 X36.4762 Y18.5110
G01 X36.3908 Y18.3702
G01 X36.2920 Y18.2384
G01 X36.1931 Y18.1293
G01 X36.0716 Y18.0180
G01 X35.9253 Y17.9095
G01 X35.7835 Y17.8255
G01 X35.6342 Y17.7559
G01 X35.4789 Y17.7012
G01 X35.3189 Y17.6620
G01 X35.1558 Y17.6387
G01 X35.0088 Y17.6315
G01 X34.8442 Y17.6387
G01 X34.6639 Y17.6654
G01 X34.5044 Y17.7063
G01 X34.3641 Y17.7565
G01 X34.2010 Y17.8338
G01 X34.0446 Y17.9307
G01 X32.3552 Y17.9307
G01 X36.3801 Y13.9101
G01 X36.4303 Y13.8538
G01 X36.4945 Y13.7577
G01 X36.5305 Y13.6817
G01 X36.5640 Y13.5710
G01 X36.5790 Y13.4300
G01 X36.5790 Y9.9400
G01 X36.5747 Y9.8647
G01 X36.5521 Y9.7514
G01 X36.4945 Y9.6123
G01 X36.4303 Y9.5162
G01 X36.3862 Y9.4662
G01 X34.9637 Y8.0435
G01 X34.9606 Y7.8593
G01 X34.9276 Y7.7379
G01 X34.8607 Y7.6314
G01 X34.8001 Y7.5732
G01 X34.7447 Y7.5362
G01 X34.6510 Y7.4974
G01 X34.5438 Y7.4815
G01 X33.0350 Y7.4813
G01 X32.9571 Y7.4884
G01 X32.9022 Y7.5025
G01 X32.8253 Y7.5362
G01 X32.7699 Y7.5732
G01 X32.7093 Y7.6314
G01 X32.6612 Y7.7003
G01 X32.6275 Y7.7772
G01 X32.6094 Y7.8593
G01 X32.6077 Y9.1433
G01 X32.6357 Y9.2659
G01 X32.6738 Y9.3408
G01 X32.7093 Y9.3886
G01 X32.7699 Y9.4468
G01 X32.8253 Y9.4838
G01 X32.9428 Y9.5286
G01 X33.0350 Y9.5387
G01 X34.5384 Y9.5387
G01 X35.2210 Y10.2213
G01 X35.2210 Y13.1487
G01 X31.6397 Y16.7300
G01 X29.4892 Y16.7300
G01 X29.3653 Y16.7415
G01 X29.2837 Y16.7620
G01 X29.1614 Y16.8145
G01 X29.0653 Y16.8787
G01 X29.0154 Y16.9228
G01 X28.0026 Y17.9353
G01 X27.8614 Y17.9553
G01 X27.7494 Y17.9843
G01 X27.6407 Y18.0241
G01 X27.4523 Y18.1248
G01 X27.3579 Y18.1937
G01 X27.2725 Y18.2701
G01 X27.1830 Y18.3688
G01 X27.1148 Y18.4623
G01 X27.0560 Y18.5619
G01 X27.0074 Y18.6669
G01 X26.9692 Y18.7761
G01 X26.9275 Y18.9857
G01 X26.9207 Y19.1100
G01 X26.9207 Y20.5242
G01 X26.9261 Y20.6354
G01 X26.9453 Y20.7628
G00 Z2.0000
G00 X27.0520 Y20.7361
G01 F50.00
G01 Z-0.0700
G01 F100.00
G01 X27.0778 Y20.8378
G01 X27.1555 Y21.0252
G01 X27.2129 Y21.1210
G01 X27.3416 Y21.2778
G01 X28.2059 Y22.1353
G01 X28.2956 Y22.2019
G01 X28.3858 Y22.2555
G01 X28.4808 Y22.3001
G01 X28.5797 Y22.3351
G01 X28.6815 Y22.3603
G01 X28.8834 Y22.3802
G01 X31.5581 Y22.3803
G01 X33.4313 Y24.2534
G01 X33.4313 Y25.0634
G01 X33.4356 Y25.1436
G01 X33.4656 Y25.2944
G01 X33.5267 Y25.4434
G01 X33.6193 Y25.5820
G01 X33.7333 Y25.6950
G01 X33.8671 Y25.7836
G01 X34.0156 Y25.8444
G01 X34.1664 Y25.8744
G01 X34.2466 Y25.8787
G01 X35.8336 Y25.8744
G01 X35.9909 Y25.8424
G01 X36.1329 Y25.7836
G01 X36.2020 Y25.7426
G01 X36.3313 Y25.6365
G01 X36.4288 Y25.5176
G01 X36.4704 Y25.4489
G01 X36.5344 Y25.2944
G01 X36.5644 Y25.1436
G01 X36.5687 Y25.0634
G01 X36.5644 Y23.4764
G01 X36.5324 Y23.3191
G01 X36.4704 Y23.1711
G01 X36.4288 Y23.1024
G01 X36.3313 Y22.9835
G01 X36.2076 Y22.8812
G01 X36.0602 Y22.8024
G01 X35.9844 Y22.7756
G01 X35.8336 Y22.7456
G01 X34.9434 Y22.7413
G01 X32.7571 Y20.5549
G01 X32.6767 Y20.4824
G01 X32.5922 Y20.4201
G01 X32.5020 Y20.3665
G01 X32.4070 Y20.3219
G01 X32.3081 Y20.2869
G01 X32.2063 Y20.2617
G01 X32.0044 Y20.2418
G01 X29.3297 Y20.2417
G01 X29.1693 Y20.0813
G01 X29.1642 Y19.0069
G01 X29.1493 Y18.9047
G01 X29.1241 Y18.8029
G01 X29.0604 Y18.6425
G01 X29.7248 Y17.9780
G01 X31.9244 Y17.9779
G01 X32.0287 Y17.9676
G01 X32.0894 Y17.9524
G01 X32.1418 Y17.9333
G01 X32.2343 Y17.8839
G01 X32.3233 Y17.8113
G01 X36.3023 Y13.8323
G01 X36.3712 Y13.7489
G01 X36.4243 Y13.6508
G01 X36.4573 Y13.5443
G01 X36.4690 Y13.4300
G01 X36.4690 Y9.9400
G01 X36.4658 Y9.8809
G01 X36.4454 Y9.7781
G01 X36.4002 Y9.6688
G01 X36.3419 Y9.5817
G01 X36.3047 Y9.5401
G01 X34.8537 Y8.0907
G01 X34.8525 Y7.8821
G01 X34.8307 Y7.7912
G01 X34.7792 Y7.7052
G01 X34.7346 Y7.6615
G01 X34.6882 Y7.6306
G01 X34.6243 Y7.6041
G01 X34.5350 Y7.5913
G01 X33.0350 Y7.5913
G01 X32.9393 Y7.6060
G01 X32.8818 Y7.6306
G01 X32.8354 Y7.6615
G01 X32.7865 Y7.7104
G01 X32.7524 Y7.7628
G01 X32.7291 Y7.8207
G01 X32.7175 Y7.8821
G01 X32.7182 Y9.1446
G01 X32.7293 Y9.2001
G01 X32.7524 Y9.2572
G01 X32.8073 Y9.3329
G01 X32.8818 Y9.3894
G01 X32.9761 Y9.4232
G01 X33.0350 Y9.4287
G01 X34.5805 Y9.4252
G01 X35.3310 Y10.1757
G01 X35.3310 Y13.1943
G01 X31.6853 Y16.8400
G01 X29.4892 Y16.8400
G01 X29.3815 Y16.8504
G01 X29.3208 Y16.8656
G01 X29.2180 Y16.9088
G01 X29.1308 Y16.9671
G01 X29.0893 Y17.0043
G01 X28.0504 Y18.0431
G01 X27.8881 Y18.0620
G01 X27.7864 Y18.0878
G01 X27.6877 Y18.1235
G01 X27.5088 Y18.2191
G01 X27.4240 Y18.2816
G01 X27.3464 Y18.3516
G01 X27.2714 Y18.4343
G01 X27.2091 Y18.5188
G01 X27.1555 Y18.6090
G01 X27.1109 Y18.7040
G01 X27.0759 Y18.8029
G01 X27.0363 Y19.0018
G01 X27.0307 Y19.1100
G01 X27.0307 Y20.5242
G01 X27.0358 Y20.6273
G01 X27.0520 Y20.7361
G00 Z2.0000
G00 X29.5725 Y19.8879
G01 F50.00
G01 Z-0.0700
G01 F100.00
G01 X29.5969 Y19.9851
G01 X29.6269 Y20.0398
G01 X29.6623 Y20.0829
G01 X29.7428 Y20.1426
G01 X29.8007 Y20.1659
G01 X29.8621 Y20.1775
G01 X33.6942 Y20.1793
G01 X33.7895 Y20.3078
G01 X33.8932 Y20.4216
G01 X34.0022 Y20.5205
G01 X34.1313 Y20.6162
G01 X34.2635 Y20.6950
G01 X34.3966 Y20.7580
G01 X34.5479 Y20.8121
G01 X34.6973 Y20.8492
G01 X34.8496 Y20.8714
G01 X34.9966 Y20.8787
G01 X35.1571 Y20.8708
G01 X35.3093 Y20.8479
G01 X35.4586 Y20.8101
G01 X35.5978 Y20.7603
G01 X35.7424 Y20.6919
G01 X35.8743 Y20.6124
G01 X35.9978 Y20.5205
G01 X36.1116 Y20.4168
G01 X36.2147 Y20.3025
G01 X36.3031 Y20.1834
G01 X36.3850 Y20.0465
G01 X36.4506 Y19.9072
G01 X36.5021 Y19.7621
G01 X36.5392 Y19.6127
G01 X36.5614 Y19.4604
G01 X36.5687 Y19.3066
G01 X36.5608 Y19.1529
G01 X36.5379 Y19.0007
G01 X36.5021 Y18.8579
G01 X36.4480 Y18.7066
G01 X36.3819 Y18.5676
G01 X36.3062 Y18.4413
G01 X36.2147 Y18.3175
G01 X36.1116 Y18.2032
G01 X35.9978 Y18.0995
G01 X35.8743 Y18.0076
G01 X35.7365 Y17.9250
G01 X35.5972 Y17.8594
G01 X35.4586 Y17.8099
G01 X35.3027 Y17.7708
G01 X35.1504 Y17.7486
G01 X34.9966 Y17.7413
G01 X34.8429 Y17.7492
G01 X34.6907 Y17.7721
G01 X34.5414 Y17.8099
G01 X34.3966 Y17.8620
G01 X34.2576 Y17.9281
G01 X34.0810 Y18.0407
G01 X29.8554 Y18.0432
G01 X29.7999 Y18.0543
G01 X29.7428 Y18.0774
G01 X29.6671 Y18.1323
G01 X29.6106 Y18.2068
G01 X29.5768 Y18.3011
G01 X29.5713 Y18.3600
G01 X29.5725 Y19.8879
G00 Z2.0000
G00 X29.2742 Y19.0032
G01 F50.00
G01 Z-0.0700
G01 F100.00
G01 X29.2547 Y18.8714
G01 X29.1923 Y18.6661
G01 X29.4613 Y18.3972
G01 X29.4627 Y19.8933
G01 X29.4907 Y20.0159
G01 X29.5162 Y20.0697
G01 X29.5586 Y20.1317
G01 X29.3752 Y20.1317
G01 X29.2793 Y20.0358
G01 X29.2742 Y19.0032
G00 Z2.0000
G00 X27.7843 Y24.2401
G01 F50.00
G01 Z-0.0700
G01 F100.00
G01 X27.8269 Y24.3298
G01 X27.8904 Y24.3985
G01 X27.9712 Y24.4457
G01 X28.0621 Y24.4675
G01 X29.5934 Y24.4687
G01 X29.6857 Y24.4540
G01 X29.7698 Y24.4131
G01 X29.8342 Y24.3548
G01 X29.8694 Y24.3032
G01 X29.8959 Y24.2393
G01 X29.9075 Y24.1779
G01 X29.9087 Y22.9466
G01 X29.8940 Y22.8543
G01 X29.8531 Y22.7702
G01 X29.7948 Y22.7058
G01 X29.7372 Y22.6674
G01 X29.6793 Y22.6441
G01 X29.5934 Y22.6313
G01 X28.0866 Y22.6313
G01 X27.9943 Y22.6460
G01 X27.9102 Y22.6869
G01 X27.8458 Y22.7452
G01 X27.8106 Y22.7968
G01 X27.7841 Y22.8607
G01 X27.7725 Y22.9221
G01 X27.7713 Y24.1500
G01 X27.7843 Y24.2401
G00 Z2.0000
G00 X27.6779 Y24.2681
G01 F50.00
G01 Z-0.0700
G01 F100.00
G01 X27.7288 Y24.3808
G01 X27.8114 Y24.4757
G01 X27.9179 Y24.5426
G01 X28.0393 Y24.5756
G01 X29.5988 Y24.5785
G01 X29.7228 Y24.5575
G01 X29.8354 Y24.5014
G01 X29.9157 Y24.4286
G01 X29.9638 Y24.3597
G01 X30.0026 Y24.2660
G01 X30.0173 Y24.1833
G01 X30.0173 Y22.9167
G01 X29.9975 Y22.8172
G01 X29.9414 Y22.7046
G01 X29.8686 Y22.6243
G01 X29.7997 Y22.5762
G01 X29.7060 Y22.5374
G01 X29.6233 Y22.5227
G01 X28.0812 Y22.5215
G01 X27.9572 Y22.5425
G01 X27.8446 Y22.5986
G01 X27.7808 Y22.6532
G01 X27.7288 Y22.7192
G01 X27.6825 Y22.8172
G01 X27.6644 Y22.8993
G01 X27.6613 Y24.1500
G01 X27.6779 Y24.2681
G00 Z2.0000
G00 X27.7896 Y26.2325
G01 F50.00
G01 Z-0.0700
G01 F100.00
G01 X27.8426 Y26.4047
G01 X27.8814 Y26.4860
G01 X27.9777 Y26.6302
G01 X28.1098 Y26.7623
G01 X28.2599 Y26.8618
G01 X28.4201 Y26.9281
G01 X28.5966 Y26.9639
G01 X28.9900 Y26.9687
G01 X29.1670 Y26.9515
G01 X29.3391 Y26.8998
G01 X29.4976 Y26.8157
G01 X29.6372 Y26.7020
G01 X29.7520 Y26.5632
G01 X29.8374 Y26.4047
G01 X29.8904 Y26.2325
G01 X29.9087 Y26.0534
G01 X29.8915 Y25.8730
G01 X29.8374 Y25.6953
G01 X29.7986 Y25.6140
G01 X29.7023 Y25.4698
G01 X29.5702 Y25.3377
G01 X29.4201 Y25.2382
G01 X29.2599 Y25.1719
G01 X29.0834 Y25.1361
G01 X28.6900 Y25.1313
G01 X28.5130 Y25.1485
G01 X28.3409 Y25.2002
G01 X28.1768 Y25.2880
G01 X28.0380 Y25.4028
G01 X27.9243 Y25.5424
G01 X27.8400 Y25.7016
G01 X27.7883 Y25.8741
G01 X27.7713 Y26.0534
G01 X27.7896 Y26.2325
G00 Z2.0000
G00 X27.6829 Y26.2593
G01 F50.00
G01 Z-0.0700
G01 F100.00
G01 X27.7431 Y26.4517
G01 X27.7870 Y26.5426
G01 X27.8894 Y26.6957
G01 X27.9689 Y26.7835
G01 X28.0443 Y26.8506
G01 X28.2129 Y26.9612
G01 X28.3830 Y27.0317
G01 X28.5805 Y27.0727
G01 X28.9900 Y27.0787
G01 X29.1849 Y27.0600
G01 X29.3771 Y27.0030
G01 X29.5541 Y26.9101
G01 X29.7111 Y26.7835
G01 X29.8403 Y26.6287
G01 X29.9369 Y26.4517
G01 X29.9971 Y26.2593
G01 X30.0185 Y26.0588
G01 X30.0142 Y25.9535
G01 X30.0000 Y25.8551
G01 X29.9430 Y25.6629
G01 X29.9006 Y25.5716
G01 X29.8403 Y25.4713
G01 X29.7111 Y25.3165
G01 X29.6357 Y25.2494
G01 X29.4826 Y25.1470
G01 X29.2970 Y25.0683
G01 X29.0995 Y25.0273
G01 X28.6900 Y25.0213
G01 X28.4951 Y25.0400
G01 X28.3029 Y25.0970
G01 X28.2116 Y25.1394
G01 X28.1113 Y25.1997
G01 X27.9565 Y25.3289
G01 X27.8976 Y25.3940
G01 X27.8299 Y25.4859
G01 X27.7364 Y25.6645
G01 X27.6795 Y25.8579
G01 X27.6615 Y26.0588
G01 X27.6658 Y26.1465
G01 X27.6829 Y26.2593
G00 Z2.0000
G00 X26.5436 Y13.8484
G01 F50.00
G01 Z-0.0700
G01 F100.00
G01 X26.5815 Y13.9993
G01 X26.6444 Y14.1746
G01 X26.7182 Y14.3287
G01 X26.8068 Y14.4748
G01 X26.9093 Y14.6116
G01 X27.0248 Y14.7377
G01 X27.1520 Y14.8518
G01 X27.2897 Y14.9529
G01 X27.4368 Y15.0400
G01 X27.5916 Y15.1123
G01 X27.7529 Y15.1691
G01 X27.9188 Y15.2098
G01 X28.0880 Y15.2340
G01 X28.2588 Y15.2415
G01 X28.4164 Y15.2337
G01 X28.5984 Y15.2064
G01 X28.7493 Y15.1685
G01 X28.9246 Y15.1056
G01 X29.0787 Y15.0318
G01 X29.2248 Y14.9432
G01 X29.3616 Y14.8407
G01 X29.4877 Y14.7252
G01 X29.6018 Y14.5980
G01 X29.7029 Y14.4603
G01 X29.7900 Y14.3132
G01 X29.8623 Y14.1584
G01 X29.9191 Y13.9971
G01 X29.9598 Y13.8312
G01 X29.9840 Y13.6620
G01 X29.9915 Y13.4912
G01 X29.9837 Y13.3336
G01 X29.9564 Y13.1516
G01 X29.9185 Y13.0007
G01 X29.8556 Y12.8254
G01 X29.7818 Y12.6713
G01 X29.6932 Y12.5252
G01 X29.5907 Y12.3884
G01 X29.4752 Y12.2623
G01 X29.3480 Y12.1482
G01 X29.2103 Y12.0471
G01 X29.0632 Y11.9600
G01 X28.9084 Y11.8877
G01 X28.7471 Y11.8309
G01 X28.5812 Y11.7902
G01 X28.4120 Y11.7660
G01 X28.2412 Y11.7585
G01 X28.0836 Y11.7663
G01 X27.9016 Y11.7936
G01 X27.7507 Y11.8315
G01 X27.5754 Y11.8944
G01 X27.4213 Y11.9682
G01 X27.2752 Y12.0568
G01 X27.1384 Y12.1593
G01 X27.0123 Y12.2748
G01 X26.8982 Y12.4020
G01 X26.7971 Y12.5397
G01 X26.7100 Y12.6868
G01 X26.6377 Y12.8416
G01 X26.5809 Y13.0029
G01 X26.5402 Y13.1688
G01 X26.5160 Y13.3380
G01 X26.5085 Y13.5088
G01 X26.5163 Y13.6664
G01 X26.5436 Y13.8484
G00 Z2.0000
G00 X26.6503 Y13.8216
G01 F50.00
G01 Z-0.0700
G01 F100.00
G01 X26.6878 Y13.9712
G01 X26.7438 Y14.1275
G01 X26.8097 Y14.2667
G01 X26.8952 Y14.4093
G01 X26.9908 Y14.5377
G01 X27.0986 Y14.6561
G01 X27.2125 Y14.7594
G01 X27.3463 Y14.8586
G01 X27.4838 Y14.9406
G01 X27.6287 Y15.0088
G01 X27.7796 Y15.0624
G01 X27.9350 Y15.1010
G01 X28.0934 Y15.1241
G01 X28.2534 Y15.1317
G01 X28.4083 Y15.1240
G01 X28.5716 Y15.0997
G01 X28.7212 Y15.0622
G01 X28.8775 Y15.0062
G01 X29.0167 Y14.9403
G01 X29.1593 Y14.8548
G01 X29.2877 Y14.7592
G01 X29.4061 Y14.6514
G01 X29.5094 Y14.5375
G01 X29.6086 Y14.4037
G01 X29.6906 Y14.2662
G01 X29.7588 Y14.1213
G01 X29.8124 Y13.9704
G01 X29.8510 Y13.8150
G01 X29.8741 Y13.6566
G01 X29.8817 Y13.4966
G01 X29.8740 Y13.3417
G01 X29.8497 Y13.1784
G01 X29.8122 Y13.0288
G01 X29.7562 Y12.8725
G01 X29.6903 Y12.7333
G01 X29.6048 Y12.5907
G01 X29.5092 Y12.4623
G01 X29.4014 Y12.3439
G01 X29.2875 Y12.2406
G01 X29.1537 Y12.1414
G01 X29.0162 Y12.0594
G01 X28.8713 Y11.9912
G01 X28.7204 Y11.9376
G01 X28.5650 Y11.8990
G01 X28.4066 Y11.8759
G01 X28.2466 Y11.8683
G01 X28.0917 Y11.8760
G01 X27.9284 Y11.9003
G01 X27.7788 Y11.9378
G01 X27.6225 Y11.9938
G01 X27.4833 Y12.0597
G01 X27.3407 Y12.1452
G01 X27.2123 Y12.2408
G01 X27.0939 Y12.3486
G01 X26.9906 Y12.4625
G01 X26.8914 Y12.5963
G01 X26.8094 Y12.7338
G01 X26.7412 Y12.8787
G01 X26.6876 Y13.0296
G01 X26.6490 Y13.1850
G01 X26.6259 Y13.3434
G01 X26.6183 Y13.5034
G01 X26.6260 Y13.6583
G01 X26.6503 Y13.8216
G00 Z2.0000
G00 X32.6250 Y11.2049
G01 F50.00
G01 Z-0.0700
G01 F100.00
G01 X32.6820 Y11.3971
G01 X32.7244 Y11.4884
G01 X32.7847 Y11.5887
G01 X32.9139 Y11.7435
G01 X32.9893 Y11.8106
G01 X33.1424 Y11.9130
G01 X33.3280 Y11.9917
G01 X33.5255 Y12.0327
G01 X33.9350 Y12.0387
G01 X34.1299 Y12.0200
G01 X34.3221 Y11.9630
G01 X34.4991 Y11.8701
G01 X34.6561 Y11.7435
G01 X34.7274 Y11.6660
G01 X34.7853 Y11.5887
G01 X34.8819 Y11.4117
G01 X34.9421 Y11.2193
G01 X34.9635 Y11.0188
G01 X34.9592 Y10.9135
G01 X34.9450 Y10.8151
G01 X34.8880 Y10.6229
G01 X34.8456 Y10.5316
G01 X34.7853 Y10.4313
G01 X34.6561 Y10.2765
G01 X34.5807 Y10.2094
G01 X34.4276 Y10.1070
G01 X34.2420 Y10.0283
G01 X34.0445 Y9.9873
G01 X33.6350 Y9.9813
G01 X33.4401 Y10.0000
G01 X33.2479 Y10.0570
G01 X33.0709 Y10.1499
G01 X32.9139 Y10.2765
G01 X32.7847 Y10.4313
G01 X32.6881 Y10.6083
G01 X32.6279 Y10.8007
G01 X32.6065 Y11.0012
G01 X32.6108 Y11.1065
G01 X32.6250 Y11.2049
G00 Z2.0000
G00 X32.7335 Y11.1870
G01 F50.00
G01 Z-0.0700
G01 F100.00
G01 X32.7852 Y11.3591
G01 X32.8730 Y11.5232
G01 X32.9878 Y11.6620
G01 X33.0548 Y11.7223
G01 X33.1990 Y11.8186
G01 X33.3651 Y11.8881
G01 X33.5416 Y11.9239
G01 X34.0284 Y11.9239
G01 X34.2049 Y11.8881
G01 X34.3656 Y11.8215
G01 X34.5152 Y11.7223
G01 X34.6441 Y11.5941
G01 X34.7468 Y11.4401
G01 X34.8151 Y11.2734
G01 X34.8496 Y11.0967
G01 X34.8489 Y10.9166
G01 X34.8354 Y10.8275
G01 X34.7850 Y10.6616
G01 X34.7007 Y10.5024
G01 X34.5870 Y10.3628
G01 X34.4426 Y10.2443
G01 X34.2834 Y10.1600
G01 X34.1109 Y10.1083
G01 X33.9350 Y10.0913
G01 X33.5416 Y10.0961
G01 X33.3651 Y10.1319
G01 X33.1990 Y10.2014
G01 X33.0548 Y10.2977
G01 X32.9878 Y10.3580
G01 X32.8730 Y10.4968
G01 X32.7876 Y10.6553
G01 X32.7346 Y10.8275
G01 X32.7163 Y11.0066
G01 X32.7335 Y11.1870
G00 Z2.0000
M05
G00 Z2.0000
G00 Z2.00


