(G-code generated by FlatCAM Evo vUnstable - Version Date: 2023/6/31)

(Name: Toolhead PCB-B_Cu.gbr_iso_combined_cnc)
(Type: G-code from Geometry)
(Units: MM)

(Created on Wednesday, 24 September 2025 at 14:50)

(This preprocessor is the default preprocessor.)
(It is made to work with MACH3 compatible motion controllers.)

(TOOL DIAMETER: 0.2536 mm)
(Feedrate_XY: 100.0 mm/min)
(Feedrate_Z: 50.0 mm/min)
(Feedrate rapids 1500.0 mm/min)

(Z_Cut: -0.1 mm)
(Z_Move: 2.0 mm)
(Z Start: None mm)
(Z End: 2.0 mm)
(X,Y End: None mm)
(Steps per circle: 16)
(Preprocessor Geometry: default)

(X range:    0.2412 ...   36.8297  mm)
(Y range:    0.5698 ...   23.8289  mm)

(Spindle Speed: 0.0 RPM)
G21
G90
G94

G01 F100.00
G00 Z2.0000

M03
G4 P1.0
G01 F100.00
G00 X2.0796 Y6.0503
G01 F50.00
G01 Z-0.1000
G01 F100.00
G01 X2.2203 Y5.9097
G01 X2.5226 Y5.9097
G01 X2.3819 Y6.0503
G01 X2.0796 Y6.0503
G00 Z2.0000
G00 X2.6081 Y7.7068
G01 F50.00
G01 Z-0.1000
G01 F100.00
G01 X2.7407 Y7.6939
G01 X2.8219 Y7.6736
G01 X2.9476 Y7.6210
G01 X3.0612 Y7.5457
G01 X3.1232 Y7.4894
G01 X3.2093 Y7.3838
G01 X3.2488 Y7.3171
G01 X3.3005 Y7.1910
G01 X3.3275 Y7.0574
G01 X3.3316 Y6.9738
G01 X3.3178 Y6.8382
G01 X3.2787 Y6.7077
G01 X3.2429 Y6.6320
G01 X3.1668 Y6.5189
G01 X3.0708 Y6.4222
G01 X2.9941 Y6.3667
G01 X7.3320 Y2.0289
G01 X11.9880 Y2.0289
G01 X16.5606 Y6.6014
G01 X16.6342 Y6.6506
G01 X16.7179 Y6.6678
G01 X21.7582 Y6.6679
G01 X21.8300 Y6.6561
G01 X21.8790 Y6.6329
G01 X21.9186 Y6.6014
G01 X25.9942 Y2.5259
G01 X28.3764 Y2.5259
G01 X28.2351 Y2.5857
G01 X28.1526 Y2.6345
G01 X28.0038 Y2.7550
G01 X27.9349 Y2.8303
G01 X27.8778 Y2.9073
G01 X27.7876 Y3.0762
G01 X27.7553 Y3.1664
G01 X27.7309 Y3.2656
G01 X27.7174 Y3.3605
G01 X27.7174 Y3.5395
G01 X27.7320 Y3.6406
G01 X27.7553 Y3.7336
G01 X27.7876 Y3.8238
G01 X27.8352 Y3.9218
G01 X24.6913 Y7.0657
G01 X24.6276 Y7.1523
G01 X24.5903 Y7.2565
G01 X24.5831 Y7.3300
G01 X24.5831 Y19.9439
G01 X23.4639 Y21.0631
G01 X18.4961 Y21.0631
G01 X17.8069 Y20.3739
G01 X17.8069 Y20.0806
G01 X17.8862 Y20.0257
G01 X17.9439 Y19.9739
G01 X18.0343 Y19.8638
G01 X18.1015 Y19.7381
G01 X18.1439 Y19.5957
G01 X18.1568 Y19.4600
G01 X18.1439 Y19.3243
G01 X18.1037 Y19.1877
G01 X18.0571 Y19.0939
G01 X18.0571 Y17.9733
G01 X18.1351 Y17.8897
G01 X18.1955 Y17.8074
G01 X18.2799 Y17.6495
G01 X18.3147 Y17.5536
G01 X18.3380 Y17.4606
G01 X18.3526 Y17.3595
G01 X18.3526 Y17.1805
G01 X18.3380 Y17.0794
G01 X18.3128 Y16.9805
G01 X18.2415 Y16.8095
G01 X18.1886 Y16.7222
G01 X18.0707 Y16.5793
G01 X17.9278 Y16.4614
G01 X17.8405 Y16.4085
G01 X17.6695 Y16.3372
G01 X17.5706 Y16.3120
G01 X17.3800 Y16.2932
G01 X17.1894 Y16.3120
G01 X17.0062 Y16.3676
G01 X16.8426 Y16.4545
G01 X16.6938 Y16.5750
G01 X16.6211 Y16.6552
G01 X16.5185 Y16.8095
G01 X16.4776 Y16.8962
G01 X16.4436 Y16.9924
G01 X16.4087 Y17.1681
G01 X16.4032 Y17.2700
G01 X16.4209 Y17.4544
G01 X16.4472 Y17.5595
G01 X16.5157 Y17.7249
G01 X16.5714 Y17.8178
G01 X16.6893 Y17.9607
G01 X16.8029 Y18.0569
G01 X16.8029 Y19.0939
G01 X16.7563 Y19.1877
G01 X16.7161 Y19.3243
G01 X16.7032 Y19.4600
G01 X16.7172 Y19.6018
G01 X16.7585 Y19.7381
G01 X16.8257 Y19.8638
G01 X16.9161 Y19.9739
G01 X16.9738 Y20.0257
G01 X17.0531 Y20.0806
G01 X17.0531 Y20.2929
G01 X16.3239 Y21.0231
G01 X8.8261 Y21.0231
G01 X6.6569 Y18.8539
G01 X6.6569 Y15.4825
G01 X7.1283 Y15.0092
G01 X7.1734 Y14.9430
G01 X7.1997 Y14.8807
G01 X7.2179 Y14.7684
G01 X7.2179 Y13.8916
G01 X7.2107 Y13.8211
G01 X7.1915 Y13.7562
G01 X7.1324 Y13.6555
G01 X6.6569 Y13.1775
G01 X6.6551 Y11.3931
G01 X6.6387 Y11.3147
G01 X6.5967 Y11.2258
G01 X6.5508 Y11.1680
G01 X6.4504 Y11.0673
G01 X6.4571 Y10.9129
G01 X6.8526 Y10.5174
G01 X6.8382 Y10.6169
G01 X6.8382 Y11.3200
G01 X6.8544 Y11.4294
G01 X6.9017 Y11.5293
G01 X6.9760 Y11.6113
G01 X7.0708 Y11.6681
G01 X7.1843 Y11.6954
G01 X8.4650 Y11.6968
G01 X8.5744 Y11.6806
G01 X8.6426 Y11.6523
G01 X8.7040 Y11.6113
G01 X8.7563 Y11.5590
G01 X8.7973 Y11.4976
G01 X8.8256 Y11.4294
G01 X8.8392 Y11.3631
G01 X8.8418 Y11.1969
G01 X10.3200 Y11.1969
G01 X10.3859 Y11.1871
G01 X10.4324 Y11.1670
G01 X10.4804 Y11.1304
G01 X12.9227 Y8.6881
G01 X12.9577 Y8.7826
G01 X13.0193 Y8.8669
G01 X13.0859 Y8.9216
G01 X13.1866 Y8.9672
G01 X13.2869 Y8.9818
G01 X14.0207 Y8.9804
G01 X14.0994 Y8.9656
G01 X14.1621 Y8.9401
G01 X14.2607 Y8.8669
G01 X14.3033 Y8.8143
G01 X14.3381 Y8.7492
G01 X14.3596 Y8.6785
G01 X14.3668 Y8.6081
G01 X14.3666 Y7.3488
G01 X14.3506 Y7.2456
G01 X14.2997 Y7.1406
G01 X14.2338 Y7.0678
G01 X14.1730 Y7.0258
G01 X14.0994 Y6.9944
G01 X14.0331 Y6.9808
G01 X13.2900 Y6.9782
G01 X13.2104 Y6.9868
G01 X13.1124 Y7.0227
G01 X13.0281 Y7.0843
G01 X12.9734 Y7.1509
G01 X12.9294 Y7.2456
G01 X12.9132 Y7.3519
G01 X12.9132 Y8.0560
G01 X10.2260 Y10.7431
G01 X8.8418 Y10.7431
G01 X8.8346 Y10.5465
G01 X8.8131 Y10.4758
G01 X8.7816 Y10.4159
G01 X8.7314 Y10.3536
G01 X8.6743 Y10.3067
G01 X8.6092 Y10.2719
G01 X8.5324 Y10.2494
G01 X8.4650 Y10.2432
G01 X7.2150 Y10.2432
G01 X7.1124 Y10.2576
G01 X7.6731 Y9.6968
G01 X8.1181 Y9.6968
G01 X8.2568 Y9.6828
G01 X8.3988 Y9.6390
G01 X8.5135 Y9.5776
G01 X8.5761 Y9.5318
G01 X8.6807 Y9.4262
G01 X8.7529 Y9.3180
G01 X8.7865 Y9.2481
G01 X8.8289 Y9.1057
G01 X8.8416 Y8.9762
G01 X8.8383 Y8.8988
G01 X8.8086 Y8.7531
G01 X8.7840 Y8.6862
G01 X8.7226 Y8.5715
G01 X8.6289 Y8.4561
G01 X8.5135 Y8.3624
G01 X8.3988 Y8.3010
G01 X8.3319 Y8.2764
G01 X8.1862 Y8.2467
G01 X7.5619 Y8.2432
G01 X7.4876 Y8.2475
G01 X7.3597 Y8.2729
G01 X6.6871 Y7.6003
G01 X6.6871 Y4.5397
G01 X7.5315 Y3.6953
G01 X8.1924 Y3.6925
G01 X8.2629 Y3.6815
G01 X8.3873 Y3.6437
G01 X8.5239 Y3.5707
G01 X8.5808 Y3.5278
G01 X8.6728 Y3.4358
G01 X8.7560 Y3.3126
G01 X8.8122 Y3.1750
G01 X8.8407 Y3.0374
G01 X8.8469 Y2.9700
G01 X8.8278 Y2.8282
G01 X8.7887 Y2.6977
G01 X8.7529 Y2.6220
G01 X8.6768 Y2.5089
G01 X8.5808 Y2.4122
G01 X8.5135 Y2.3624
G01 X8.3931 Y2.2985
G01 X8.2629 Y2.2585
G01 X8.1150 Y2.2432
G01 X7.5619 Y2.2432
G01 X7.4232 Y2.2572
G01 X7.3481 Y2.2764
G01 X7.2224 Y2.3290
G01 X7.0216 Y2.4486
G01 X6.9288 Y2.5244
G01 X5.5793 Y3.8775
G01 X5.5353 Y3.9369
G01 X5.4807 Y4.0400
G01 X5.4464 Y4.1516
G01 X5.4355 Y4.2247
G01 X5.4329 Y7.8600
G01 X5.4450 Y7.9823
G01 X5.4619 Y8.0479
G01 X5.5042 Y8.1500
G01 X5.5793 Y8.2625
G01 X6.4548 Y9.1416
G01 X5.3844 Y10.2120
G01 X5.3415 Y10.2603
G01 X5.2796 Y10.3529
G01 X2.9711 Y10.3529
G01 X2.8831 Y10.3085
G01 X2.8160 Y10.2845
G01 X2.6762 Y10.2567
G01 X1.9776 Y10.2575
G01 X1.8440 Y10.2845
G01 X1.7179 Y10.3362
G01 X1.6461 Y10.3793
G01 X1.5411 Y10.4661
G01 X1.4507 Y10.5762
G01 X1.3860 Y10.6962
G01 X1.3578 Y10.7750
G01 X1.3317 Y10.9088
G01 X1.3317 Y11.0512
G01 X1.3595 Y11.1910
G01 X1.4140 Y11.3226
G01 X1.4893 Y11.4362
G01 X1.5939 Y11.5418
G01 X1.7070 Y11.6179
G01 X1.8381 Y11.6736
G01 X1.9193 Y11.6939
G01 X2.0519 Y11.7068
G01 X2.6762 Y11.7033
G01 X2.8160 Y11.6755
G01 X2.8831 Y11.6515
G01 X2.9711 Y11.6071
G01 X5.9031 Y11.6025
G01 X5.9049 Y13.3706
G01 X5.9193 Y13.4431
G01 X5.9506 Y13.5168
G01 X5.9886 Y13.5728
G01 X6.0748 Y13.6615
G01 X5.9745 Y13.6277
G01 X4.8812 Y12.5344
G01 X4.7884 Y12.4586
G01 X4.6857 Y12.4032
G01 X4.5623 Y12.3650
G01 X4.4431 Y12.3530
G01 X3.2100 Y12.3529
G01 X3.1643 Y12.3167
G01 X3.0992 Y12.2819
G01 X2.9857 Y12.2546
G01 X1.6988 Y12.2534
G01 X1.5956 Y12.2694
G01 X1.4957 Y12.3167
G01 X1.4386 Y12.3636
G01 X1.3917 Y12.4207
G01 X1.3569 Y12.4858
G01 X1.3344 Y12.5626
G01 X1.3282 Y12.6300
G01 X1.3300 Y13.3669
G01 X1.3594 Y13.4799
G01 X1.3917 Y13.5393
G01 X1.4386 Y13.5964
G01 X1.5329 Y13.6651
G01 X1.5956 Y13.6906
G01 X1.6681 Y13.7050
G01 X2.9612 Y13.7066
G01 X3.0285 Y13.6996
G01 X3.0992 Y13.6781
G01 X3.1643 Y13.6433
G01 X3.2100 Y13.6071
G01 X4.1803 Y13.6071
G01 X5.0877 Y14.5145
G01 X5.1210 Y14.6138
G01 X5.1893 Y14.7389
G01 X5.2761 Y14.8439
G01 X5.3811 Y14.9307
G01 X5.5177 Y15.0037
G01 X5.6421 Y15.0415
G01 X5.7188 Y15.0533
G01 X5.7962 Y15.0566
G01 X5.9257 Y15.0439
G01 X6.0748 Y14.9985
G01 X5.9886 Y15.0872
G01 X5.9476 Y15.1487
G01 X5.9176 Y15.2229
G01 X5.9031 Y15.3232
G01 X5.9031 Y19.0100
G01 X5.9103 Y19.0835
G01 X5.9295 Y19.1484
G01 X5.9666 Y19.2194
G01 X6.0135 Y19.2765
G01 X8.4035 Y21.6665
G01 X8.4869 Y21.7294
G01 X8.5666 Y21.7624
G01 X8.6700 Y21.7769
G01 X16.5169 Y21.7751
G01 X16.6242 Y21.7482
G01 X16.7191 Y21.6914
G01 X17.3900 Y21.0231
G01 X18.0962 Y21.7273
G01 X18.1958 Y21.7882
G01 X18.3031 Y21.8151
G01 X23.6231 Y21.8169
G01 X23.6935 Y21.8097
G01 X23.7584 Y21.7905
G01 X23.8591 Y21.7314
G01 X25.2308 Y20.3620
G01 X25.2734 Y20.3094
G01 X25.3057 Y20.2499
G01 X25.3351 Y20.1369
G01 X25.3369 Y7.4861
G01 X28.4318 Y4.3912
G01 X28.6005 Y4.4226
G01 X28.9962 Y4.4266
G01 X29.1806 Y4.4080
G01 X29.3638 Y4.3524
G01 X29.5327 Y4.2622
G01 X29.6097 Y4.2051
G01 X29.6850 Y4.1362
G01 X29.8055 Y3.9874
G01 X29.8543 Y3.9049
G01 X29.9141 Y3.7636
G01 X29.9141 Y4.5550
G01 X29.4960 Y4.9732
G01 X28.0900 Y4.9732
G01 X28.0165 Y4.9804
G01 X27.9070 Y5.0208
G01 X27.8510 Y5.0587
G01 X27.8028 Y5.1062
G01 X27.7419 Y5.2058
G01 X27.7146 Y5.3193
G01 X27.7150 Y6.5869
G01 X27.7294 Y6.6594
G01 X27.7577 Y6.7276
G01 X27.7987 Y6.7890
G01 X27.8510 Y6.8413
G01 X27.9516 Y6.9004
G01 X28.0165 Y6.9196
G01 X28.0838 Y6.9266
G01 X29.5900 Y6.9268
G01 X29.6929 Y6.9124
G01 X29.6522 Y6.9531
G01 X27.3900 Y6.9531
G01 X27.2806 Y6.9693
G01 X27.2069 Y7.0006
G01 X27.1257 Y7.0613
G01 X26.3803 Y7.8067
G01 X26.3138 Y7.8989
G01 X26.2807 Y7.9914
G01 X26.2721 Y8.0710
G01 X26.2721 Y10.9910
G01 X26.2793 Y11.0646
G01 X26.3008 Y11.1353
G01 X26.3356 Y11.2004
G01 X26.3803 Y11.2553
G01 X27.2599 Y12.1324
G01 X27.3490 Y12.1867
G01 X27.4254 Y12.2107
G01 X27.4959 Y12.2179
G01 X27.7381 Y12.2179
G01 X28.8299 Y13.3097
G01 X28.8848 Y13.3544
G01 X28.9443 Y13.3867
G01 X29.0207 Y13.4107
G01 X29.0911 Y13.4179
G01 X31.3700 Y13.4179
G01 X33.4081 Y15.4560
G01 X33.4081 Y17.5409
G01 X33.2612 Y17.5876
G01 X33.0976 Y17.6745
G01 X33.0106 Y17.7390
G01 X32.8840 Y17.8656
G01 X32.8195 Y17.9526
G01 X32.7326 Y18.1162
G01 X32.6783 Y18.2934
G01 X32.6624 Y18.4005
G01 X32.6624 Y18.5795
G01 X32.6770 Y18.6806
G01 X32.7303 Y18.8580
G01 X32.7735 Y18.9505
G01 X32.8761 Y19.1048
G01 X32.9443 Y19.1807
G01 X33.0202 Y19.2489
G01 X33.1691 Y19.3484
G01 X33.2612 Y19.3924
G01 X33.3574 Y19.4264
G01 X33.5331 Y19.4613
G01 X33.6288 Y19.4666
G01 X34.0307 Y19.4621
G01 X34.1316 Y19.4467
G01 X34.3030 Y19.3947
G01 X34.3955 Y19.3515
G01 X34.4828 Y19.2986
G01 X34.6212 Y19.1850
G01 X34.6901 Y19.1097
G01 X34.7472 Y19.0327
G01 X34.7993 Y18.9449
G01 X34.8678 Y18.7795
G01 X34.8917 Y18.6866
G01 X34.9071 Y18.5857
G01 X34.9118 Y18.4900
G01 X34.8930 Y18.2994
G01 X34.8374 Y18.1162
G01 X34.7472 Y17.9473
G01 X34.6257 Y17.7993
G01 X34.4777 Y17.6778
G01 X34.3088 Y17.5876
G01 X34.1619 Y17.5409
G01 X34.1619 Y15.2999
G01 X34.1499 Y15.2067
G01 X35.2729 Y16.3297
G01 X35.2729 Y19.2903
G01 X34.5495 Y20.0138
G01 X33.0288 Y20.0134
G01 X32.9615 Y20.0204
G01 X32.8966 Y20.0396
G01 X32.7960 Y20.0987
G01 X32.7437 Y20.1510
G01 X32.7027 Y20.2124
G01 X32.6744 Y20.2806
G01 X32.6600 Y20.3531
G01 X32.6582 Y21.2300
G01 X31.5163 Y22.3719
G01 X5.7087 Y22.3719
G01 X4.5068 Y21.1700
G01 X4.5042 Y20.2869
G01 X4.4804 Y20.1916
G01 X4.4466 Y20.1259
G01 X4.3964 Y20.0636
G01 X4.3393 Y20.0167
G01 X4.2394 Y19.9694
G01 X4.1362 Y19.9534
G01 X2.6300 Y19.9532
G01 X2.5147 Y19.9714
G01 X2.4524 Y19.9977
G01 X2.3910 Y20.0387
G01 X2.3387 Y20.0910
G01 X2.2949 Y20.1579
G01 X2.2618 Y20.2504
G01 X2.2532 Y20.3269
G01 X2.2546 Y21.5607
G01 X2.2819 Y21.6742
G01 X2.3387 Y21.7690
G01 X2.3910 Y21.8213
G01 X2.4524 Y21.8623
G01 X2.5206 Y21.8906
G01 X2.5931 Y21.9050
G01 X3.4700 Y21.9068
G01 X5.0078 Y23.4446
G01 X5.1059 Y23.5237
G01 X5.1590 Y23.5548
G01 X5.2611 Y23.5971
G01 X5.3328 Y23.6151
G01 X5.4490 Y23.6261
G01 X31.8436 Y23.6223
G01 X31.9520 Y23.6007
G01 X32.0160 Y23.5783
G01 X32.1191 Y23.5237
G01 X32.1785 Y23.4797
G01 X33.6950 Y21.9668
G01 X34.5719 Y21.9650
G01 X34.6792 Y21.9381
G01 X34.7740 Y21.8813
G01 X34.8483 Y21.7993
G01 X34.8956 Y21.6994
G01 X34.9104 Y21.6207
G01 X34.9118 Y21.4250
G01 X36.3456 Y19.9912
G01 X36.4247 Y19.8931
G01 X36.4768 Y19.7957
G01 X36.4981 Y19.7379
G01 X36.5161 Y19.6662
G01 X36.5271 Y19.5500
G01 X36.5271 Y16.0700
G01 X36.5233 Y16.0024
G01 X36.5017 Y15.8940
G01 X36.4530 Y15.7744
G01 X36.3885 Y15.6771
G01 X36.3434 Y15.6266
G01 X32.3634 Y11.6466
G01 X32.2684 Y11.5686
G01 X32.1743 Y11.5173
G01 X34.0618 Y11.5173
G01 X34.2387 Y11.6275
G01 X34.3775 Y11.6930
G01 X34.5278 Y11.7467
G01 X34.6888 Y11.7866
G01 X34.8405 Y11.8090
G01 X34.9938 Y11.8166
G01 X35.1595 Y11.8090
G01 X35.3234 Y11.7842
G01 X35.4722 Y11.7467
G01 X35.6167 Y11.6952
G01 X35.7669 Y11.6247
G01 X35.9038 Y11.5426
G01 X36.0320 Y11.4475
G01 X36.1503 Y11.3403
G01 X36.2614 Y11.2171
G01 X36.3526 Y11.0938
G01 X36.4316 Y10.9623
G01 X36.5004 Y10.8182
G01 X36.5568 Y10.6622
G01 X36.5942 Y10.5134
G01 X36.6190 Y10.3495
G01 X36.6268 Y10.1900
G01 X36.6190 Y10.0305
G01 X36.5955 Y9.8726
G01 X36.5568 Y9.7178
G01 X36.5030 Y9.5675
G01 X36.4347 Y9.4231
G01 X36.3491 Y9.2811
G01 X36.2575 Y9.1580
G01 X36.1546 Y9.0442
G01 X36.0367 Y8.9365
G01 X35.9038 Y8.8374
G01 X35.7669 Y8.7553
G01 X35.6225 Y8.6870
G01 X35.4662 Y8.6316
G01 X35.3174 Y8.5945
G01 X35.1656 Y8.5718
G01 X35.0000 Y8.5632
G01 X34.8344 Y8.5718
G01 X34.6826 Y8.5945
G01 X34.5338 Y8.6316
G01 X34.3775 Y8.6870
G01 X34.2331 Y8.7553
G01 X34.0962 Y8.8374
G01 X33.9633 Y8.9365
G01 X33.8454 Y9.0442
G01 X33.7425 Y9.1580
G01 X33.6646 Y9.2627
G01 X29.8900 Y9.2632
G01 X29.7806 Y9.2794
G01 X29.6807 Y9.3267
G01 X29.5987 Y9.4010
G01 X29.5419 Y9.4958
G01 X29.5158 Y9.5969
G01 X29.5132 Y11.1400
G01 X29.5276 Y11.2426
G01 X29.1299 Y10.8450
G01 X29.1799 Y10.7111
G01 X29.2051 Y10.6098
G01 X29.2214 Y10.5004
G01 X29.2268 Y10.3900
G01 X29.2218 Y10.2858
G01 X29.2051 Y10.1702
G01 X29.1783 Y10.0629
G01 X29.1433 Y9.9646
G01 X29.0907 Y9.8534
G01 X29.0369 Y9.7640
G01 X28.9710 Y9.6752
G01 X28.8521 Y9.5526
G01 X28.8521 Y9.2873
G01 X28.9813 Y9.1581
G01 X31.7840 Y9.1581
G01 X31.9246 Y9.1447
G01 X32.0082 Y9.1238
G01 X32.0775 Y9.0983
G01 X32.1966 Y9.0347
G01 X32.3136 Y8.9400
G01 X34.4368 Y6.8168
G01 X35.8359 Y6.8126
G01 X36.0104 Y6.7771
G01 X36.1578 Y6.7161
G01 X36.2371 Y6.6690
G01 X36.3700 Y6.5600
G01 X36.4824 Y6.4219
G01 X36.5575 Y6.2812
G01 X36.5871 Y6.2004
G01 X36.6218 Y6.0321
G01 X36.6268 Y4.4369
G01 X36.6100 Y4.2689
G01 X36.5623 Y4.1103
G01 X36.4754 Y3.9478
G01 X36.3743 Y3.8245
G01 X36.3062 Y3.7622
G01 X36.2319 Y3.7076
G01 X36.0912 Y3.6325
G01 X35.9149 Y3.5790
G01 X35.7500 Y3.5632
G01 X34.2438 Y3.5634
G01 X34.1579 Y3.5682
G01 X34.0015 Y3.5993
G01 X33.8367 Y3.6667
G01 X33.6938 Y3.7622
G01 X33.5684 Y3.8887
G01 X33.5176 Y3.9581
G01 X33.4425 Y4.0988
G01 X33.3900 Y4.2689
G01 X33.3732 Y4.4400
G01 X33.3732 Y5.7532
G01 X31.4725 Y7.6539
G01 X30.0005 Y7.6539
G01 X30.0726 Y7.5987
G01 X30.5783 Y7.0911
G01 X30.6262 Y7.0194
G01 X30.6607 Y6.9208
G01 X30.6679 Y6.8473
G01 X30.6679 Y5.4344
G01 X30.9872 Y5.1114
G01 X31.0402 Y5.0215
G01 X31.0671 Y4.9142
G01 X31.0689 Y2.7419
G01 X31.0617 Y2.6715
G01 X31.0402 Y2.6008
G01 X31.0054 Y2.5356
G01 X30.9607 Y2.4807
G01 X29.9593 Y1.4793
G01 X29.8991 Y1.4313
G01 X29.8103 Y1.3893
G01 X29.6950 Y1.3711
G01 X25.6720 Y1.3711
G01 X25.5924 Y1.3797
G01 X25.4999 Y1.4128
G01 X25.4055 Y1.4815
G01 X21.3739 Y5.5131
G01 X17.1054 Y5.5131
G01 X12.5768 Y0.9845
G01 X12.5144 Y0.9343
G01 X12.4256 Y0.8923
G01 X12.3102 Y0.8741
G01 X4.0590 Y0.8741
G01 X3.9794 Y0.8827
G01 X3.8813 Y0.9186
G01 X3.7947 Y0.9823
G01 X2.5237 Y2.2532
G01 X2.0519 Y2.2532
G01 X1.9132 Y2.2672
G01 X1.8381 Y2.2864
G01 X1.7124 Y2.3390
G01 X1.5988 Y2.4143
G01 X1.5368 Y2.4706
G01 X1.4507 Y2.5762
G01 X1.3835 Y2.7019
G01 X1.3422 Y2.8382
G01 X1.3282 Y2.9800
G01 X1.3422 Y3.1218
G01 X1.3835 Y3.2581
G01 X1.4507 Y3.3838
G01 X1.5456 Y3.4982
G01 X1.6512 Y3.5843
G01 X1.7712 Y3.6490
G01 X1.9071 Y3.6915
G01 X1.9900 Y3.7038
G01 X2.6762 Y3.7033
G01 X2.7529 Y3.6915
G01 X2.8773 Y3.6537
G01 X3.0088 Y3.5843
G01 X3.1189 Y3.4939
G01 X3.2093 Y3.3838
G01 X3.2765 Y3.2581
G01 X3.3165 Y3.1279
G01 X3.3318 Y2.9800
G01 X3.3189 Y2.8443
G01 X3.2787 Y2.7077
G01 X3.2310 Y2.6121
G01 X4.2151 Y1.6279
G01 X7.0926 Y1.6279
G01 X2.4660 Y6.2532
G01 X1.9900 Y6.2562
G01 X1.8440 Y6.2845
G01 X1.7179 Y6.3362
G01 X1.6461 Y6.3793
G01 X1.5411 Y6.4661
G01 X1.4543 Y6.5711
G01 X1.4112 Y6.6429
G01 X1.3578 Y6.7750
G01 X1.3317 Y6.9088
G01 X1.3317 Y7.0512
G01 X1.3578 Y7.1850
G01 X1.3860 Y7.2638
G01 X1.4507 Y7.3838
G01 X1.5411 Y7.4939
G01 X1.6461 Y7.5807
G01 X1.7124 Y7.6210
G01 X1.8381 Y7.6736
G01 X1.9132 Y7.6928
G01 X2.0519 Y7.7068
G01 X2.6081 Y7.7068
G00 Z2.0000
G00 X2.6131 Y7.9096
G01 F50.00
G01 Z-0.1000
G01 F100.00
G01 X2.7704 Y7.8946
G01 X2.8749 Y7.8696
G01 X3.0288 Y7.8072
G01 X3.1215 Y7.7530
G01 X3.2070 Y7.6881
G01 X3.3236 Y7.5698
G01 X3.3867 Y7.4828
G01 X3.4639 Y7.3358
G01 X3.4990 Y7.2343
G01 X3.5302 Y7.0711
G01 X3.5314 Y6.9050
G01 X3.5168 Y6.7986
G01 X3.4896 Y6.6948
G01 X3.4249 Y6.5418
G01 X3.3687 Y6.4503
G01 X3.2925 Y6.3552
G01 X5.2301 Y4.4177
G01 X5.2329 Y7.9252
G01 X5.2496 Y8.0377
G01 X5.2932 Y8.1776
G01 X5.3613 Y8.3074
G01 X5.4311 Y8.4010
G01 X5.2932 Y8.4547
G01 X5.1582 Y8.5503
G01 X3.4292 Y8.5503
G01 X3.3687 Y8.4503
G01 X3.2735 Y8.3343
G01 X3.1948 Y8.2613
G01 X3.1078 Y8.1983
G01 X2.9756 Y8.1276
G01 X2.8749 Y8.0904
G01 X2.7704 Y8.0654
G01 X2.6131 Y8.0504
G01 X2.0469 Y8.0504
G01 X1.8736 Y8.0682
G01 X1.7698 Y8.0954
G01 X1.6168 Y8.1601
G01 X1.5253 Y8.2163
G01 X1.4008 Y8.3196
G01 X1.4008 Y7.6404
G01 X1.5253 Y7.7437
G01 X1.6168 Y7.7999
G01 X1.7698 Y7.8646
G01 X1.8736 Y7.8918
G01 X2.0469 Y7.9096
G01 X2.6131 Y7.9096
G00 Z2.0000
G00 X2.6081 Y9.7068
G01 F50.00
G01 Z-0.1000
G01 F100.00
G01 X2.7407 Y9.6939
G01 X2.8160 Y9.6755
G01 X2.9421 Y9.6238
G01 X3.0139 Y9.5807
G01 X3.1144 Y9.4982
G01 X3.1707 Y9.4362
G01 X3.2460 Y9.3226
G01 X3.2950 Y9.2069
G01 X5.0845 Y9.2075
G01 X5.1406 Y9.2299
G01 X5.3581 Y9.3682
G01 X5.4325 Y9.4066
G01 X5.5482 Y9.4347
G01 X5.6793 Y9.4272
G01 X5.7533 Y9.4043
G01 X5.8271 Y9.3649
G01 X5.8918 Y9.3118
G01 X5.9449 Y9.2471
G01 X5.9843 Y9.1733
G01 X6.0086 Y9.0933
G01 X6.0168 Y9.0100
G01 X6.0072 Y8.9207
G01 X5.9843 Y8.8467
G01 X5.9482 Y8.7781
G01 X5.8655 Y8.6841
G01 X5.7533 Y8.6157
G01 X5.6318 Y8.5853
G01 X5.5420 Y8.5860
G01 X5.4267 Y8.6157
G01 X5.3529 Y8.6551
G01 X5.2205 Y8.7600
G01 X5.1659 Y8.7531
G01 X3.2950 Y8.7531
G01 X3.2488 Y8.6429
G01 X3.2093 Y8.5762
G01 X3.1628 Y8.5142
G01 X3.0708 Y8.4222
G01 X2.9421 Y8.3362
G01 X2.8219 Y8.2864
G01 X2.7468 Y8.2672
G01 X2.6081 Y8.2532
G01 X1.9776 Y8.2575
G01 X1.8500 Y8.2828
G01 X1.7769 Y8.3085
G01 X1.7070 Y8.3421
G01 X1.5939 Y8.4182
G01 X1.4932 Y8.5189
G01 X1.4140 Y8.6374
G01 X1.3595 Y8.7690
G01 X1.3317 Y8.9088
G01 X1.3317 Y9.0512
G01 X1.3595 Y9.1910
G01 X1.4140 Y9.3226
G01 X1.4932 Y9.4411
G01 X1.5892 Y9.5378
G01 X1.6565 Y9.5876
G01 X1.7769 Y9.6515
G01 X1.9071 Y9.6915
G01 X2.0519 Y9.7068
G01 X2.6081 Y9.7068
G00 Z2.0000
G00 X2.6131 Y9.9096
G01 F50.00
G01 Z-0.1000
G01 F100.00
G01 X2.7704 Y9.8946
G01 X2.8749 Y9.8696
G01 X2.9756 Y9.8324
G01 X3.1078 Y9.7617
G01 X3.1948 Y9.6987
G01 X3.2735 Y9.6257
G01 X3.3687 Y9.5097
G01 X3.4291 Y9.4098
G01 X5.0402 Y9.4104
G01 X5.2932 Y9.5653
G01 X5.3918 Y9.6075
G01 X5.5283 Y9.6366
G01 X5.6760 Y9.6334
G01 X5.2432 Y10.0663
G01 X5.1706 Y10.1501
G01 X3.0230 Y10.1501
G01 X2.8749 Y10.0904
G01 X2.6961 Y10.0548
G01 X2.0388 Y10.0507
G01 X1.8736 Y10.0682
G01 X1.6992 Y10.1211
G01 X1.5385 Y10.2070
G01 X1.4008 Y10.3196
G01 X1.4008 Y9.6404
G01 X1.5253 Y9.7437
G01 X1.6168 Y9.7999
G01 X1.7698 Y9.8646
G01 X1.8736 Y9.8918
G01 X2.0469 Y9.9096
G01 X2.6131 Y9.9096
G00 Z2.0000
G00 X1.4652 Y11.6987
G01 F50.00
G01 Z-0.1000
G01 F100.00
G01 X1.6027 Y11.7919
G01 X1.7143 Y11.8447
G01 X1.8736 Y11.8918
G01 X2.0469 Y11.9096
G01 X2.6961 Y11.9052
G01 X2.8749 Y11.8696
G01 X3.0230 Y11.8099
G01 X5.7002 Y11.8099
G01 X5.7002 Y13.0665
G01 X4.9788 Y12.3490
G01 X4.8312 Y12.2481
G01 X4.6809 Y12.1858
G01 X4.5860 Y12.1633
G01 X4.4481 Y12.1502
G01 X3.2800 Y12.1501
G01 X3.2138 Y12.1115
G01 X3.1233 Y12.0753
G01 X3.0521 Y12.0587
G01 X2.9631 Y12.0504
G01 X1.6643 Y12.0519
G01 X1.5367 Y12.0753
G01 X1.4008 Y12.1368
G01 X1.4008 Y11.6404
G01 X1.4652 Y11.6987
G00 Z2.0000
G00 X0.4459 Y15.9079
G01 F50.00
G01 Z-0.1000
G01 F100.00
G01 X0.4753 Y16.0209
G01 X0.5076 Y16.0804
G01 X0.5523 Y16.1353
G01 X2.3752 Y17.9582
G01 X2.3253 Y18.0620
G01 X2.2709 Y18.2456
G01 X2.2532 Y18.4300
G01 X2.2720 Y18.6206
G01 X2.3276 Y18.8038
G01 X2.4145 Y18.9674
G01 X2.4790 Y19.0544
G01 X2.6103 Y19.1851
G01 X2.6926 Y19.2455
G01 X2.8505 Y19.3299
G01 X2.9464 Y19.3647
G01 X3.0394 Y19.3880
G01 X3.2269 Y19.4068
G01 X3.6257 Y19.4021
G01 X3.8136 Y19.3647
G01 X3.9905 Y19.2915
G01 X4.1497 Y19.1851
G01 X4.2851 Y19.0497
G01 X4.3915 Y18.8905
G01 X4.4628 Y18.7195
G01 X4.4891 Y18.6144
G01 X4.5066 Y18.4238
G01 X4.4880 Y18.2394
G01 X4.4324 Y18.0562
G01 X4.3422 Y17.8873
G01 X4.2250 Y17.7438
G01 X4.1448 Y17.6711
G01 X3.9905 Y17.5685
G01 X3.8195 Y17.4972
G01 X3.7206 Y17.4720
G01 X3.5362 Y17.4534
G01 X3.2269 Y17.4532
G01 X3.1281 Y17.4587
G01 X2.9718 Y17.4888
G01 X1.1979 Y15.7149
G01 X1.1979 Y6.6451
G01 X2.1363 Y5.7068
G01 X2.6112 Y5.7066
G01 X2.7407 Y5.6939
G01 X2.8160 Y5.6755
G01 X2.9421 Y5.6238
G01 X3.0139 Y5.5807
G01 X3.1189 Y5.4939
G01 X3.2093 Y5.3838
G01 X3.2787 Y5.2523
G01 X3.3165 Y5.1279
G01 X3.3283 Y5.0512
G01 X3.3316 Y4.9738
G01 X3.3189 Y4.8443
G01 X3.2765 Y4.7019
G01 X3.2429 Y4.6320
G01 X3.1707 Y4.5238
G01 X3.0661 Y4.4182
G01 X3.0035 Y4.3724
G01 X2.8888 Y4.3110
G01 X2.7468 Y4.2672
G01 X2.6050 Y4.2532
G01 X2.0519 Y4.2532
G01 X1.9193 Y4.2661
G01 X1.8381 Y4.2864
G01 X1.7124 Y4.3390
G01 X1.6461 Y4.3793
G01 X1.5456 Y4.4618
G01 X1.4893 Y4.5238
G01 X1.4112 Y4.6429
G01 X1.3595 Y4.7690
G01 X1.3325 Y4.9026
G01 X1.3284 Y4.9862
G01 X1.3422 Y5.1218
G01 X1.3813 Y5.2523
G01 X1.4290 Y5.3479
G01 X0.5502 Y6.2270
G01 X0.4886 Y6.3113
G01 X0.4513 Y6.4155
G01 X0.4441 Y6.4890
G01 X0.4459 Y15.9079
G00 Z2.0000
G00 X6.4637 Y14.6023
G01 F50.00
G01 Z-0.1000
G01 F100.00
G01 X6.4641 Y14.6092
G01 X6.4585 Y14.6148
G01 X6.4615 Y14.6081
G01 X6.4637 Y14.6023
G00 Z2.0000
G00 X6.4590 Y14.0462
G01 F50.00
G01 Z-0.1000
G01 F100.00
G01 X6.4641 Y14.0508
G01 X6.4641 Y14.0587
G01 X6.4615 Y14.0519
G01 X6.4590 Y14.0462
G00 Z2.0000
G00 X11.4309 Y15.8282
G01 F50.00
G01 Z-0.1000
G01 F100.00
G01 X11.4073 Y15.6703
G01 X11.3670 Y15.5095
G01 X11.3112 Y15.3533
G01 X11.2403 Y15.2034
G01 X11.1550 Y15.0612
G01 X11.0562 Y14.9280
G01 X10.9449 Y14.8051
G01 X10.8220 Y14.6938
G01 X10.6888 Y14.5950
G01 X10.5466 Y14.5097
G01 X10.3967 Y14.4388
G01 X10.2405 Y14.3830
G01 X10.0797 Y14.3427
G01 X9.9156 Y14.3183
G01 X9.7500 Y14.3102
G01 X9.5844 Y14.3183
G01 X9.4203 Y14.3427
G01 X9.2595 Y14.3830
G01 X9.1033 Y14.4388
G01 X8.9534 Y14.5097
G01 X8.8112 Y14.5950
G01 X8.6780 Y14.6938
G01 X8.5551 Y14.8051
G01 X8.4438 Y14.9280
G01 X8.3450 Y15.0612
G01 X8.2597 Y15.2034
G01 X8.1888 Y15.3533
G01 X8.1330 Y15.5095
G01 X8.0927 Y15.6703
G01 X8.0683 Y15.8344
G01 X8.0602 Y16.0000
G01 X8.0683 Y16.1656
G01 X8.0927 Y16.3297
G01 X8.1330 Y16.4905
G01 X8.1888 Y16.6467
G01 X8.2597 Y16.7966
G01 X8.3450 Y16.9388
G01 X8.4438 Y17.0720
G01 X8.5551 Y17.1949
G01 X8.6780 Y17.3062
G01 X8.8112 Y17.4050
G01 X8.9534 Y17.4903
G01 X9.1033 Y17.5612
G01 X9.2595 Y17.6170
G01 X9.4203 Y17.6573
G01 X9.5844 Y17.6817
G01 X9.7500 Y17.6898
G01 X9.9156 Y17.6817
G01 X10.0797 Y17.6573
G01 X10.2405 Y17.6170
G01 X10.3967 Y17.5612
G01 X10.5466 Y17.4903
G01 X10.6888 Y17.4050
G01 X10.8220 Y17.3062
G01 X10.9449 Y17.1949
G01 X11.0562 Y17.0720
G01 X11.1550 Y16.9388
G01 X11.2403 Y16.7966
G01 X11.3112 Y16.6467
G01 X11.3670 Y16.4905
G01 X11.4073 Y16.3297
G01 X11.4317 Y16.1656
G01 X11.4398 Y16.0000
G01 X11.4309 Y15.8282
G00 Z2.0000
G00 X11.6316 Y15.7984
G01 F50.00
G01 Z-0.1000
G01 F100.00
G01 X11.6063 Y15.6308
G01 X11.5612 Y15.4506
G01 X11.4986 Y15.2757
G01 X11.4192 Y15.1078
G01 X11.3237 Y14.9485
G01 X11.2131 Y14.7993
G01 X11.0883 Y14.6617
G01 X10.9507 Y14.5369
G01 X10.8015 Y14.4263
G01 X10.6422 Y14.3308
G01 X10.4743 Y14.2514
G01 X10.2994 Y14.1888
G01 X10.1192 Y14.1437
G01 X9.9355 Y14.1164
G01 X9.7500 Y14.1073
G01 X9.5645 Y14.1164
G01 X9.3808 Y14.1437
G01 X9.2006 Y14.1888
G01 X9.0257 Y14.2514
G01 X8.8578 Y14.3308
G01 X8.6985 Y14.4263
G01 X8.5493 Y14.5369
G01 X8.4117 Y14.6617
G01 X8.2869 Y14.7993
G01 X8.1763 Y14.9485
G01 X8.0808 Y15.1078
G01 X8.0014 Y15.2757
G01 X7.9388 Y15.4506
G01 X7.8937 Y15.6308
G01 X7.8664 Y15.8145
G01 X7.8573 Y16.0000
G01 X7.8664 Y16.1855
G01 X7.8937 Y16.3692
G01 X7.9388 Y16.5494
G01 X8.0014 Y16.7243
G01 X8.0808 Y16.8922
G01 X8.1763 Y17.0515
G01 X8.2869 Y17.2007
G01 X8.4117 Y17.3383
G01 X8.5493 Y17.4631
G01 X8.6985 Y17.5737
G01 X8.8578 Y17.6692
G01 X9.0257 Y17.7486
G01 X9.2006 Y17.8112
G01 X9.3808 Y17.8563
G01 X9.5645 Y17.8836
G01 X9.7500 Y17.8927
G01 X9.9355 Y17.8836
G01 X10.1192 Y17.8563
G01 X10.2994 Y17.8112
G01 X10.4743 Y17.7486
G01 X10.6422 Y17.6692
G01 X10.8015 Y17.5737
G01 X10.9507 Y17.4631
G01 X11.0883 Y17.3383
G01 X11.2131 Y17.2007
G01 X11.3237 Y17.0515
G01 X11.4192 Y16.8922
G01 X11.4986 Y16.7243
G01 X11.5612 Y16.5494
G01 X11.6063 Y16.3692
G01 X11.6336 Y16.1855
G01 X11.6427 Y16.0000
G01 X11.6316 Y15.7984
G00 Z2.0000
G00 X15.8121 Y14.6343
G01 F50.00
G01 Z-0.1000
G01 F100.00
G01 X15.7747 Y14.4464
G01 X15.7015 Y14.2695
G01 X15.5951 Y14.1103
G01 X15.4597 Y13.9749
G01 X15.3005 Y13.8685
G01 X15.1236 Y13.7953
G01 X14.9357 Y13.7579
G01 X14.7443 Y13.7579
G01 X14.5564 Y13.7953
G01 X14.3795 Y13.8685
G01 X14.2203 Y13.9749
G01 X14.0849 Y14.1103
G01 X13.9785 Y14.2695
G01 X13.9053 Y14.4464
G01 X13.8679 Y14.6343
G01 X13.8679 Y14.8257
G01 X13.9053 Y15.0136
G01 X13.9785 Y15.1905
G01 X14.0849 Y15.3497
G01 X14.2203 Y15.4851
G01 X14.3795 Y15.5915
G01 X14.5564 Y15.6647
G01 X14.7443 Y15.7021
G01 X14.9357 Y15.7021
G01 X15.1236 Y15.6647
G01 X15.3005 Y15.5915
G01 X15.4597 Y15.4851
G01 X15.5951 Y15.3497
G01 X15.7015 Y15.1905
G01 X15.7747 Y15.0136
G01 X15.8121 Y14.8257
G01 X15.8121 Y14.6343
G00 Z2.0000
G00 X16.0140 Y14.6144
G01 F50.00
G01 Z-0.1000
G01 F100.00
G01 X15.9970 Y14.4999
G01 X15.9689 Y14.3876
G01 X15.9299 Y14.2786
G01 X15.8804 Y14.1739
G01 X15.8209 Y14.0746
G01 X15.7519 Y13.9816
G01 X15.6742 Y13.8958
G01 X15.5884 Y13.8181
G01 X15.4954 Y13.7491
G01 X15.3961 Y13.6896
G01 X15.2914 Y13.6401
G01 X15.1824 Y13.6011
G01 X15.0701 Y13.5730
G01 X14.9556 Y13.5560
G01 X14.8400 Y13.5503
G01 X14.7244 Y13.5560
G01 X14.6099 Y13.5730
G01 X14.4976 Y13.6011
G01 X14.3886 Y13.6401
G01 X14.2839 Y13.6896
G01 X14.1846 Y13.7491
G01 X14.0916 Y13.8181
G01 X14.0058 Y13.8958
G01 X13.9281 Y13.9816
G01 X13.8591 Y14.0746
G01 X13.7996 Y14.1739
G01 X13.7501 Y14.2786
G01 X13.7111 Y14.3876
G01 X13.6830 Y14.4999
G01 X13.6660 Y14.6144
G01 X13.6603 Y14.7300
G01 X13.6660 Y14.8456
G01 X13.6830 Y14.9601
G01 X13.7111 Y15.0724
G01 X13.7501 Y15.1814
G01 X13.7996 Y15.2861
G01 X13.8591 Y15.3854
G01 X13.9281 Y15.4784
G01 X14.0058 Y15.5642
G01 X14.0916 Y15.6419
G01 X14.1846 Y15.7109
G01 X14.2839 Y15.7704
G01 X14.3886 Y15.8199
G01 X14.4976 Y15.8589
G01 X14.6099 Y15.8870
G01 X14.7244 Y15.9040
G01 X14.8400 Y15.9097
G01 X14.9556 Y15.9040
G01 X15.0701 Y15.8870
G01 X15.1824 Y15.8589
G01 X15.2914 Y15.8199
G01 X15.3961 Y15.7704
G01 X15.4954 Y15.7109
G01 X15.5884 Y15.6419
G01 X15.6742 Y15.5642
G01 X15.7519 Y15.4784
G01 X15.8209 Y15.3854
G01 X15.8804 Y15.2861
G01 X15.9299 Y15.1814
G01 X15.9689 Y15.0724
G01 X15.9970 Y14.9601
G01 X16.0140 Y14.8456
G01 X16.0197 Y14.7300
G01 X16.0140 Y14.6144
G00 Z2.0000
G00 X18.3513 Y14.6281
G01 F50.00
G01 Z-0.1000
G01 F100.00
G01 X18.3147 Y14.4464
G01 X18.2415 Y14.2695
G01 X18.1351 Y14.1103
G01 X17.9997 Y13.9749
G01 X17.8405 Y13.8685
G01 X17.6636 Y13.7953
G01 X17.4757 Y13.7579
G01 X17.2843 Y13.7579
G01 X17.0964 Y13.7953
G01 X16.9195 Y13.8685
G01 X16.7603 Y13.9749
G01 X16.6249 Y14.1103
G01 X16.5185 Y14.2695
G01 X16.4453 Y14.4464
G01 X16.4079 Y14.6343
G01 X16.4079 Y14.8257
G01 X16.4453 Y15.0136
G01 X16.5185 Y15.1905
G01 X16.6249 Y15.3497
G01 X16.7603 Y15.4851
G01 X16.9195 Y15.5915
G01 X17.0964 Y15.6647
G01 X17.2843 Y15.7021
G01 X17.4757 Y15.7021
G01 X17.6636 Y15.6647
G01 X17.8405 Y15.5915
G01 X17.9997 Y15.4851
G01 X18.1351 Y15.3497
G01 X18.2415 Y15.1905
G01 X18.3147 Y15.0136
G01 X18.3521 Y14.8257
G01 X18.3568 Y14.7300
G01 X18.3513 Y14.6281
G00 Z2.0000
G00 X18.5520 Y14.5983
G01 F50.00
G01 Z-0.1000
G01 F100.00
G01 X18.5370 Y14.4999
G01 X18.5089 Y14.3876
G01 X18.4699 Y14.2786
G01 X18.4204 Y14.1739
G01 X18.3609 Y14.0746
G01 X18.2919 Y13.9816
G01 X18.2142 Y13.8958
G01 X18.1284 Y13.8181
G01 X18.0354 Y13.7491
G01 X17.9361 Y13.6896
G01 X17.8314 Y13.6401
G01 X17.7224 Y13.6011
G01 X17.6101 Y13.5730
G01 X17.4956 Y13.5560
G01 X17.3800 Y13.5503
G01 X17.2644 Y13.5560
G01 X17.1499 Y13.5730
G01 X17.0376 Y13.6011
G01 X16.9286 Y13.6401
G01 X16.8239 Y13.6896
G01 X16.7246 Y13.7491
G01 X16.6316 Y13.8181
G01 X16.5458 Y13.8958
G01 X16.4681 Y13.9816
G01 X16.3991 Y14.0746
G01 X16.3396 Y14.1739
G01 X16.2901 Y14.2786
G01 X16.2511 Y14.3876
G01 X16.2230 Y14.4999
G01 X16.2060 Y14.6144
G01 X16.2003 Y14.7300
G01 X16.2060 Y14.8456
G01 X16.2230 Y14.9601
G01 X16.2511 Y15.0724
G01 X16.2901 Y15.1814
G01 X16.3396 Y15.2861
G01 X16.3991 Y15.3854
G01 X16.4681 Y15.4784
G01 X16.5458 Y15.5642
G01 X16.6316 Y15.6419
G01 X16.7246 Y15.7109
G01 X16.8239 Y15.7704
G01 X16.9286 Y15.8199
G01 X17.0376 Y15.8589
G01 X17.1499 Y15.8870
G01 X17.2644 Y15.9040
G01 X17.3800 Y15.9097
G01 X17.4956 Y15.9040
G01 X17.6101 Y15.8870
G01 X17.7224 Y15.8589
G01 X17.8314 Y15.8199
G01 X17.9361 Y15.7704
G01 X18.0354 Y15.7109
G01 X18.1284 Y15.6419
G01 X18.2142 Y15.5642
G01 X18.2919 Y15.4784
G01 X18.3609 Y15.3854
G01 X18.4204 Y15.2861
G01 X18.4699 Y15.1814
G01 X18.5089 Y15.0724
G01 X18.5370 Y14.9601
G01 X18.5540 Y14.8456
G01 X18.5597 Y14.7300
G01 X18.5520 Y14.5983
G00 Z2.0000
G00 X20.8913 Y14.6281
G01 F50.00
G01 Z-0.1000
G01 F100.00
G01 X20.8547 Y14.4464
G01 X20.7815 Y14.2695
G01 X20.6751 Y14.1103
G01 X20.5397 Y13.9749
G01 X20.3805 Y13.8685
G01 X20.2036 Y13.7953
G01 X20.0157 Y13.7579
G01 X19.8243 Y13.7579
G01 X19.6364 Y13.7953
G01 X19.4595 Y13.8685
G01 X19.3003 Y13.9749
G01 X19.1649 Y14.1103
G01 X19.0585 Y14.2695
G01 X18.9853 Y14.4464
G01 X18.9479 Y14.6343
G01 X18.9479 Y14.8257
G01 X18.9853 Y15.0136
G01 X19.0585 Y15.1905
G01 X19.1649 Y15.3497
G01 X19.3003 Y15.4851
G01 X19.4595 Y15.5915
G01 X19.6364 Y15.6647
G01 X19.8243 Y15.7021
G01 X20.0157 Y15.7021
G01 X20.2036 Y15.6647
G01 X20.3805 Y15.5915
G01 X20.5397 Y15.4851
G01 X20.6751 Y15.3497
G01 X20.7815 Y15.1905
G01 X20.8547 Y15.0136
G01 X20.8921 Y14.8257
G01 X20.8968 Y14.7300
G01 X20.8913 Y14.6281
G00 Z2.0000
G00 X21.0920 Y14.5983
G01 F50.00
G01 Z-0.1000
G01 F100.00
G01 X21.0770 Y14.4999
G01 X21.0489 Y14.3876
G01 X21.0099 Y14.2786
G01 X20.9604 Y14.1739
G01 X20.9009 Y14.0746
G01 X20.8319 Y13.9816
G01 X20.7542 Y13.8958
G01 X20.6684 Y13.8181
G01 X20.5754 Y13.7491
G01 X20.4761 Y13.6896
G01 X20.3714 Y13.6401
G01 X20.2624 Y13.6011
G01 X20.1501 Y13.5730
G01 X20.0356 Y13.5560
G01 X19.9200 Y13.5503
G01 X19.8044 Y13.5560
G01 X19.6899 Y13.5730
G01 X19.5776 Y13.6011
G01 X19.4686 Y13.6401
G01 X19.3639 Y13.6896
G01 X19.2646 Y13.7491
G01 X19.1716 Y13.8181
G01 X19.0858 Y13.8958
G01 X19.0081 Y13.9816
G01 X18.9391 Y14.0746
G01 X18.8796 Y14.1739
G01 X18.8301 Y14.2786
G01 X18.7911 Y14.3876
G01 X18.7630 Y14.4999
G01 X18.7460 Y14.6144
G01 X18.7403 Y14.7300
G01 X18.7460 Y14.8456
G01 X18.7630 Y14.9601
G01 X18.7911 Y15.0724
G01 X18.8301 Y15.1814
G01 X18.8796 Y15.2861
G01 X18.9391 Y15.3854
G01 X19.0081 Y15.4784
G01 X19.0858 Y15.5642
G01 X19.1716 Y15.6419
G01 X19.2646 Y15.7109
G01 X19.3639 Y15.7704
G01 X19.4686 Y15.8199
G01 X19.5776 Y15.8589
G01 X19.6899 Y15.8870
G01 X19.8044 Y15.9040
G01 X19.9200 Y15.9097
G01 X20.0356 Y15.9040
G01 X20.1501 Y15.8870
G01 X20.2624 Y15.8589
G01 X20.3714 Y15.8199
G01 X20.4761 Y15.7704
G01 X20.5754 Y15.7109
G01 X20.6684 Y15.6419
G01 X20.7542 Y15.5642
G01 X20.8319 Y15.4784
G01 X20.9009 Y15.3854
G01 X20.9604 Y15.2861
G01 X21.0099 Y15.1814
G01 X21.0489 Y15.0724
G01 X21.0770 Y14.9601
G01 X21.0940 Y14.8456
G01 X21.0997 Y14.7300
G01 X21.0920 Y14.5983
G00 Z2.0000
G00 X23.3347 Y15.7044
G01 F50.00
G01 Z-0.1000
G01 F100.00
G01 X23.3752 Y15.6888
G01 X23.4080 Y15.6604
G01 X23.4294 Y15.6227
G01 X23.4368 Y15.5831
G01 X23.4368 Y13.8769
G01 X23.4271 Y13.8315
G01 X23.4040 Y13.7948
G01 X23.3585 Y13.7629
G01 X23.3100 Y13.7532
G01 X21.6069 Y13.7532
G01 X21.5615 Y13.7629
G01 X21.5248 Y13.7860
G01 X21.4929 Y13.8315
G01 X21.4832 Y13.8800
G01 X21.4832 Y15.5831
G01 X21.4929 Y15.6285
G01 X21.5160 Y15.6652
G01 X21.5558 Y15.6946
G01 X21.6069 Y15.7068
G01 X23.3347 Y15.7044
G00 Z2.0000
G00 X23.3743 Y15.9033
G01 F50.00
G01 Z-0.1000
G01 F100.00
G01 X23.4795 Y15.8628
G01 X23.5543 Y15.8014
G01 X23.6080 Y15.7210
G01 X23.6381 Y15.6123
G01 X23.6393 Y13.8638
G01 X23.6146 Y13.7538
G01 X23.5543 Y13.6586
G01 X23.5064 Y13.6152
G01 X23.4362 Y13.5754
G01 X23.3743 Y13.5567
G01 X23.3100 Y13.5503
G01 X21.5938 Y13.5507
G01 X21.4838 Y13.5754
G01 X21.3886 Y13.6357
G01 X21.3452 Y13.6836
G01 X21.3054 Y13.7538
G01 X21.2867 Y13.8157
G01 X21.2803 Y13.8800
G01 X21.2807 Y15.5962
G01 X21.3054 Y15.7062
G01 X21.3657 Y15.8014
G01 X21.4136 Y15.8448
G01 X21.4690 Y15.8780
G01 X21.5299 Y15.8998
G01 X21.5938 Y15.9093
G01 X23.3100 Y15.9097
G01 X23.3743 Y15.9033
G00 Z2.0000
G00 X23.6320 Y17.1383
G01 F50.00
G01 Z-0.1000
G01 F100.00
G01 X23.6170 Y17.0399
G01 X23.5889 Y16.9276
G01 X23.5499 Y16.8186
G01 X23.5004 Y16.7139
G01 X23.4409 Y16.6146
G01 X23.3719 Y16.5216
G01 X23.2942 Y16.4358
G01 X23.2084 Y16.3581
G01 X23.1154 Y16.2891
G01 X23.0161 Y16.2296
G01 X22.9114 Y16.1801
G01 X22.8024 Y16.1411
G01 X22.6901 Y16.1130
G01 X22.5756 Y16.0960
G01 X22.4600 Y16.0903
G01 X22.3444 Y16.0960
G01 X22.2299 Y16.1130
G01 X22.1176 Y16.1411
G01 X22.0086 Y16.1801
G01 X21.9039 Y16.2296
G01 X21.8046 Y16.2891
G01 X21.7116 Y16.3581
G01 X21.6258 Y16.4358
G01 X21.5481 Y16.5216
G01 X21.4791 Y16.6146
G01 X21.4196 Y16.7139
G01 X21.3701 Y16.8186
G01 X21.3311 Y16.9276
G01 X21.3030 Y17.0399
G01 X21.2860 Y17.1544
G01 X21.2803 Y17.2700
G01 X21.2860 Y17.3856
G01 X21.3030 Y17.5001
G01 X21.3311 Y17.6124
G01 X21.3701 Y17.7214
G01 X21.4196 Y17.8261
G01 X21.4791 Y17.9254
G01 X21.5481 Y18.0184
G01 X21.6258 Y18.1042
G01 X21.7116 Y18.1819
G01 X21.8046 Y18.2509
G01 X21.9039 Y18.3104
G01 X22.0086 Y18.3599
G01 X22.1176 Y18.3989
G01 X22.2299 Y18.4270
G01 X22.3444 Y18.4440
G01 X22.4600 Y18.4497
G01 X22.5756 Y18.4440
G01 X22.6901 Y18.4270
G01 X22.8024 Y18.3989
G01 X22.9114 Y18.3599
G01 X23.0161 Y18.3104
G01 X23.1154 Y18.2509
G01 X23.2084 Y18.1819
G01 X23.2942 Y18.1042
G01 X23.3719 Y18.0184
G01 X23.4409 Y17.9254
G01 X23.5004 Y17.8261
G01 X23.5499 Y17.7214
G01 X23.5889 Y17.6124
G01 X23.6170 Y17.5001
G01 X23.6340 Y17.3856
G01 X23.6397 Y17.2700
G01 X23.6320 Y17.1383
G00 Z2.0000
G00 X23.4313 Y17.1681
G01 F50.00
G01 Z-0.1000
G01 F100.00
G01 X23.3947 Y16.9864
G01 X23.3215 Y16.8095
G01 X23.2151 Y16.6503
G01 X23.0797 Y16.5149
G01 X22.9205 Y16.4085
G01 X22.7436 Y16.3353
G01 X22.5557 Y16.2979
G01 X22.3643 Y16.2979
G01 X22.1764 Y16.3353
G01 X21.9995 Y16.4085
G01 X21.8403 Y16.5149
G01 X21.7049 Y16.6503
G01 X21.5985 Y16.8095
G01 X21.5253 Y16.9864
G01 X21.4879 Y17.1743
G01 X21.4879 Y17.3657
G01 X21.5253 Y17.5536
G01 X21.5985 Y17.7305
G01 X21.7049 Y17.8897
G01 X21.8403 Y18.0251
G01 X21.9995 Y18.1315
G01 X22.1764 Y18.2047
G01 X22.3643 Y18.2421
G01 X22.5557 Y18.2421
G01 X22.7436 Y18.2047
G01 X22.9205 Y18.1315
G01 X23.0797 Y18.0251
G01 X23.2151 Y17.8897
G01 X23.3215 Y17.7305
G01 X23.3947 Y17.5536
G01 X23.4321 Y17.3657
G01 X23.4368 Y17.2700
G01 X23.4313 Y17.1681
G00 Z2.0000
G00 X21.0920 Y17.1383
G01 F50.00
G01 Z-0.1000
G01 F100.00
G01 X21.0770 Y17.0399
G01 X21.0489 Y16.9276
G01 X21.0099 Y16.8186
G01 X20.9604 Y16.7139
G01 X20.9009 Y16.6146
G01 X20.8319 Y16.5216
G01 X20.7542 Y16.4358
G01 X20.6684 Y16.3581
G01 X20.5754 Y16.2891
G01 X20.4761 Y16.2296
G01 X20.3714 Y16.1801
G01 X20.2624 Y16.1411
G01 X20.1501 Y16.1130
G01 X20.0356 Y16.0960
G01 X19.9200 Y16.0903
G01 X19.8044 Y16.0960
G01 X19.6899 Y16.1130
G01 X19.5776 Y16.1411
G01 X19.4686 Y16.1801
G01 X19.3639 Y16.2296
G01 X19.2646 Y16.2891
G01 X19.1716 Y16.3581
G01 X19.0858 Y16.4358
G01 X19.0081 Y16.5216
G01 X18.9391 Y16.6146
G01 X18.8796 Y16.7139
G01 X18.8301 Y16.8186
G01 X18.7911 Y16.9276
G01 X18.7630 Y17.0399
G01 X18.7460 Y17.1544
G01 X18.7403 Y17.2700
G01 X18.7460 Y17.3856
G01 X18.7630 Y17.5001
G01 X18.7911 Y17.6124
G01 X18.8301 Y17.7214
G01 X18.8796 Y17.8261
G01 X18.9391 Y17.9254
G01 X19.0081 Y18.0184
G01 X19.0858 Y18.1042
G01 X19.1716 Y18.1819
G01 X19.2646 Y18.2509
G01 X19.3639 Y18.3104
G01 X19.4686 Y18.3599
G01 X19.5776 Y18.3989
G01 X19.6899 Y18.4270
G01 X19.8044 Y18.4440
G01 X19.9200 Y18.4497
G01 X20.0356 Y18.4440
G01 X20.1501 Y18.4270
G01 X20.2624 Y18.3989
G01 X20.3714 Y18.3599
G01 X20.4761 Y18.3104
G01 X20.5754 Y18.2509
G01 X20.6684 Y18.1819
G01 X20.7542 Y18.1042
G01 X20.8319 Y18.0184
G01 X20.9009 Y17.9254
G01 X20.9604 Y17.8261
G01 X21.0099 Y17.7214
G01 X21.0489 Y17.6124
G01 X21.0770 Y17.5001
G01 X21.0940 Y17.3856
G01 X21.0997 Y17.2700
G01 X21.0920 Y17.1383
G00 Z2.0000
G00 X20.8913 Y17.1681
G01 F50.00
G01 Z-0.1000
G01 F100.00
G01 X20.8547 Y16.9864
G01 X20.7815 Y16.8095
G01 X20.6751 Y16.6503
G01 X20.5397 Y16.5149
G01 X20.3805 Y16.4085
G01 X20.2036 Y16.3353
G01 X20.0157 Y16.2979
G01 X19.8243 Y16.2979
G01 X19.6364 Y16.3353
G01 X19.4595 Y16.4085
G01 X19.3003 Y16.5149
G01 X19.1649 Y16.6503
G01 X19.0585 Y16.8095
G01 X18.9853 Y16.9864
G01 X18.9479 Y17.1743
G01 X18.9479 Y17.3657
G01 X18.9853 Y17.5536
G01 X19.0585 Y17.7305
G01 X19.1649 Y17.8897
G01 X19.3003 Y18.0251
G01 X19.4595 Y18.1315
G01 X19.6364 Y18.2047
G01 X19.8243 Y18.2421
G01 X20.0157 Y18.2421
G01 X20.2036 Y18.2047
G01 X20.3805 Y18.1315
G01 X20.5397 Y18.0251
G01 X20.6751 Y17.8897
G01 X20.7815 Y17.7305
G01 X20.8547 Y17.5536
G01 X20.8921 Y17.3657
G01 X20.8968 Y17.2700
G01 X20.8913 Y17.1681
G00 Z2.0000
G00 X16.0140 Y17.1544
G01 F50.00
G01 Z-0.1000
G01 F100.00
G01 X15.9970 Y17.0399
G01 X15.9689 Y16.9276
G01 X15.9299 Y16.8186
G01 X15.8804 Y16.7139
G01 X15.8209 Y16.6146
G01 X15.7519 Y16.5216
G01 X15.6742 Y16.4358
G01 X15.5884 Y16.3581
G01 X15.4954 Y16.2891
G01 X15.3961 Y16.2296
G01 X15.2914 Y16.1801
G01 X15.1824 Y16.1411
G01 X15.0701 Y16.1130
G01 X14.9556 Y16.0960
G01 X14.8400 Y16.0903
G01 X14.7244 Y16.0960
G01 X14.6099 Y16.1130
G01 X14.4976 Y16.1411
G01 X14.3886 Y16.1801
G01 X14.2839 Y16.2296
G01 X14.1846 Y16.2891
G01 X14.0916 Y16.3581
G01 X14.0058 Y16.4358
G01 X13.9281 Y16.5216
G01 X13.8591 Y16.6146
G01 X13.7996 Y16.7139
G01 X13.7501 Y16.8186
G01 X13.7111 Y16.9276
G01 X13.6830 Y17.0399
G01 X13.6660 Y17.1544
G01 X13.6603 Y17.2700
G01 X13.6660 Y17.3856
G01 X13.6830 Y17.5001
G01 X13.7111 Y17.6124
G01 X13.7501 Y17.7214
G01 X13.7996 Y17.8261
G01 X13.8591 Y17.9254
G01 X13.9281 Y18.0184
G01 X14.0058 Y18.1042
G01 X14.0916 Y18.1819
G01 X14.1846 Y18.2509
G01 X14.2839 Y18.3104
G01 X14.3886 Y18.3599
G01 X14.4976 Y18.3989
G01 X14.6099 Y18.4270
G01 X14.7244 Y18.4440
G01 X14.8400 Y18.4497
G01 X14.9556 Y18.4440
G01 X15.0701 Y18.4270
G01 X15.1824 Y18.3989
G01 X15.2914 Y18.3599
G01 X15.3961 Y18.3104
G01 X15.4954 Y18.2509
G01 X15.5884 Y18.1819
G01 X15.6742 Y18.1042
G01 X15.7519 Y18.0184
G01 X15.8209 Y17.9254
G01 X15.8804 Y17.8261
G01 X15.9299 Y17.7214
G01 X15.9689 Y17.6124
G01 X15.9970 Y17.5001
G01 X16.0140 Y17.3856
G01 X16.0197 Y17.2700
G01 X16.0140 Y17.1544
G00 Z2.0000
G00 X15.8121 Y17.1743
G01 F50.00
G01 Z-0.1000
G01 F100.00
G01 X15.7747 Y16.9864
G01 X15.7015 Y16.8095
G01 X15.5951 Y16.6503
G01 X15.4597 Y16.5149
G01 X15.3005 Y16.4085
G01 X15.1236 Y16.3353
G01 X14.9357 Y16.2979
G01 X14.7443 Y16.2979
G01 X14.5564 Y16.3353
G01 X14.3795 Y16.4085
G01 X14.2203 Y16.5149
G01 X14.0849 Y16.6503
G01 X13.9785 Y16.8095
G01 X13.9053 Y16.9864
G01 X13.8679 Y17.1743
G01 X13.8679 Y17.3657
G01 X13.9053 Y17.5536
G01 X13.9785 Y17.7305
G01 X14.0849 Y17.8897
G01 X14.2203 Y18.0251
G01 X14.3795 Y18.1315
G01 X14.5564 Y18.2047
G01 X14.7443 Y18.2421
G01 X14.9357 Y18.2421
G01 X15.1236 Y18.2047
G01 X15.3005 Y18.1315
G01 X15.4597 Y18.0251
G01 X15.5951 Y17.8897
G01 X15.7015 Y17.7305
G01 X15.7747 Y17.5536
G01 X15.8121 Y17.3657
G01 X15.8121 Y17.1743
G00 Z2.0000
G00 X14.5813 Y11.9457
G01 F50.00
G01 Z-0.1000
G01 F100.00
G01 X14.5117 Y11.9921
G01 X14.4525 Y12.0513
G01 X14.4061 Y12.1209
G01 X14.3740 Y12.1982
G01 X14.3577 Y12.2802
G01 X14.3577 Y12.3639
G01 X14.3740 Y12.4460
G01 X14.4061 Y12.5233
G01 X14.4525 Y12.5928
G01 X14.5117 Y12.6520
G01 X14.5813 Y12.6985
G01 X14.6586 Y12.7305
G01 X14.7406 Y12.7468
G01 X14.8243 Y12.7468
G01 X14.9063 Y12.7305
G01 X14.9836 Y12.6985
G01 X15.0797 Y12.6282
G01 X15.1407 Y12.5539
G01 X15.3787 Y12.0466
G01 X17.8250 Y9.5956
G01 X17.8551 Y9.5363
G01 X17.8662 Y9.4806
G01 X17.8669 Y8.9450
G01 X17.9771 Y8.8988
G01 X18.0438 Y8.8593
G01 X18.1058 Y8.8128
G01 X18.2018 Y8.7161
G01 X18.2476 Y8.6535
G01 X18.3115 Y8.5331
G01 X18.3372 Y8.4600
G01 X18.3633 Y8.3262
G01 X18.3668 Y7.7019
G01 X18.3625 Y7.6276
G01 X18.3372 Y7.5000
G01 X18.2838 Y7.3679
G01 X18.2407 Y7.2961
G01 X18.1539 Y7.1911
G01 X18.0489 Y7.1043
G01 X17.9123 Y7.0313
G01 X17.7879 Y6.9935
G01 X17.7174 Y6.9825
G01 X17.5688 Y6.9817
G01 X17.4231 Y7.0114
G01 X17.3029 Y7.0612
G01 X17.2415 Y7.0974
G01 X17.1261 Y7.1911
G01 X17.0743 Y7.2488
G01 X17.0021 Y7.3570
G01 X16.9445 Y7.4940
G01 X16.9261 Y7.5693
G01 X16.9132 Y7.7019
G01 X16.9132 Y8.2581
G01 X16.9285 Y8.4029
G01 X16.9663 Y8.5273
G01 X16.9962 Y8.5921
G01 X17.0822 Y8.7208
G01 X17.1742 Y8.8128
G01 X17.2362 Y8.8593
G01 X17.3029 Y8.8988
G01 X17.4131 Y8.9450
G01 X17.4131 Y9.3706
G01 X15.0579 Y11.7258
G01 X14.5813 Y11.9457
G00 Z2.0000
G00 X17.1456 Y11.9457
G01 F50.00
G01 Z-0.1000
G01 F100.00
G01 X17.0760 Y11.9921
G01 X17.0169 Y12.0513
G01 X16.9704 Y12.1209
G01 X16.9383 Y12.1982
G01 X16.9220 Y12.2802
G01 X16.9220 Y12.3639
G01 X16.9383 Y12.4460
G01 X16.9704 Y12.5233
G01 X17.0169 Y12.5928
G01 X17.0760 Y12.6520
G01 X17.1456 Y12.6985
G01 X17.2229 Y12.7305
G01 X17.3049 Y12.7468
G01 X17.3886 Y12.7468
G01 X17.4707 Y12.7305
G01 X17.5480 Y12.6985
G01 X17.6441 Y12.6282
G01 X17.7050 Y12.5539
G01 X17.9430 Y12.0466
G01 X19.8004 Y10.1892
G01 X19.8370 Y10.1412
G01 X19.8587 Y10.0887
G01 X19.8668 Y10.0319
G01 X19.8669 Y8.9450
G01 X19.9771 Y8.8988
G01 X20.0438 Y8.8593
G01 X20.1058 Y8.8128
G01 X20.2018 Y8.7161
G01 X20.2476 Y8.6535
G01 X20.3115 Y8.5331
G01 X20.3515 Y8.4029
G01 X20.3638 Y8.3200
G01 X20.3668 Y7.7019
G01 X20.3539 Y7.5693
G01 X20.3355 Y7.4940
G01 X20.2810 Y7.3624
G01 X20.2018 Y7.2439
G01 X20.1011 Y7.1432
G01 X19.9880 Y7.0671
G01 X19.8450 Y7.0078
G01 X19.7174 Y6.9825
G01 X19.6462 Y6.9784
G01 X19.4982 Y6.9922
G01 X19.3562 Y7.0360
G01 X19.2920 Y7.0671
G01 X19.1838 Y7.1393
G01 X19.0782 Y7.2439
G01 X18.9962 Y7.3679
G01 X18.9464 Y7.4881
G01 X18.9272 Y7.5632
G01 X18.9132 Y7.7019
G01 X18.9132 Y8.2581
G01 X18.9261 Y8.3907
G01 X18.9464 Y8.4719
G01 X18.9710 Y8.5388
G01 X19.0324 Y8.6535
G01 X19.1261 Y8.7689
G01 X19.2415 Y8.8626
G01 X19.3029 Y8.8988
G01 X19.4131 Y8.9450
G01 X19.4131 Y9.9349
G01 X17.6222 Y11.7258
G01 X17.1456 Y11.9457
G00 Z2.0000
G00 X19.7155 Y11.9429
G01 F50.00
G01 Z-0.1000
G01 F100.00
G01 X19.6403 Y11.9921
G01 X19.5812 Y12.0513
G01 X19.5347 Y12.1209
G01 X19.5027 Y12.1982
G01 X19.4863 Y12.2802
G01 X19.4863 Y12.3639
G01 X19.5027 Y12.4460
G01 X19.5347 Y12.5233
G01 X19.5812 Y12.5928
G01 X19.6403 Y12.6520
G01 X19.7099 Y12.6985
G01 X19.7872 Y12.7305
G01 X19.8693 Y12.7468
G01 X19.9529 Y12.7468
G01 X20.0350 Y12.7305
G01 X20.1123 Y12.6985
G01 X20.2084 Y12.6282
G01 X20.2693 Y12.5539
G01 X20.5073 Y12.0466
G01 X21.8004 Y10.7536
G01 X21.8471 Y10.6857
G01 X21.8669 Y10.5932
G01 X21.8669 Y8.9450
G01 X21.9826 Y8.8960
G01 X22.0962 Y8.8207
G01 X22.1582 Y8.7644
G01 X22.2407 Y8.6639
G01 X22.2838 Y8.5921
G01 X22.3355 Y8.4660
G01 X22.3539 Y8.3907
G01 X22.3668 Y8.2581
G01 X22.3638 Y7.6400
G01 X22.3515 Y7.5571
G01 X22.3137 Y7.4327
G01 X22.2443 Y7.3012
G01 X22.1539 Y7.1911
G01 X22.0438 Y7.1007
G01 X21.9238 Y7.0360
G01 X21.7818 Y6.9922
G01 X21.6338 Y6.9784
G01 X21.5626 Y6.9825
G01 X21.4350 Y7.0078
G01 X21.2920 Y7.0671
G01 X21.2311 Y7.1043
G01 X21.1306 Y7.1868
G01 X21.0357 Y7.3012
G01 X20.9663 Y7.4327
G01 X20.9428 Y7.5000
G01 X20.9175 Y7.6276
G01 X20.9162 Y8.3200
G01 X20.9285 Y8.4029
G01 X20.9663 Y8.5273
G01 X21.0357 Y8.6588
G01 X21.1306 Y8.7732
G01 X21.2415 Y8.8626
G01 X21.3029 Y8.8988
G01 X21.4131 Y8.9450
G01 X21.4131 Y10.4992
G01 X20.1865 Y11.7258
G01 X19.7155 Y11.9429
G00 Z2.0000
G00 X22.2388 Y12.0236
G01 F50.00
G01 Z-0.1000
G01 F100.00
G01 X22.1692 Y12.0701
G01 X22.1101 Y12.1292
G01 X22.0636 Y12.1988
G01 X22.0316 Y12.2761
G01 X22.0153 Y12.3582
G01 X22.0153 Y12.4418
G01 X22.0316 Y12.5239
G01 X22.0608 Y12.5956
G01 X22.1101 Y12.6708
G01 X22.1692 Y12.7299
G01 X22.2388 Y12.7764
G01 X22.3102 Y12.8065
G01 X22.3982 Y12.8247
G01 X22.4756 Y12.8252
G01 X22.5579 Y12.8101
G01 X22.6090 Y12.7918
G01 X22.7108 Y12.7299
G01 X22.7949 Y12.6371
G01 X23.0362 Y12.1246
G01 X23.8026 Y11.3582
G01 X23.8370 Y11.3124
G01 X23.8571 Y11.2659
G01 X23.8669 Y11.2000
G01 X23.8669 Y8.9450
G01 X23.9771 Y8.8988
G01 X24.0385 Y8.8626
G01 X24.1494 Y8.7732
G01 X24.2443 Y8.6588
G01 X24.3115 Y8.5331
G01 X24.3515 Y8.4029
G01 X24.3638 Y8.3200
G01 X24.3668 Y7.7050
G01 X24.3539 Y7.5693
G01 X24.3336 Y7.4881
G01 X24.2810 Y7.3624
G01 X24.2057 Y7.2488
G01 X24.1494 Y7.1868
G01 X24.0438 Y7.1007
G01 X23.9238 Y7.0360
G01 X23.8510 Y7.0095
G01 X23.7050 Y6.9812
G01 X23.6338 Y6.9784
G01 X23.5043 Y6.9911
G01 X23.3619 Y7.0335
G01 X23.2362 Y7.1007
G01 X23.1261 Y7.1911
G01 X23.0324 Y7.3065
G01 X22.9710 Y7.4212
G01 X22.9464 Y7.4881
G01 X22.9167 Y7.6338
G01 X22.9162 Y8.3200
G01 X22.9285 Y8.4029
G01 X22.9663 Y8.5273
G01 X23.0357 Y8.6588
G01 X23.1306 Y8.7732
G01 X23.2415 Y8.8626
G01 X23.3029 Y8.8988
G01 X23.4131 Y8.9450
G01 X23.4131 Y11.1060
G01 X22.7154 Y11.8037
G01 X22.2388 Y12.0236
G00 Z2.0000
G00 X27.0259 Y10.7293
G01 F50.00
G01 Z-0.1000
G01 F100.00
G01 X27.0590 Y10.8212
G01 X27.1006 Y10.9096
G01 X27.0259 Y10.8349
G01 X27.0259 Y10.7293
G00 Z2.0000
G00 X27.5804 Y11.3894
G01 F50.00
G01 Z-0.1000
G01 F100.00
G01 X27.6688 Y11.4310
G01 X27.7607 Y11.4641
G01 X27.6551 Y11.4641
G01 X27.5804 Y11.3894
G00 Z2.0000
G00 X29.3820 Y9.3610
G01 F50.00
G01 Z-0.1000
G01 F100.00
G01 X29.3310 Y9.4873
G01 X29.3131 Y9.5832
G01 X29.3103 Y9.8419
G01 X29.2056 Y9.6513
G01 X29.1279 Y9.5465
G01 X29.0550 Y9.4655
G01 X29.0550 Y9.3714
G01 X29.0654 Y9.3610
G01 X29.3820 Y9.3610
G00 Z2.0000
G00 X27.6302 Y7.9098
G01 F50.00
G01 Z-0.1000
G01 F100.00
G01 X27.8154 Y7.9098
G01 X27.3724 Y8.3577
G01 X27.2973 Y8.4589
G01 X27.2288 Y8.5859
G01 X27.2288 Y8.3112
G01 X27.6302 Y7.9098
G00 Z2.0000
G00 X27.5461 Y7.7069
G01 F50.00
G01 Z-0.1000
G01 F100.00
G01 X28.3933 Y7.7069
G01 X28.2519 Y7.7806
G01 X28.1402 Y7.8720
G01 X27.5660 Y8.4462
G01 X27.5148 Y8.5036
G01 X27.4398 Y8.6158
G01 X27.3803 Y8.7575
G01 X27.3515 Y8.9021
G01 X27.3479 Y9.5526
G01 X27.2330 Y9.6705
G01 X27.1631 Y9.7640
G01 X27.1035 Y9.8644
G01 X27.0259 Y10.0507
G01 X27.0259 Y8.2271
G01 X27.5461 Y7.7069
G00 Z2.0000
G00 X27.5104 Y6.5581
G01 F50.00
G01 Z-0.1000
G01 F100.00
G01 X27.5215 Y6.6631
G01 X27.5463 Y6.7502
G01 X27.3493 Y6.7518
G01 X27.2373 Y6.7708
G01 X27.1167 Y6.8187
G01 X27.0222 Y6.8818
G01 X26.2279 Y7.6727
G01 X26.1456 Y7.7836
G01 X26.0942 Y7.9027
G01 X26.0776 Y7.9738
G01 X26.0692 Y8.0710
G01 X26.0693 Y10.9991
G01 X26.0776 Y11.0882
G01 X26.0942 Y11.1593
G01 X26.1199 Y11.2277
G01 X26.1583 Y11.2995
G01 X26.2390 Y11.4010
G01 X27.1312 Y12.2892
G01 X27.2257 Y12.3523
G01 X27.3463 Y12.4002
G01 X27.4583 Y12.4192
G01 X27.6541 Y12.4208
G01 X28.6900 Y13.4566
G01 X28.7721 Y13.5231
G01 X28.8576 Y13.5701
G01 X28.9811 Y13.6097
G01 X29.0861 Y13.6207
G01 X31.2859 Y13.6208
G01 X33.2052 Y15.5401
G01 X33.2052 Y17.3920
G01 X33.0789 Y17.4496
G01 X32.9664 Y17.5184
G01 X32.8126 Y17.6447
G01 X32.7131 Y17.7544
G01 X32.6026 Y17.9198
G01 X32.5451 Y18.0386
G01 X32.5061 Y18.1476
G01 X32.4815 Y18.2441
G01 X32.4610 Y18.3744
G01 X32.4553 Y18.4900
G01 X32.4630 Y18.6217
G01 X32.5018 Y18.8168
G01 X32.5451 Y18.9414
G01 X32.5946 Y19.0461
G01 X32.6634 Y19.1586
G01 X32.7897 Y19.3124
G01 X32.8866 Y19.4019
G01 X32.9933 Y19.4795
G01 X33.1688 Y19.5733
G01 X33.2926 Y19.6189
G01 X33.4208 Y19.6498
G01 X33.6188 Y19.6693
G01 X33.9431 Y19.6696
G01 X34.0667 Y19.6620
G01 X34.2618 Y19.6232
G01 X34.3864 Y19.5799
G01 X34.5052 Y19.5224
G01 X34.6706 Y19.4119
G01 X34.7692 Y19.3242
G01 X34.8569 Y19.2256
G01 X34.9674 Y19.0602
G01 X35.0249 Y18.9414
G01 X35.0701 Y18.8094
G01 X35.0701 Y19.2062
G01 X34.4660 Y19.8103
G01 X32.9782 Y19.8131
G01 X32.8823 Y19.8310
G01 X32.7984 Y19.8610
G01 X32.7129 Y19.9080
G01 X32.6368 Y19.9689
G01 X32.5769 Y20.0350
G01 X32.5238 Y20.1167
G01 X32.4854 Y20.2064
G01 X32.4637 Y20.2929
G01 X32.4553 Y20.3900
G01 X32.4553 Y21.1460
G01 X31.4322 Y22.1691
G01 X5.7928 Y22.1691
G01 X4.7097 Y21.0860
G01 X4.7093 Y20.3138
G01 X4.6985 Y20.2169
G01 X4.6656 Y20.1082
G01 X4.6206 Y20.0216
G01 X4.5781 Y19.9623
G01 X4.5282 Y19.9089
G01 X4.4521 Y19.8480
G01 X4.3888 Y19.8115
G01 X4.2983 Y19.7753
G01 X4.2271 Y19.7587
G01 X4.1300 Y19.7503
G01 X2.5732 Y19.7531
G01 X2.4617 Y19.7753
G01 X2.3712 Y19.8115
G01 X2.2947 Y19.8573
G01 X2.2201 Y19.9201
G01 X2.1480 Y20.0079
G01 X2.0944 Y20.1082
G01 X2.0615 Y20.2169
G01 X2.0507 Y20.3138
G01 X2.0519 Y21.5707
G01 X2.0753 Y21.6983
G01 X2.1010 Y21.7666
G01 X2.1394 Y21.8384
G01 X2.2201 Y21.9399
G01 X2.3079 Y22.0120
G01 X2.4082 Y22.0656
G01 X2.5169 Y22.0985
G01 X2.6219 Y22.1096
G01 X3.3860 Y22.1097
G01 X4.9225 Y23.6405
G01 X5.0016 Y23.6977
G01 X5.1314 Y23.7658
G01 X5.2713 Y23.8094
G01 X5.3838 Y23.8261
G01 X31.8412 Y23.8261
G01 X31.9537 Y23.8094
G01 X32.0936 Y23.7658
G01 X32.1813 Y23.7230
G01 X32.3025 Y23.6405
G01 X33.7790 Y22.1697
G01 X34.5918 Y22.1669
G01 X34.6877 Y22.1490
G01 X34.7568 Y22.1256
G01 X34.8223 Y22.0933
G01 X34.9027 Y22.0381
G01 X34.9561 Y21.9882
G01 X35.0077 Y21.9253
G01 X35.0706 Y21.8118
G01 X35.0940 Y21.7427
G01 X35.1099 Y21.6629
G01 X35.1147 Y21.5090
G01 X36.5415 Y20.0765
G01 X36.6240 Y19.9553
G01 X36.6668 Y19.8676
G01 X36.7104 Y19.7277
G01 X36.7259 Y19.6314
G01 X36.7298 Y16.0619
G01 X36.7240 Y15.9726
G01 X36.6985 Y15.8447
G01 X36.6319 Y15.6788
G01 X36.5515 Y15.5563
G01 X36.4868 Y15.4832
G01 X32.7239 Y11.7202
G01 X33.9975 Y11.7202
G01 X34.1375 Y11.8036
G01 X34.2850 Y11.8738
G01 X34.4689 Y11.9409
G01 X34.6590 Y11.9873
G01 X34.8207 Y12.0109
G01 X34.9838 Y12.0193
G01 X35.1793 Y12.0109
G01 X35.3727 Y11.9810
G01 X35.5311 Y11.9409
G01 X35.6851 Y11.8862
G01 X35.8625 Y11.8036
G01 X36.0165 Y11.7113
G01 X36.1607 Y11.6044
G01 X36.2938 Y11.4838
G01 X36.4144 Y11.3508
G01 X36.5213 Y11.2065
G01 X36.6136 Y11.0525
G01 X36.6904 Y10.8902
G01 X36.7458 Y10.7365
G01 X36.7945 Y10.5470
G01 X36.8189 Y10.3854
G01 X36.8293 Y10.1738
G01 X36.8209 Y10.0107
G01 X36.7945 Y9.8330
G01 X36.7509 Y9.6589
G01 X36.6904 Y9.4898
G01 X36.6057 Y9.3134
G01 X36.5213 Y9.1735
G01 X36.4243 Y9.0420
G01 X36.2938 Y8.8962
G01 X36.1480 Y8.7657
G01 X36.0165 Y8.6687
G01 X35.8766 Y8.5843
G01 X35.7002 Y8.4996
G01 X35.5311 Y8.4391
G01 X35.3727 Y8.3990
G01 X35.1793 Y8.3691
G01 X34.9838 Y8.3607
G01 X34.8207 Y8.3691
G01 X34.6590 Y8.3927
G01 X34.4689 Y8.4391
G01 X34.2998 Y8.4996
G01 X34.1234 Y8.5843
G01 X33.9835 Y8.6687
G01 X33.8520 Y8.7657
G01 X33.7062 Y8.8962
G01 X33.5625 Y9.0598
G01 X32.4807 Y9.0598
G01 X34.5209 Y7.0197
G01 X35.7581 Y7.0196
G01 X35.8558 Y7.0145
G01 X35.9764 Y6.9954
G01 X36.1632 Y6.9375
G01 X36.2590 Y6.8922
G01 X36.3498 Y6.8377
G01 X36.4349 Y6.7746
G01 X36.5135 Y6.7034
G01 X36.5846 Y6.6250
G01 X36.6477 Y6.5398
G01 X36.7022 Y6.4490
G01 X36.7533 Y6.3381
G01 X36.8054 Y6.1664
G01 X36.8245 Y6.0458
G01 X36.8297 Y4.4400
G01 X36.8245 Y4.3342
G01 X36.8054 Y4.2136
G01 X36.7533 Y4.0419
G01 X36.7022 Y3.9310
G01 X36.6477 Y3.8402
G01 X36.5846 Y3.7550
G01 X36.5017 Y3.6654
G01 X36.3631 Y3.5516
G01 X36.2730 Y3.4958
G01 X36.1632 Y3.4425
G01 X36.0634 Y3.4068
G01 X35.9606 Y3.3811
G01 X35.8397 Y3.3643
G01 X34.2419 Y3.3604
G01 X34.0553 Y3.3783
G01 X33.9366 Y3.4068
G01 X33.8220 Y3.4491
G01 X33.6502 Y3.5423
G01 X33.5651 Y3.6054
G01 X33.4865 Y3.6766
G01 X33.4154 Y3.7550
G01 X33.3523 Y3.8402
G01 X33.2978 Y3.9310
G01 X33.2525 Y4.0268
G01 X33.1946 Y4.2136
G01 X33.1755 Y4.3342
G01 X33.1704 Y4.4319
G01 X33.1703 Y5.6691
G01 X31.3884 Y7.4510
G01 X30.5073 Y7.4510
G01 X30.7066 Y7.2515
G01 X30.7638 Y7.1826
G01 X30.8267 Y7.0692
G01 X30.8597 Y6.9604
G01 X30.8708 Y6.8473
G01 X30.8708 Y5.5184
G01 X31.1076 Y5.2814
G01 X31.1648 Y5.2126
G01 X31.2277 Y5.0991
G01 X31.2634 Y4.9744
G01 X31.2718 Y4.8772
G01 X31.2690 Y2.6882
G01 X31.2512 Y2.5923
G01 X31.2211 Y2.5083
G01 X31.1741 Y2.4229
G01 X31.1076 Y2.3408
G01 X30.0751 Y1.3104
G01 X29.9683 Y1.2367
G01 X29.9018 Y1.2065
G01 X29.8239 Y1.1829
G01 X29.6950 Y1.1682
G01 X25.6720 Y1.1682
G01 X25.5991 Y1.1730
G01 X25.5037 Y1.1932
G01 X25.3846 Y1.2446
G01 X25.3169 Y1.2898
G01 X25.2620 Y1.3380
G01 X21.2898 Y5.3102
G01 X17.1894 Y5.3102
G01 X12.7202 Y0.8410
G01 X12.6187 Y0.7603
G01 X12.4939 Y0.7012
G01 X12.4074 Y0.6796
G01 X12.3102 Y0.6712
G01 X4.0590 Y0.6712
G01 X3.9618 Y0.6796
G01 X3.8907 Y0.6962
G01 X3.8223 Y0.7219
G01 X3.7505 Y0.7603
G01 X3.6490 Y0.8410
G01 X2.4397 Y2.0503
G01 X1.9800 Y2.0536
G01 X1.8736 Y2.0682
G01 X1.7851 Y2.0904
G01 X1.6844 Y2.1276
G01 X1.5385 Y2.2070
G01 X1.4093 Y2.3115
G01 X1.3264 Y2.4030
G01 X1.2351 Y2.5418
G01 X1.1654 Y2.7101
G01 X1.1298 Y2.8889
G01 X1.1298 Y3.0711
G01 X1.1654 Y3.2499
G01 X1.2351 Y3.4182
G01 X1.3364 Y3.5698
G01 X1.3976 Y3.6374
G01 X1.4780 Y3.7086
G01 X1.6168 Y3.7999
G01 X1.7698 Y3.8646
G01 X1.8896 Y3.8946
G01 X2.0469 Y3.9096
G01 X2.6050 Y3.9097
G01 X2.7122 Y3.9032
G01 X2.8022 Y3.8883
G01 X2.9457 Y3.8447
G01 X3.0432 Y3.7999
G01 X3.1215 Y3.7530
G01 X3.2624 Y3.6374
G01 X3.3687 Y3.5097
G01 X3.4322 Y3.4038
G01 X3.4946 Y3.2499
G01 X3.5282 Y3.0872
G01 X3.5343 Y2.9638
G01 X3.5168 Y2.7986
G01 X3.4752 Y2.6547
G01 X4.2992 Y1.8308
G01 X6.6015 Y1.8308
G01 X3.5311 Y4.9012
G01 X3.5133 Y4.7828
G01 X3.4639 Y4.6242
G01 X3.3867 Y4.4772
G01 X3.3236 Y4.3902
G01 X3.2070 Y4.2719
G01 X3.1215 Y4.2070
G01 X3.0288 Y4.1528
G01 X2.8902 Y4.0954
G01 X2.7704 Y4.0654
G01 X2.6212 Y4.0507
G01 X1.9639 Y4.0548
G01 X1.8578 Y4.0717
G01 X1.7143 Y4.1153
G01 X1.6168 Y4.1601
G01 X1.5385 Y4.2070
G01 X1.4093 Y4.3115
G01 X1.3264 Y4.4030
G01 X1.2351 Y4.5418
G01 X1.1654 Y4.7101
G01 X1.1318 Y4.8728
G01 X1.1257 Y4.9962
G01 X1.1432 Y5.1614
G01 X1.1848 Y5.3053
G01 X0.4054 Y6.0848
G01 X0.3389 Y6.1669
G01 X0.2919 Y6.2523
G01 X0.2523 Y6.3759
G01 X0.2412 Y6.4890
G01 X0.2412 Y15.8710
G01 X0.2559 Y15.9999
G01 X0.2795 Y16.0778
G01 X0.3097 Y16.1443
G01 X0.3482 Y16.2064
G01 X0.4054 Y16.2752
G01 X2.1315 Y18.0015
G01 X2.0730 Y18.1999
G01 X2.0560 Y18.3144
G01 X2.0507 Y18.4138
G01 X2.0580 Y18.5617
G01 X2.0968 Y18.7568
G01 X2.1467 Y18.8962
G01 X2.1896 Y18.9861
G01 X2.2491 Y19.0854
G01 X2.3287 Y19.1906
G01 X2.4694 Y19.3313
G01 X2.5883 Y19.4195
G01 X2.6739 Y19.4704
G01 X2.7786 Y19.5199
G01 X2.9032 Y19.5632
G01 X2.9999 Y19.5870
G01 X3.1144 Y19.6040
G01 X3.5300 Y19.6097
G01 X3.6617 Y19.6020
G01 X3.7601 Y19.5870
G01 X3.8724 Y19.5589
G01 X3.9814 Y19.5199
G01 X4.1002 Y19.4624
G01 X4.1854 Y19.4109
G01 X4.2784 Y19.3419
G01 X4.3642 Y19.2642
G01 X4.4519 Y19.1656
G01 X4.5624 Y19.0002
G01 X4.6133 Y18.8962
G01 X4.6589 Y18.7724
G01 X4.6835 Y18.6759
G01 X4.7040 Y18.5456
G01 X4.7097 Y18.4300
G01 X4.7040 Y18.3144
G01 X4.6870 Y18.1999
G01 X4.6589 Y18.0876
G01 X4.6199 Y17.9786
G01 X4.5704 Y17.8739
G01 X4.5016 Y17.7614
G01 X4.3753 Y17.6076
G01 X4.2656 Y17.5081
G01 X4.1854 Y17.4491
G01 X4.0861 Y17.3896
G01 X3.9814 Y17.3401
G01 X3.8878 Y17.3062
G01 X3.7442 Y17.2702
G01 X3.5462 Y17.2507
G01 X3.2219 Y17.2504
G01 X3.0370 Y17.2671
G01 X1.4008 Y15.6308
G01 X1.4008 Y13.8232
G01 X1.5367 Y13.8847
G01 X1.6643 Y13.9081
G01 X2.9550 Y13.9097
G01 X3.0279 Y13.9049
G01 X3.1233 Y13.8847
G01 X3.2138 Y13.8485
G01 X3.2800 Y13.8099
G01 X4.0962 Y13.8099
G01 X4.9076 Y14.6213
G01 X4.9628 Y14.7538
G01 X5.0170 Y14.8465
G01 X5.0819 Y14.9320
G01 X5.1880 Y15.0381
G01 X5.2872 Y15.1117
G01 X5.4342 Y15.1889
G01 X5.5928 Y15.2383
G01 X5.7047 Y15.2556
G01 X5.7003 Y19.0181
G01 X5.7208 Y19.1627
G01 X5.7687 Y19.2833
G01 X5.8072 Y19.3454
G01 X5.8700 Y19.4200
G01 X8.2658 Y21.8156
G01 X8.3346 Y21.8728
G01 X8.3967 Y21.9113
G01 X8.4632 Y21.9415
G01 X8.5411 Y21.9651
G01 X8.6700 Y21.9798
G01 X16.5368 Y21.9770
G01 X16.6327 Y21.9592
G01 X16.7019 Y21.9357
G01 X16.7885 Y21.8907
G01 X16.8478 Y21.8482
G01 X17.3900 Y21.3100
G01 X17.9722 Y21.8882
G01 X18.0315 Y21.9307
G01 X18.1181 Y21.9757
G01 X18.1873 Y21.9992
G01 X18.2832 Y22.0170
G01 X23.6281 Y22.0197
G01 X23.7331 Y22.0087
G01 X23.8268 Y21.9815
G01 X23.9074 Y21.9434
G01 X23.9878 Y21.8882
G01 X25.3976 Y20.4801
G01 X25.4507 Y20.4085
G01 X25.4957 Y20.3219
G01 X25.5192 Y20.2527
G01 X25.5370 Y20.1568
G01 X25.5398 Y7.5702
G01 X27.5103 Y5.5996
G01 X27.5104 Y6.5581
G00 Z2.0000
G00 X29.4119 Y4.7703
G01 F50.00
G01 Z-0.1000
G01 F100.00
G01 X28.3396 Y4.7703
G01 X28.4970 Y4.6129
G01 X28.6819 Y4.6296
G01 X28.9900 Y4.6297
G01 X29.1056 Y4.6240
G01 X29.2201 Y4.6070
G01 X29.3324 Y4.5789
G01 X29.4562 Y4.5333
G01 X29.5602 Y4.4824
G01 X29.7113 Y4.3825
G01 X29.7113 Y4.4710
G01 X29.4119 Y4.7703
G00 Z2.0000
G00 X29.9141 Y3.1364
G01 F50.00
G01 Z-0.1000
G01 F100.00
G01 X29.8924 Y3.0762
G01 X29.8652 Y3.0183
G01 X29.9141 Y3.0672
G01 X29.9141 Y3.1364
G00 Z2.0000
G00 X29.4217 Y2.5748
G01 F50.00
G01 Z-0.1000
G01 F100.00
G01 X29.3638 Y2.5476
G01 X29.3036 Y2.5259
G01 X29.3728 Y2.5259
G01 X29.4217 Y2.5748
G00 Z2.0000
G00 X21.7670 Y2.6555
G01 F50.00
G01 Z-0.1000
G01 F100.00
G01 X21.7354 Y2.4454
G01 X21.6798 Y2.2236
G01 X21.6028 Y2.0083
G01 X21.5050 Y1.8016
G01 X21.3875 Y1.6054
G01 X21.2512 Y1.4217
G01 X21.0977 Y1.2523
G01 X20.9282 Y1.0987
G01 X20.7446 Y0.9625
G01 X20.5484 Y0.8450
G01 X20.3417 Y0.7472
G01 X20.1264 Y0.6702
G01 X19.9046 Y0.6146
G01 X19.6784 Y0.5810
G01 X19.4500 Y0.5698
G01 X19.2216 Y0.5810
G01 X18.9954 Y0.6146
G01 X18.7736 Y0.6702
G01 X18.5583 Y0.7472
G01 X18.3516 Y0.8450
G01 X18.1554 Y0.9625
G01 X17.9718 Y1.0987
G01 X17.8023 Y1.2523
G01 X17.6488 Y1.4217
G01 X17.5125 Y1.6054
G01 X17.3950 Y1.8016
G01 X17.2972 Y2.0083
G01 X17.2202 Y2.2236
G01 X17.1646 Y2.4454
G01 X17.1310 Y2.6716
G01 X17.1198 Y2.9000
G01 X17.1310 Y3.1284
G01 X17.1646 Y3.3546
G01 X17.2202 Y3.5764
G01 X17.2972 Y3.7917
G01 X17.3950 Y3.9984
G01 X17.5125 Y4.1946
G01 X17.6488 Y4.3783
G01 X17.8023 Y4.5477
G01 X17.9718 Y4.7013
G01 X18.1554 Y4.8375
G01 X18.3516 Y4.9550
G01 X18.5583 Y5.0528
G01 X18.7736 Y5.1298
G01 X18.9954 Y5.1854
G01 X19.2216 Y5.2190
G01 X19.4500 Y5.2302
G01 X19.6784 Y5.2190
G01 X19.9046 Y5.1854
G01 X20.1264 Y5.1298
G01 X20.3417 Y5.0528
G01 X20.5484 Y4.9550
G01 X20.7446 Y4.8375
G01 X20.9282 Y4.7013
G01 X21.0977 Y4.5477
G01 X21.2512 Y4.3783
G01 X21.3875 Y4.1946
G01 X21.5050 Y3.9984
G01 X21.6028 Y3.7917
G01 X21.6798 Y3.5764
G01 X21.7354 Y3.3546
G01 X21.7690 Y3.1284
G01 X21.7802 Y2.9000
G01 X21.7670 Y2.6555
G00 Z2.0000
G00 X21.5663 Y2.6853
G01 F50.00
G01 Z-0.1000
G01 F100.00
G01 X21.5364 Y2.4850
G01 X21.4857 Y2.2825
G01 X21.4154 Y2.0859
G01 X21.3261 Y1.8972
G01 X21.2188 Y1.7181
G01 X21.0944 Y1.5505
G01 X20.9542 Y1.3958
G01 X20.7995 Y1.2556
G01 X20.6319 Y1.1312
G01 X20.4528 Y1.0239
G01 X20.2641 Y0.9346
G01 X20.0675 Y0.8643
G01 X19.8650 Y0.8136
G01 X19.6585 Y0.7829
G01 X19.4500 Y0.7727
G01 X19.2415 Y0.7829
G01 X19.0350 Y0.8136
G01 X18.8325 Y0.8643
G01 X18.6359 Y0.9346
G01 X18.4472 Y1.0239
G01 X18.2681 Y1.1312
G01 X18.1005 Y1.2556
G01 X17.9458 Y1.3958
G01 X17.8056 Y1.5505
G01 X17.6812 Y1.7181
G01 X17.5739 Y1.8972
G01 X17.4846 Y2.0859
G01 X17.4143 Y2.2825
G01 X17.3636 Y2.4850
G01 X17.3329 Y2.6915
G01 X17.3227 Y2.9000
G01 X17.3329 Y3.1085
G01 X17.3636 Y3.3150
G01 X17.4143 Y3.5175
G01 X17.4846 Y3.7141
G01 X17.5739 Y3.9028
G01 X17.6812 Y4.0819
G01 X17.8056 Y4.2495
G01 X17.9458 Y4.4042
G01 X18.1005 Y4.5444
G01 X18.2681 Y4.6688
G01 X18.4472 Y4.7761
G01 X18.6359 Y4.8654
G01 X18.8325 Y4.9357
G01 X19.0350 Y4.9864
G01 X19.2415 Y5.0171
G01 X19.4500 Y5.0273
G01 X19.6585 Y5.0171
G01 X19.8650 Y4.9864
G01 X20.0675 Y4.9357
G01 X20.2641 Y4.8654
G01 X20.4528 Y4.7761
G01 X20.6319 Y4.6688
G01 X20.7995 Y4.5444
G01 X20.9542 Y4.4042
G01 X21.0944 Y4.2495
G01 X21.2188 Y4.0819
G01 X21.3261 Y3.9028
G01 X21.4154 Y3.7141
G01 X21.4857 Y3.5175
G01 X21.5364 Y3.3150
G01 X21.5671 Y3.1085
G01 X21.5773 Y2.9000
G01 X21.5663 Y2.6853
G00 Z2.0000
G00 X16.4171 Y6.7449
G01 F50.00
G01 Z-0.1000
G01 F100.00
G01 X16.5184 Y6.8200
G01 X16.5809 Y6.8472
G01 X16.6531 Y6.8652
G01 X17.2312 Y6.8707
G01 X17.1235 Y6.9320
G01 X17.0380 Y6.9969
G01 X16.9319 Y7.1030
G01 X16.8583 Y7.2022
G01 X16.7876 Y7.3344
G01 X16.7504 Y7.4351
G01 X16.7254 Y7.5396
G01 X16.7103 Y7.7050
G01 X16.7107 Y8.2712
G01 X16.7254 Y8.4204
G01 X16.7504 Y8.5249
G01 X16.8201 Y8.6932
G01 X16.9214 Y8.8448
G01 X17.0502 Y8.9737
G01 X17.1235 Y9.0280
G01 X17.2103 Y9.0792
G01 X17.2103 Y9.2865
G01 X14.9396 Y11.5572
G01 X14.4856 Y11.7667
G01 X14.3830 Y11.8353
G01 X14.3063 Y11.9103
G01 X14.2502 Y11.9859
G01 X14.2007 Y12.0811
G01 X14.1756 Y12.1549
G01 X14.1558 Y12.2603
G01 X14.1546 Y12.3676
G01 X14.1649 Y12.4449
G01 X14.1949 Y12.5479
G01 X14.2351 Y12.6330
G01 X14.3063 Y12.7338
G01 X14.4194 Y12.8363
G01 X14.5415 Y12.9038
G01 X14.6596 Y12.9396
G01 X14.7825 Y12.9517
G01 X14.9211 Y12.9361
G01 X15.0382 Y12.8973
G01 X15.1692 Y12.8188
G01 X15.2586 Y12.7338
G01 X15.3298 Y12.6330
G01 X15.5474 Y12.1649
G01 X17.9616 Y9.7494
G01 X18.0305 Y9.6438
G01 X18.0642 Y9.5324
G01 X18.0697 Y9.0792
G01 X18.1697 Y9.0187
G01 X18.2857 Y8.9235
G01 X18.3586 Y8.8448
G01 X18.4217 Y8.7578
G01 X18.4924 Y8.6256
G01 X18.5296 Y8.5249
G01 X18.5546 Y8.4204
G01 X18.5696 Y8.2631
G01 X18.5664 Y7.6300
G01 X18.5483 Y7.5078
G01 X18.5047 Y7.3643
G01 X18.4599 Y7.2668
G01 X18.4130 Y7.1885
G01 X18.3085 Y7.0593
G01 X18.1697 Y6.9413
G01 X18.0488 Y6.8707
G01 X19.2312 Y6.8707
G01 X19.1235 Y6.9320
G01 X19.0380 Y6.9969
G01 X18.9319 Y7.1030
G01 X18.8583 Y7.2022
G01 X18.7876 Y7.3344
G01 X18.7504 Y7.4351
G01 X18.7254 Y7.5396
G01 X18.7103 Y7.7050
G01 X18.7136 Y8.3300
G01 X18.7317 Y8.4522
G01 X18.7753 Y8.5957
G01 X18.8583 Y8.7578
G01 X18.9319 Y8.8570
G01 X19.0502 Y8.9737
G01 X19.1235 Y9.0280
G01 X19.2103 Y9.0792
G01 X19.2103 Y9.8508
G01 X17.5040 Y11.5572
G01 X17.0499 Y11.7667
G01 X16.9837 Y11.8078
G01 X16.9132 Y11.8657
G01 X16.8600 Y11.9226
G01 X16.7994 Y12.0112
G01 X16.7650 Y12.0811
G01 X16.7327 Y12.1834
G01 X16.7189 Y12.2765
G01 X16.7201 Y12.3838
G01 X16.7399 Y12.4893
G01 X16.7650 Y12.5630
G01 X16.8146 Y12.6582
G01 X16.8600 Y12.7215
G01 X16.9351 Y12.7982
G01 X17.0106 Y12.8543
G01 X17.1058 Y12.9038
G01 X17.1796 Y12.9289
G01 X17.2850 Y12.9487
G01 X17.3924 Y12.9499
G01 X17.4854 Y12.9361
G01 X17.5877 Y12.9038
G01 X17.6577 Y12.8694
G01 X17.7462 Y12.8088
G01 X17.8335 Y12.7215
G01 X17.8941 Y12.6330
G01 X18.1117 Y12.1649
G01 X19.9439 Y10.3327
G01 X19.9973 Y10.2676
G01 X20.0370 Y10.1933
G01 X20.0615 Y10.1127
G01 X20.0696 Y10.0369
G01 X20.0697 Y9.0792
G01 X20.1697 Y9.0187
G01 X20.2857 Y8.9235
G01 X20.3586 Y8.8448
G01 X20.4217 Y8.7578
G01 X20.4924 Y8.6256
G01 X20.5296 Y8.5249
G01 X20.5546 Y8.4204
G01 X20.5697 Y8.2550
G01 X20.5664 Y7.6300
G01 X20.5483 Y7.5078
G01 X20.5047 Y7.3643
G01 X20.4599 Y7.2668
G01 X20.4130 Y7.1885
G01 X20.3085 Y7.0593
G01 X20.1697 Y6.9413
G01 X20.0488 Y6.8707
G01 X21.2312 Y6.8707
G01 X21.1235 Y6.9320
G01 X21.0380 Y6.9969
G01 X20.9319 Y7.1030
G01 X20.8583 Y7.2022
G01 X20.7876 Y7.3344
G01 X20.7504 Y7.4351
G01 X20.7254 Y7.5396
G01 X20.7103 Y7.7050
G01 X20.7136 Y8.3300
G01 X20.7317 Y8.4522
G01 X20.7753 Y8.5957
G01 X20.8583 Y8.7578
G01 X20.9319 Y8.8570
G01 X21.0502 Y8.9737
G01 X21.1235 Y9.0280
G01 X21.2103 Y9.0792
G01 X21.2103 Y10.4152
G01 X20.0683 Y11.5572
G01 X19.6143 Y11.7667
G01 X19.5480 Y11.8078
G01 X19.4776 Y11.8657
G01 X19.4144 Y11.9354
G01 X19.3558 Y12.0252
G01 X19.3136 Y12.1239
G01 X19.2935 Y12.1992
G01 X19.2832 Y12.2765
G01 X19.2832 Y12.3676
G01 X19.2935 Y12.4449
G01 X19.3136 Y12.5202
G01 X19.3485 Y12.6044
G01 X19.3875 Y12.6719
G01 X19.4349 Y12.7338
G01 X19.4994 Y12.7982
G01 X19.5613 Y12.8456
G01 X19.6287 Y12.8847
G01 X19.7129 Y12.9196
G01 X19.7882 Y12.9396
G01 X19.8655 Y12.9499
G01 X19.9567 Y12.9499
G01 X20.0339 Y12.9396
G01 X20.1092 Y12.9196
G01 X20.1935 Y12.8847
G01 X20.2609 Y12.8456
G01 X20.3228 Y12.7982
G01 X20.3873 Y12.7338
G01 X20.4664 Y12.6189
G01 X20.6760 Y12.1649
G01 X21.9495 Y10.8912
G01 X22.0110 Y10.8098
G01 X22.0512 Y10.7179
G01 X22.0697 Y10.5932
G01 X22.0697 Y9.0792
G01 X22.1565 Y9.0280
G01 X22.2298 Y8.9737
G01 X22.3481 Y8.8570
G01 X22.4217 Y8.7578
G01 X22.5047 Y8.5957
G01 X22.5483 Y8.4522
G01 X22.5664 Y8.3300
G01 X22.5696 Y7.6969
G01 X22.5546 Y7.5396
G01 X22.5296 Y7.4351
G01 X22.4672 Y7.2812
G01 X22.4037 Y7.1753
G01 X22.3085 Y7.0593
G01 X22.2170 Y6.9764
G01 X22.0782 Y6.8851
G01 X21.9455 Y6.8277
G01 X22.0102 Y6.7890
G01 X22.0621 Y6.7449
G01 X26.0782 Y2.7287
G01 X27.7575 Y2.7287
G01 X27.6576 Y2.8798
G01 X27.6001 Y2.9986
G01 X27.5568 Y3.1232
G01 X27.5180 Y3.3183
G01 X27.5103 Y3.4500
G01 X27.5180 Y3.5817
G01 X27.5365 Y3.6959
G01 X27.5915 Y3.8785
G01 X24.5444 Y6.9258
G01 X24.4566 Y7.0426
G01 X24.4020 Y7.1730
G01 X24.3085 Y7.0593
G01 X24.2298 Y6.9863
G01 X24.1428 Y6.9233
G01 X23.9958 Y6.8461
G01 X23.8943 Y6.8110
G01 X23.7311 Y6.7798
G01 X23.5650 Y6.7786
G01 X23.4586 Y6.7932
G01 X23.3548 Y6.8204
G01 X23.2018 Y6.8851
G01 X23.1103 Y6.9413
G01 X22.9826 Y7.0476
G01 X22.8763 Y7.1753
G01 X22.8201 Y7.2668
G01 X22.7554 Y7.4198
G01 X22.7282 Y7.5236
G01 X22.7104 Y7.6969
G01 X22.7104 Y8.2631
G01 X22.7254 Y8.4204
G01 X22.7504 Y8.5249
G01 X22.8201 Y8.6932
G01 X22.9214 Y8.8448
G01 X23.0502 Y8.9737
G01 X23.1235 Y9.0280
G01 X23.2103 Y9.0792
G01 X23.2103 Y11.0220
G01 X22.5972 Y11.6351
G01 X22.1432 Y11.8447
G01 X22.0769 Y11.8858
G01 X21.9947 Y11.9548
G01 X21.9078 Y12.0638
G01 X21.8425 Y12.2018
G01 X21.8134 Y12.3383
G01 X21.8153 Y12.4778
G01 X21.8524 Y12.6259
G01 X21.9164 Y12.7498
G01 X21.9638 Y12.8117
G01 X22.0283 Y12.8762
G01 X22.1432 Y12.9553
G01 X22.2141 Y12.9876
G01 X22.3014 Y13.0140
G01 X22.4400 Y13.0297
G01 X22.5786 Y13.0140
G01 X22.7224 Y12.9626
G01 X22.7898 Y12.9236
G01 X22.8517 Y12.8762
G01 X22.9162 Y12.8117
G01 X22.9636 Y12.7498
G01 X23.0026 Y12.6824
G01 X23.2049 Y12.2428
G01 X23.9439 Y11.5039
G01 X23.9973 Y11.4387
G01 X24.0512 Y11.3247
G01 X24.0696 Y11.2081
G01 X24.0697 Y9.0792
G01 X24.1565 Y9.0280
G01 X24.2298 Y8.9737
G01 X24.2974 Y8.9124
G01 X24.3802 Y8.8164
G01 X24.3802 Y19.8598
G01 X23.3798 Y20.8602
G01 X18.5802 Y20.8602
G01 X18.0098 Y20.2898
G01 X18.0098 Y20.1864
G01 X18.0874 Y20.1174
G01 X18.1487 Y20.0498
G01 X18.2419 Y19.9123
G01 X18.3146 Y19.7452
G01 X18.3446 Y19.6254
G01 X18.3593 Y19.4762
G01 X18.3532 Y19.3528
G01 X18.3196 Y19.1901
G01 X18.2599 Y19.0420
G01 X18.2599 Y18.0543
G01 X18.3609 Y17.9254
G01 X18.4204 Y17.8261
G01 X18.4757 Y17.7063
G01 X18.5335 Y17.5159
G01 X18.5540 Y17.3856
G01 X18.5593 Y17.2538
G01 X18.5520 Y17.1383
G01 X18.5132 Y16.9432
G01 X18.4633 Y16.8038
G01 X18.4204 Y16.7139
G01 X18.3516 Y16.6014
G01 X18.2919 Y16.5216
G01 X18.2142 Y16.4358
G01 X18.1284 Y16.3581
G01 X18.0354 Y16.2891
G01 X17.9361 Y16.2296
G01 X17.8462 Y16.1867
G01 X17.7068 Y16.1368
G01 X17.6101 Y16.1130
G01 X17.4956 Y16.0960
G01 X17.3800 Y16.0903
G01 X17.2805 Y16.0948
G01 X17.1341 Y16.1165
G01 X17.0376 Y16.1411
G01 X16.9286 Y16.1801
G01 X16.8239 Y16.2296
G01 X16.7383 Y16.2805
G01 X16.6194 Y16.3687
G01 X16.5458 Y16.4358
G01 X16.4681 Y16.5216
G01 X16.3991 Y16.6146
G01 X16.3476 Y16.6998
G01 X16.2843 Y16.8337
G01 X16.2511 Y16.9276
G01 X16.2230 Y17.0399
G01 X16.2048 Y17.1705
G01 X16.2048 Y17.3695
G01 X16.2230 Y17.5001
G01 X16.2562 Y17.6278
G01 X16.3323 Y17.8116
G01 X16.3991 Y17.9254
G01 X16.4787 Y18.0306
G01 X16.6001 Y18.1538
G01 X16.6001 Y19.0420
G01 X16.5404 Y19.1901
G01 X16.5068 Y19.3528
G01 X16.5007 Y19.4762
G01 X16.5182 Y19.6414
G01 X16.5711 Y19.8158
G01 X16.6483 Y19.9628
G01 X16.7219 Y20.0620
G01 X16.8502 Y20.1864
G01 X16.8502 Y20.2098
G01 X16.2398 Y20.8202
G01 X8.9102 Y20.8202
G01 X6.8598 Y18.7698
G01 X6.8598 Y15.5665
G01 X7.2892 Y15.1332
G01 X7.3523 Y15.0387
G01 X7.3908 Y14.9490
G01 X7.4124 Y14.8625
G01 X7.4207 Y14.7734
G01 X7.4208 Y13.8947
G01 X7.4124 Y13.7975
G01 X7.3958 Y13.7263
G01 X7.3596 Y13.6358
G01 X7.3231 Y13.5725
G01 X7.2566 Y13.4905
G01 X6.8598 Y13.0935
G01 X6.8598 Y11.7779
G01 X6.9417 Y11.8312
G01 X7.0083 Y11.8614
G01 X7.1019 Y11.8885
G01 X7.1743 Y11.8981
G01 X8.5218 Y11.8969
G01 X8.6333 Y11.8747
G01 X8.7238 Y11.8385
G01 X8.8003 Y11.7927
G01 X8.8749 Y11.7299
G01 X8.9377 Y11.6553
G01 X8.9835 Y11.5788
G01 X9.0197 Y11.4883
G01 X9.0389 Y11.3997
G01 X10.3281 Y11.3996
G01 X10.4038 Y11.3915
G01 X10.4694 Y11.3728
G01 X10.5587 Y11.3273
G01 X10.6239 Y11.2739
G01 X12.8815 Y9.0162
G01 X12.9679 Y9.0870
G01 X13.0534 Y9.1340
G01 X13.1373 Y9.1640
G01 X13.2493 Y9.1831
G01 X14.0468 Y9.1819
G01 X14.1736 Y9.1546
G01 X14.2984 Y9.0956
G01 X14.3999 Y9.0149
G01 X14.4806 Y8.9134
G01 X14.5396 Y8.7886
G01 X14.5669 Y8.6618
G01 X14.5693 Y7.3388
G01 X14.5490 Y7.2023
G01 X14.4976 Y7.0753
G01 X14.7784 Y7.3561
G01 X14.7317 Y7.5078
G01 X14.7148 Y7.6139
G01 X14.7103 Y8.2550
G01 X14.7282 Y8.4364
G01 X14.7811 Y8.6108
G01 X14.8201 Y8.6932
G01 X14.8763 Y8.7847
G01 X14.9319 Y8.8570
G01 X15.0380 Y8.9631
G01 X15.1235 Y9.0280
G01 X15.2018 Y9.0749
G01 X15.2842 Y9.1139
G01 X15.3857 Y9.1490
G01 X15.5328 Y9.1782
G01 X15.6400 Y9.1847
G01 X15.8054 Y9.1696
G01 X15.9099 Y9.1446
G01 X16.0638 Y9.0822
G01 X16.1565 Y9.0280
G01 X16.2857 Y8.9235
G01 X16.3686 Y8.8320
G01 X16.4217 Y8.7578
G01 X16.4924 Y8.6256
G01 X16.5296 Y8.5249
G01 X16.5546 Y8.4204
G01 X16.5696 Y8.2631
G01 X16.5652 Y7.6139
G01 X16.5296 Y7.4351
G01 X16.4599 Y7.2668
G01 X16.3586 Y7.1152
G01 X16.2298 Y6.9863
G01 X16.1565 Y6.9320
G01 X16.0638 Y6.8778
G01 X15.9252 Y6.8204
G01 X15.8372 Y6.7967
G01 X15.7311 Y6.7798
G01 X15.6400 Y6.7753
G01 X15.5489 Y6.7798
G01 X15.4361 Y6.7984
G01 X14.7566 Y6.1218
G01 X14.6484 Y6.0570
G01 X14.5422 Y6.0283
G01 X8.3560 Y6.0243
G01 X8.2881 Y6.0298
G01 X8.2200 Y6.0465
G01 X8.1150 Y6.0403
G01 X7.5488 Y6.0407
G01 X7.3836 Y6.0582
G01 X7.2092 Y6.1111
G01 X7.0485 Y6.1970
G01 X6.9752 Y6.2513
G01 X6.8899 Y6.3315
G01 X6.8899 Y5.6085
G01 X6.9880 Y5.6986
G01 X7.1412 Y5.7972
G01 X7.2951 Y5.8596
G01 X7.3836 Y5.8818
G01 X7.4900 Y5.8964
G01 X8.2061 Y5.8952
G01 X8.3849 Y5.8596
G01 X8.5330 Y5.7999
G01 X11.3869 Y5.7999
G01 X11.4857 Y5.8340
G01 X11.6328 Y5.8632
G01 X11.7400 Y5.8697
G01 X11.8311 Y5.8652
G01 X11.9943 Y5.8340
G01 X12.1106 Y5.7924
G01 X12.2565 Y5.7130
G01 X12.3857 Y5.6085
G01 X12.4686 Y5.5170
G01 X12.5599 Y5.3782
G01 X12.6246 Y5.2252
G01 X12.6518 Y5.1214
G01 X12.6697 Y4.9400
G01 X12.6518 Y4.7586
G01 X12.5989 Y4.5842
G01 X12.5130 Y4.4235
G01 X12.3974 Y4.2826
G01 X12.2565 Y4.1670
G01 X12.0958 Y4.0811
G01 X11.9214 Y4.0282
G01 X11.7400 Y4.0103
G01 X11.5746 Y4.0254
G01 X11.3993 Y4.0753
G01 X11.2677 Y4.1401
G01 X8.5330 Y4.1401
G01 X8.3849 Y4.0804
G01 X8.2061 Y4.0448
G01 X7.5650 Y4.0403
G01 X7.4682 Y4.0455
G01 X7.6140 Y3.8997
G01 X8.2061 Y3.8952
G01 X8.3693 Y3.8640
G01 X8.4708 Y3.8289
G01 X8.5673 Y3.7819
G01 X8.7048 Y3.6887
G01 X8.7835 Y3.6157
G01 X8.8880 Y3.4865
G01 X8.9739 Y3.3258
G01 X9.0233 Y3.1672
G01 X9.0482 Y3.0107
G01 X9.0414 Y2.8728
G01 X9.0046 Y2.7001
G01 X8.9349 Y2.5318
G01 X8.8336 Y2.3802
G01 X8.7724 Y2.3126
G01 X8.6790 Y2.2317
G01 X11.9040 Y2.2317
G01 X16.4171 Y6.7449
G00 Z2.0000
G00 X7.5619 Y7.6968
G01 F50.00
G01 Z-0.1000
G01 F100.00
G01 X8.1924 Y7.6925
G01 X8.3200 Y7.6672
G01 X8.4576 Y7.6110
G01 X8.5808 Y7.5278
G01 X8.6728 Y7.4358
G01 X8.7193 Y7.3738
G01 X8.7887 Y7.2423
G01 X8.8265 Y7.1179
G01 X8.8383 Y7.0412
G01 X8.8416 Y6.9638
G01 X8.8289 Y6.8343
G01 X8.7814 Y6.6809
G01 X14.3900 Y6.6809
G01 X15.0261 Y7.3169
G01 X14.9710 Y7.4212
G01 X14.9464 Y7.4881
G01 X14.9167 Y7.6338
G01 X14.9167 Y8.3262
G01 X14.9445 Y8.4660
G01 X14.9990 Y8.5976
G01 X15.0782 Y8.7161
G01 X15.1789 Y8.8168
G01 X15.2415 Y8.8626
G01 X15.3562 Y8.9240
G01 X15.5043 Y8.9689
G01 X15.6338 Y8.9816
G01 X15.7112 Y8.9783
G01 X15.8450 Y8.9522
G01 X15.9181 Y8.9265
G01 X15.9880 Y8.8929
G01 X16.0962 Y8.8207
G01 X16.2057 Y8.7112
G01 X16.2779 Y8.6030
G01 X16.3115 Y8.5331
G01 X16.3372 Y8.4600
G01 X16.3633 Y8.3262
G01 X16.3668 Y7.7019
G01 X16.3539 Y7.5693
G01 X16.3090 Y7.4212
G01 X16.2476 Y7.3065
G01 X16.1978 Y7.2392
G01 X16.1058 Y7.1472
G01 X16.0438 Y7.1007
G01 X15.9238 Y7.0360
G01 X15.8450 Y7.0078
G01 X15.7174 Y6.9825
G01 X15.6338 Y6.9784
G01 X15.4982 Y6.9922
G01 X15.3783 Y7.0275
G01 X14.6399 Y6.2893
G01 X14.5765 Y6.2469
G01 X14.5062 Y6.2282
G01 X8.3560 Y6.2271
G01 X8.2961 Y6.2353
G01 X8.2464 Y6.2555
G01 X8.1181 Y6.2432
G01 X7.5619 Y6.2432
G01 X7.4232 Y6.2572
G01 X7.2927 Y6.2963
G01 X7.2170 Y6.3321
G01 X7.1039 Y6.4082
G01 X7.0032 Y6.5089
G01 X6.9240 Y6.6274
G01 X6.8695 Y6.7590
G01 X6.8417 Y6.8988
G01 X6.8417 Y7.0412
G01 X6.8695 Y7.1810
G01 X6.9240 Y7.3126
G01 X7.0032 Y7.4311
G01 X7.0992 Y7.5278
G01 X7.1665 Y7.5776
G01 X7.2869 Y7.6415
G01 X7.4171 Y7.6815
G01 X7.5619 Y7.6968
G00 Z2.0000
G00 X8.1312 Y7.8993
G01 F50.00
G01 Z-0.1000
G01 F100.00
G01 X8.2964 Y7.8818
G01 X8.3849 Y7.8596
G01 X8.4856 Y7.8224
G01 X8.6178 Y7.7517
G01 X8.6920 Y7.6986
G01 X8.8231 Y7.5720
G01 X8.8880 Y7.4865
G01 X8.9349 Y7.4082
G01 X9.0046 Y7.2399
G01 X9.0402 Y7.0611
G01 X9.0406 Y6.8837
G01 X12.9528 Y6.8837
G01 X12.8801 Y6.9451
G01 X12.8080 Y7.0329
G01 X12.7544 Y7.1332
G01 X12.7215 Y7.2419
G01 X12.7104 Y7.3469
G01 X12.7103 Y7.9719
G01 X10.1420 Y10.5403
G01 X9.0389 Y10.5403
G01 X9.0006 Y10.3982
G01 X8.9556 Y10.3116
G01 X8.9131 Y10.2523
G01 X8.8450 Y10.1825
G01 X8.7871 Y10.1380
G01 X8.7238 Y10.1015
G01 X8.6486 Y10.0704
G01 X8.5621 Y10.0487
G01 X8.4731 Y10.0404
G01 X7.6165 Y10.0403
G01 X7.7572 Y9.8997
G01 X8.1231 Y9.8996
G01 X8.2804 Y9.8846
G01 X8.3849 Y9.8596
G01 X8.4708 Y9.8289
G01 X8.6178 Y9.7517
G01 X8.7048 Y9.6887
G01 X8.7724 Y9.6274
G01 X8.8880 Y9.4865
G01 X8.9739 Y9.3258
G01 X9.0233 Y9.1672
G01 X9.0414 Y9.0450
G01 X9.0402 Y8.8789
G01 X9.0090 Y8.7157
G01 X8.9739 Y8.6142
G01 X8.8967 Y8.4672
G01 X8.8336 Y8.3802
G01 X8.7607 Y8.3015
G01 X8.6447 Y8.2063
G01 X8.5532 Y8.1501
G01 X8.4557 Y8.1053
G01 X8.3122 Y8.0617
G01 X8.2222 Y8.0468
G01 X8.1150 Y8.0403
G01 X7.5650 Y8.0403
G01 X7.4253 Y8.0516
G01 X7.1973 Y7.8236
G01 X7.3107 Y7.8640
G01 X7.4739 Y7.8952
G01 X8.1312 Y7.8993
G00 Z2.0000
G00 X7.5619 Y5.6968
G01 F50.00
G01 Z-0.1000
G01 F100.00
G01 X8.1924 Y5.6925
G01 X8.3200 Y5.6672
G01 X8.3931 Y5.6415
G01 X8.4811 Y5.5971
G01 X11.4310 Y5.5971
G01 X11.5290 Y5.6355
G01 X11.6626 Y5.6625
G01 X11.7462 Y5.6666
G01 X11.8818 Y5.6528
G01 X12.0181 Y5.6115
G01 X12.1438 Y5.5443
G01 X12.2539 Y5.4539
G01 X12.3443 Y5.3438
G01 X12.4115 Y5.2181
G01 X12.4528 Y5.0818
G01 X12.4668 Y4.9400
G01 X12.4528 Y4.7982
G01 X12.4137 Y4.6677
G01 X12.3779 Y4.5920
G01 X12.3018 Y4.4789
G01 X12.2058 Y4.3822
G01 X12.1385 Y4.3324
G01 X12.0181 Y4.2685
G01 X11.8879 Y4.2285
G01 X11.8050 Y4.2162
G01 X11.6688 Y4.2167
G01 X11.5350 Y4.2428
G01 X11.4029 Y4.2962
G01 X11.3262 Y4.3429
G01 X8.4811 Y4.3429
G01 X8.3931 Y4.2985
G01 X8.3260 Y4.2745
G01 X8.1862 Y4.2467
G01 X7.5588 Y4.2434
G01 X7.4232 Y4.2572
G01 X7.2927 Y4.2963
G01 X7.2170 Y4.3321
G01 X7.1039 Y4.4082
G01 X7.0032 Y4.5089
G01 X6.9240 Y4.6274
G01 X6.8695 Y4.7590
G01 X6.8417 Y4.8988
G01 X6.8417 Y5.0412
G01 X6.8695 Y5.1810
G01 X6.9240 Y5.3126
G01 X7.0032 Y5.4311
G01 X7.0992 Y5.5278
G01 X7.1665 Y5.5776
G01 X7.2869 Y5.6415
G01 X7.4171 Y5.6815
G01 X7.5619 Y5.6968
G00 Z2.0000
G00 X29.9309 Y15.8282
G01 F50.00
G01 Z-0.1000
G01 F100.00
G01 X29.9073 Y15.6703
G01 X29.8670 Y15.5095
G01 X29.8112 Y15.3533
G01 X29.7403 Y15.2034
G01 X29.6550 Y15.0612
G01 X29.5562 Y14.9280
G01 X29.4449 Y14.8051
G01 X29.3220 Y14.6938
G01 X29.1888 Y14.5950
G01 X29.0466 Y14.5097
G01 X28.8967 Y14.4388
G01 X28.7405 Y14.3830
G01 X28.5797 Y14.3427
G01 X28.4156 Y14.3183
G01 X28.2500 Y14.3102
G01 X28.0844 Y14.3183
G01 X27.9203 Y14.3427
G01 X27.7595 Y14.3830
G01 X27.6033 Y14.4388
G01 X27.4534 Y14.5097
G01 X27.3112 Y14.5950
G01 X27.1780 Y14.6938
G01 X27.0551 Y14.8051
G01 X26.9438 Y14.9280
G01 X26.8450 Y15.0612
G01 X26.7597 Y15.2034
G01 X26.6888 Y15.3533
G01 X26.6330 Y15.5095
G01 X26.5927 Y15.6703
G01 X26.5683 Y15.8344
G01 X26.5602 Y16.0000
G01 X26.5683 Y16.1656
G01 X26.5927 Y16.3297
G01 X26.6330 Y16.4905
G01 X26.6888 Y16.6467
G01 X26.7597 Y16.7966
G01 X26.8450 Y16.9388
G01 X26.9438 Y17.0720
G01 X27.0551 Y17.1949
G01 X27.1780 Y17.3062
G01 X27.3112 Y17.4050
G01 X27.4534 Y17.4903
G01 X27.6033 Y17.5612
G01 X27.7595 Y17.6170
G01 X27.9203 Y17.6573
G01 X28.0844 Y17.6817
G01 X28.2500 Y17.6898
G01 X28.4156 Y17.6817
G01 X28.5797 Y17.6573
G01 X28.7405 Y17.6170
G01 X28.8967 Y17.5612
G01 X29.0466 Y17.4903
G01 X29.1888 Y17.4050
G01 X29.3220 Y17.3062
G01 X29.4449 Y17.1949
G01 X29.5562 Y17.0720
G01 X29.6550 Y16.9388
G01 X29.7403 Y16.7966
G01 X29.8112 Y16.6467
G01 X29.8670 Y16.4905
G01 X29.9073 Y16.3297
G01 X29.9317 Y16.1656
G01 X29.9398 Y16.0000
G01 X29.9309 Y15.8282
G00 Z2.0000
G00 X30.1316 Y15.7984
G01 F50.00
G01 Z-0.1000
G01 F100.00
G01 X30.1063 Y15.6308
G01 X30.0612 Y15.4506
G01 X29.9986 Y15.2757
G01 X29.9192 Y15.1078
G01 X29.8237 Y14.9485
G01 X29.7131 Y14.7993
G01 X29.5883 Y14.6617
G01 X29.4507 Y14.5369
G01 X29.3015 Y14.4263
G01 X29.1422 Y14.3308
G01 X28.9743 Y14.2514
G01 X28.7994 Y14.1888
G01 X28.6192 Y14.1437
G01 X28.4355 Y14.1164
G01 X28.2500 Y14.1073
G01 X28.0645 Y14.1164
G01 X27.8808 Y14.1437
G01 X27.7006 Y14.1888
G01 X27.5257 Y14.2514
G01 X27.3578 Y14.3308
G01 X27.1985 Y14.4263
G01 X27.0493 Y14.5369
G01 X26.9117 Y14.6617
G01 X26.7869 Y14.7993
G01 X26.6763 Y14.9485
G01 X26.5808 Y15.1078
G01 X26.5014 Y15.2757
G01 X26.4388 Y15.4506
G01 X26.3937 Y15.6308
G01 X26.3664 Y15.8145
G01 X26.3573 Y16.0000
G01 X26.3664 Y16.1855
G01 X26.3937 Y16.3692
G01 X26.4388 Y16.5494
G01 X26.5014 Y16.7243
G01 X26.5808 Y16.8922
G01 X26.6763 Y17.0515
G01 X26.7869 Y17.2007
G01 X26.9117 Y17.3383
G01 X27.0493 Y17.4631
G01 X27.1985 Y17.5737
G01 X27.3578 Y17.6692
G01 X27.5257 Y17.7486
G01 X27.7006 Y17.8112
G01 X27.8808 Y17.8563
G01 X28.0645 Y17.8836
G01 X28.2500 Y17.8927
G01 X28.4355 Y17.8836
G01 X28.6192 Y17.8563
G01 X28.7994 Y17.8112
G01 X28.9743 Y17.7486
G01 X29.1422 Y17.6692
G01 X29.3015 Y17.5737
G01 X29.4507 Y17.4631
G01 X29.5883 Y17.3383
G01 X29.7131 Y17.2007
G01 X29.8237 Y17.0515
G01 X29.9192 Y16.8922
G01 X29.9986 Y16.7243
G01 X30.0612 Y16.5494
G01 X30.1063 Y16.3692
G01 X30.1336 Y16.1855
G01 X30.1427 Y16.0000
G01 X30.1316 Y15.7984
G00 Z2.0000
G00 X35.0701 Y18.1706
G01 F50.00
G01 Z-0.1000
G01 F100.00
G01 X35.0249 Y18.0386
G01 X34.9674 Y17.9198
G01 X34.8569 Y17.7544
G01 X34.7803 Y17.6676
G01 X34.6834 Y17.5781
G01 X34.5904 Y17.5091
G01 X34.4911 Y17.4496
G01 X34.3648 Y17.3920
G01 X34.3648 Y15.7085
G01 X35.0701 Y16.4138
G01 X35.0701 Y18.1706
G00 Z2.0000
M05
G00 Z2.0000
G00 Z2.00


