(G-code generated by FlatCAM Evo vUnstable - Version Date: 2023/6/31)

(Name: Toolhead PCB-B_Cu.gbr_iso_combined_cnc)
(Type: G-code from Geometry)
(Units: MM)

(Created on Thursday, 25 September 2025 at 14:51)

(This preprocessor is the default preprocessor.)
(It is made to work with MACH3 compatible motion controllers.)

(TOOL DIAMETER: 0.2375 mm)
(Feedrate_XY: 100.0 mm/min)
(Feedrate_Z: 50.0 mm/min)
(Feedrate rapids 1500.0 mm/min)

(Z_Cut: -0.07 mm)
(Z_Move: 2.0 mm)
(Z Start: None mm)
(Z End: 2.0 mm)
(X,Y End: None mm)
(Steps per circle: 16)
(Preprocessor Geometry: default)

(X range:    0.2621 ...   36.8087  mm)
(Y range:    5.5908 ...   28.8080  mm)

(Spindle Speed: 0.0 RPM)
G21
G90
G94

G01 F100.00
G00 Z2.0000

M03
G4 P1.0
G01 F100.00
G00 X2.3906 Y11.0713
G01 F50.00
G01 Z-0.0700
G01 F100.00
G01 X2.0282 Y11.0722
G01 X2.2116 Y10.8887
G01 X2.5731 Y10.8887
G01 X2.3906 Y11.0713
G00 Z2.0000
G00 X2.6079 Y12.6987
G01 F50.00
G01 Z-0.0700
G01 F100.00
G01 X2.7395 Y12.6859
G01 X2.8192 Y12.6660
G01 X2.9438 Y12.6139
G01 X3.0564 Y12.5392
G01 X3.1173 Y12.4840
G01 X3.2026 Y12.3793
G01 X3.2415 Y12.3136
G01 X3.2928 Y12.1886
G01 X3.3196 Y12.0562
G01 X3.3236 Y11.9742
G01 X3.3099 Y11.8398
G01 X3.2711 Y11.7104
G01 X3.2360 Y11.6361
G01 X3.1606 Y11.5240
G01 X3.0654 Y11.4282
G01 X2.9811 Y11.3683
G01 X7.3286 Y7.0208
G01 X11.9914 Y7.0208
G01 X16.5663 Y11.5957
G01 X16.6373 Y11.6431
G01 X16.7181 Y11.6598
G01 X21.7582 Y11.6598
G01 X21.8273 Y11.6486
G01 X21.8749 Y11.6260
G01 X21.9129 Y11.5957
G01 X25.9909 Y7.5178
G01 X28.4288 Y7.5178
G01 X28.3193 Y7.5550
G01 X28.2333 Y7.5956
G01 X28.1518 Y7.6445
G01 X28.0710 Y7.7050
G01 X27.9450 Y7.8310
G01 X27.8879 Y7.9070
G01 X27.8356 Y7.9933
G01 X27.7950 Y8.0793
G01 X27.7630 Y8.1688
G01 X27.7389 Y8.2667
G01 X27.7255 Y8.3609
G01 X27.7255 Y8.5391
G01 X27.7399 Y8.6390
G01 X27.7630 Y8.7312
G01 X27.7950 Y8.8207
G01 X27.8453 Y8.9230
G01 X24.6992 Y12.0692
G01 X24.6376 Y12.1510
G01 X24.6055 Y12.2285
G01 X24.5911 Y12.3300
G01 X24.5911 Y24.9472
G01 X23.4672 Y26.0711
G01 X18.4928 Y26.0711
G01 X17.8024 Y25.3807
G01 X17.8882 Y25.3082
G01 X17.9776 Y25.1993
G01 X18.0440 Y25.0751
G01 X18.0859 Y24.9345
G01 X18.0986 Y24.8058
G01 X18.0953 Y24.7295
G01 X18.0837 Y24.6541
G01 X18.0490 Y24.5384
G01 X18.0490 Y22.9697
G01 X18.1289 Y22.8846
G01 X18.1886 Y22.8033
G01 X18.2726 Y22.6461
G01 X18.3070 Y22.5512
G01 X18.3301 Y22.4590
G01 X18.3445 Y22.3591
G01 X18.3445 Y22.1809
G01 X18.3301 Y22.0810
G01 X18.3052 Y21.9833
G01 X18.2344 Y21.8133
G01 X18.1324 Y21.6600
G01 X18.0608 Y21.5810
G01 X17.9230 Y21.4679
G01 X17.8315 Y21.4130
G01 X17.6612 Y21.3430
G01 X17.4807 Y21.3066
G01 X17.3800 Y21.3013
G01 X17.2850 Y21.3059
G01 X17.1044 Y21.3414
G01 X17.0039 Y21.3774
G01 X16.8370 Y21.4679
G01 X16.6950 Y21.5850
G01 X16.5745 Y21.7318
G01 X16.4850 Y21.8993
G01 X16.4311 Y22.0753
G01 X16.4155 Y22.1809
G01 X16.4159 Y22.3650
G01 X16.4514 Y22.5456
G01 X16.4850 Y22.6407
G01 X16.5714 Y22.8033
G01 X16.6311 Y22.8846
G01 X16.6992 Y22.9590
G01 X16.8110 Y23.0528
G01 X16.8110 Y24.3619
G01 X16.7490 Y24.4561
G01 X16.7183 Y24.5196
G01 X16.6763 Y24.6541
G01 X16.6613 Y24.8000
G01 X16.6741 Y24.9345
G01 X16.7160 Y25.0751
G01 X16.7824 Y25.1993
G01 X16.8718 Y25.3082
G01 X16.9691 Y25.3892
G01 X16.3272 Y26.0311
G01 X8.8228 Y26.0311
G01 X6.6489 Y23.8572
G01 X6.6489 Y20.4791
G01 X7.1223 Y20.0038
G01 X7.1663 Y19.9392
G01 X7.1922 Y19.8780
G01 X7.2098 Y19.7683
G01 X7.2098 Y18.8917
G01 X7.2028 Y18.8227
G01 X7.1839 Y18.7589
G01 X7.1261 Y18.6606
G01 X6.6489 Y18.1809
G01 X6.6471 Y16.3938
G01 X6.6229 Y16.2943
G01 X6.5867 Y16.2251
G01 X6.4418 Y16.0701
G01 X6.4490 Y15.9096
G01 X6.8711 Y15.4875
G01 X6.8533 Y15.5481
G01 X6.8463 Y15.6200
G01 X6.8463 Y16.3229
G01 X6.8606 Y16.4214
G01 X6.9084 Y16.5249
G01 X6.9811 Y16.6050
G01 X7.0739 Y16.6607
G01 X7.1847 Y16.6874
G01 X8.4650 Y16.6887
G01 X8.5720 Y16.6729
G01 X8.6388 Y16.6452
G01 X8.6989 Y16.6050
G01 X8.7500 Y16.5539
G01 X8.7902 Y16.4938
G01 X8.8179 Y16.4270
G01 X8.8313 Y16.3619
G01 X8.8337 Y16.1888
G01 X10.3200 Y16.1888
G01 X10.3835 Y16.1794
G01 X10.4282 Y16.1601
G01 X10.4747 Y16.1247
G01 X12.9275 Y13.6720
G01 X12.9622 Y13.7736
G01 X13.0088 Y13.8433
G01 X13.0851 Y13.9116
G01 X13.1830 Y13.9579
G01 X13.2871 Y13.9737
G01 X13.9958 Y13.9736
G01 X14.0619 Y13.9667
G01 X14.1311 Y13.9457
G01 X14.1949 Y13.9116
G01 X14.2507 Y13.8657
G01 X14.2966 Y13.8099
G01 X14.3307 Y13.7461
G01 X14.3517 Y13.6769
G01 X14.3587 Y13.6079
G01 X14.3586 Y12.3492
G01 X14.3429 Y12.2480
G01 X14.2932 Y12.1454
G01 X14.2283 Y12.0738
G01 X14.1689 Y12.0327
G01 X14.0970 Y12.0021
G01 X14.0319 Y11.9887
G01 X13.2900 Y11.9863
G01 X13.2124 Y11.9946
G01 X13.1162 Y12.0298
G01 X13.0335 Y12.0902
G01 X12.9803 Y12.1551
G01 X12.9356 Y12.2536
G01 X12.9213 Y12.3521
G01 X12.9213 Y13.0593
G01 X10.2294 Y15.7512
G01 X8.8337 Y15.7512
G01 X8.8267 Y15.5481
G01 X8.8057 Y15.4789
G01 X8.7747 Y15.4201
G01 X8.7257 Y15.3593
G01 X8.6699 Y15.3134
G01 X8.6061 Y15.2793
G01 X8.5312 Y15.2573
G01 X8.4650 Y15.2513
G01 X7.2121 Y15.2513
G01 X7.1431 Y15.2583
G01 X7.0825 Y15.2761
G01 X7.6698 Y14.6887
G01 X8.1179 Y14.6887
G01 X8.2552 Y14.6749
G01 X8.3954 Y14.6317
G01 X8.5094 Y14.5707
G01 X8.5710 Y14.5256
G01 X8.6742 Y14.4214
G01 X8.7460 Y14.3139
G01 X8.7790 Y14.2451
G01 X8.8209 Y14.1045
G01 X8.8307 Y14.0346
G01 X8.8307 Y13.9054
G01 X8.8028 Y13.7614
G01 X8.7460 Y13.6261
G01 X8.7093 Y13.5659
G01 X8.6273 Y13.4660
G01 X8.5191 Y13.3757
G01 X8.3846 Y13.3039
G01 X8.2609 Y13.2663
G01 X8.1912 Y13.2554
G01 X7.5866 Y13.2513
G01 X6.6790 Y12.3436
G01 X6.6790 Y9.5364
G01 X7.5283 Y8.6871
G01 X8.1912 Y8.6846
G01 X8.2609 Y8.6737
G01 X8.3846 Y8.6361
G01 X8.5191 Y8.5643
G01 X8.5754 Y8.5218
G01 X8.6668 Y8.4304
G01 X8.7489 Y8.3088
G01 X8.8044 Y8.1730
G01 X8.8328 Y8.0362
G01 X8.8389 Y7.9700
G01 X8.8199 Y7.8298
G01 X8.7811 Y7.7004
G01 X8.7460 Y7.6261
G01 X8.6706 Y7.5140
G01 X8.5754 Y7.4182
G01 X8.5094 Y7.3693
G01 X8.3901 Y7.3060
G01 X8.2609 Y7.2663
G01 X8.1150 Y7.2513
G01 X7.5621 Y7.2513
G01 X7.4248 Y7.2651
G01 X7.3508 Y7.2840
G01 X7.2262 Y7.3361
G01 X7.0261 Y7.4553
G01 X6.9344 Y7.5303
G01 X5.6183 Y8.8465
G01 X5.5487 Y8.9313
G01 X5.5141 Y8.9882
G01 X5.4695 Y9.0948
G01 X5.4519 Y9.1650
G01 X5.4410 Y9.2800
G01 X5.4447 Y12.6665
G01 X5.4661 Y12.7741
G01 X5.4881 Y12.8369
G01 X5.5170 Y12.8969
G01 X5.5779 Y12.9881
G01 X6.0183 Y13.4337
G01 X5.9288 Y13.3761
G01 X5.7986 Y13.3222
G01 X5.6605 Y13.2947
G01 X5.5195 Y13.2947
G01 X5.3870 Y13.3206
G01 X5.3149 Y13.3460
G01 X5.2021 Y13.4053
G01 X4.3771 Y13.7612
G01 X3.2893 Y13.7612
G01 X3.2415 Y13.6464
G01 X3.2057 Y13.5856
G01 X3.1173 Y13.4760
G01 X3.0043 Y13.3824
G01 X2.8746 Y13.3139
G01 X2.7509 Y13.2763
G01 X2.6696 Y13.2643
G01 X1.9845 Y13.2647
G01 X1.8464 Y13.2922
G01 X1.7214 Y13.3435
G01 X1.6509 Y13.3857
G01 X1.5468 Y13.4718
G01 X1.4574 Y13.5807
G01 X1.3933 Y13.6996
G01 X1.3656 Y13.7770
G01 X1.3393 Y13.9154
G01 X1.3397 Y14.0504
G01 X1.3672 Y14.1886
G01 X1.4211 Y14.3188
G01 X1.4994 Y14.4360
G01 X1.5990 Y14.5356
G01 X1.7162 Y14.6139
G01 X1.8464 Y14.6678
G01 X1.9788 Y14.6946
G01 X2.6696 Y14.6957
G01 X2.7509 Y14.6837
G01 X2.8746 Y14.6461
G01 X3.0043 Y14.5776
G01 X3.1173 Y14.4840
G01 X3.2057 Y14.3744
G01 X3.2415 Y14.3136
G01 X3.2893 Y14.1988
G01 X4.3735 Y14.1988
G01 X5.3096 Y14.6717
G01 X5.3870 Y14.6994
G01 X5.5138 Y14.7246
G01 X5.6604 Y14.7253
G01 X5.7986 Y14.6978
G01 X5.9288 Y14.6439
G01 X6.0305 Y14.5772
G01 X5.3903 Y15.2175
G01 X5.3187 Y15.3045
G01 X5.2843 Y15.3610
G01 X2.9689 Y15.3610
G01 X2.8801 Y15.3160
G01 X2.8136 Y15.2922
G01 X2.6755 Y15.2647
G01 X2.0521 Y15.2613
G01 X1.9205 Y15.2741
G01 X1.8408 Y15.2940
G01 X1.7111 Y15.3490
G01 X1.5990 Y15.4244
G01 X1.4994 Y15.5240
G01 X1.4240 Y15.6361
G01 X1.3889 Y15.7104
G01 X1.3501 Y15.8398
G01 X1.3363 Y15.9800
G01 X1.3501 Y16.1202
G01 X1.3889 Y16.2496
G01 X1.4543 Y16.3744
G01 X1.5032 Y16.4404
G01 X1.5990 Y16.5356
G01 X1.7162 Y16.6139
G01 X1.8464 Y16.6678
G01 X1.9788 Y16.6946
G01 X2.6755 Y16.6953
G01 X2.8136 Y16.6678
G01 X2.8801 Y16.6440
G01 X2.9689 Y16.5990
G01 X5.8300 Y16.5990
G01 X5.9111 Y16.5931
G01 X5.9129 Y18.3698
G01 X5.9288 Y18.4463
G01 X5.9702 Y18.5337
G01 X6.0151 Y18.5903
G01 X6.1133 Y18.6886
G01 X5.9704 Y18.6350
G01 X4.8327 Y17.5015
G01 X4.7369 Y17.4370
G01 X4.6769 Y17.4081
G01 X4.5664 Y17.3742
G01 X4.4949 Y17.3636
G01 X3.2069 Y17.3610
G01 X3.1599 Y17.3234
G01 X3.0961 Y17.2893
G01 X3.0269 Y17.2683
G01 X2.9579 Y17.2613
G01 X1.7050 Y17.2613
G01 X1.5980 Y17.2771
G01 X1.5051 Y17.3203
G01 X1.4402 Y17.3735
G01 X1.3798 Y17.4562
G01 X1.3446 Y17.5524
G01 X1.3363 Y17.6300
G01 X1.3380 Y18.3661
G01 X1.3667 Y18.4764
G01 X1.3984 Y18.5349
G01 X1.4443 Y18.5907
G01 X1.5364 Y18.6578
G01 X1.5980 Y18.6829
G01 X1.6689 Y18.6970
G01 X2.9608 Y18.6986
G01 X3.0269 Y18.6917
G01 X3.0961 Y18.6707
G01 X3.1599 Y18.6366
G01 X3.2069 Y18.5990
G01 X4.1836 Y18.5990
G01 X5.0950 Y19.5104
G01 X5.1283 Y19.6104
G01 X5.1924 Y19.7293
G01 X5.2818 Y19.8382
G01 X5.3859 Y19.9243
G01 X5.4564 Y19.9665
G01 X5.5758 Y20.0160
G01 X5.7254 Y20.0457
G01 X5.8546 Y20.0457
G01 X5.9302 Y20.0349
G01 X6.0042 Y20.0160
G01 X6.1133 Y19.9714
G01 X5.9987 Y20.0879
G01 X5.9576 Y20.1474
G01 X5.9255 Y20.2249
G01 X5.9113 Y20.3205
G01 X5.9111 Y24.0100
G01 X5.9182 Y24.0820
G01 X5.9371 Y24.1457
G01 X5.9733 Y24.2149
G01 X6.0192 Y24.2708
G01 X8.4092 Y26.6608
G01 X8.4910 Y26.7224
G01 X8.5685 Y26.7545
G01 X8.6700 Y26.7689
G01 X16.5162 Y26.7671
G01 X16.6212 Y26.7408
G01 X16.7184 Y26.6813
G01 X17.3900 Y26.0117
G01 X18.1016 Y26.7213
G01 X18.1988 Y26.7808
G01 X18.3038 Y26.8071
G01 X23.6229 Y26.8088
G01 X23.6920 Y26.8018
G01 X23.7557 Y26.7829
G01 X23.8540 Y26.7251
G01 X25.2249 Y25.3566
G01 X25.2667 Y25.3049
G01 X25.2984 Y25.2465
G01 X25.3271 Y25.1362
G01 X25.3289 Y12.4828
G01 X28.4293 Y9.3823
G01 X28.6009 Y9.4145
G01 X28.9958 Y9.4186
G01 X29.1790 Y9.4001
G01 X29.2712 Y9.3770
G01 X29.3661 Y9.3426
G01 X29.4517 Y9.3015
G01 X29.6000 Y9.2024
G01 X29.7350 Y9.0690
G01 X29.7955 Y8.9882
G01 X29.8444 Y8.9067
G01 X29.8850 Y8.8207
G01 X29.9222 Y8.7112
G01 X29.9222 Y9.5584
G01 X29.4993 Y9.9813
G01 X28.0900 Y9.9813
G01 X28.0181 Y9.9883
G01 X27.9111 Y10.0277
G01 X27.8561 Y10.0650
G01 X27.8088 Y10.1117
G01 X27.7493 Y10.2089
G01 X27.7226 Y10.3197
G01 X27.7230 Y11.5861
G01 X27.7371 Y11.6570
G01 X27.7648 Y11.7238
G01 X27.8050 Y11.7839
G01 X27.8561 Y11.8350
G01 X27.9543 Y11.8928
G01 X28.0181 Y11.9117
G01 X28.0871 Y11.9187
G01 X29.5929 Y11.9187
G01 X29.6619 Y11.9117
G01 X29.7228 Y11.8938
G01 X29.6555 Y11.9611
G01 X27.3900 Y11.9611
G01 X27.2829 Y11.9770
G01 X27.2110 Y12.0076
G01 X27.1313 Y12.0671
G01 X26.3861 Y12.8123
G01 X26.3211 Y12.9023
G01 X26.2885 Y12.9933
G01 X26.2801 Y13.0710
G01 X26.2801 Y15.9910
G01 X26.2872 Y16.0630
G01 X26.3082 Y16.1322
G01 X26.3423 Y16.1960
G01 X26.3861 Y16.2498
G01 X27.2650 Y17.1261
G01 X27.3525 Y17.1794
G01 X27.4270 Y17.2028
G01 X27.4961 Y17.2098
G01 X27.7414 Y17.2099
G01 X28.8355 Y18.3039
G01 X28.8893 Y18.3477
G01 X28.9477 Y18.3794
G01 X29.0223 Y18.4028
G01 X29.0913 Y18.4098
G01 X31.3733 Y18.4099
G01 X33.4161 Y20.4527
G01 X33.4161 Y22.5472
G01 X33.2643 Y22.5950
G01 X33.1017 Y22.6814
G01 X33.0160 Y22.7450
G01 X32.8900 Y22.8710
G01 X32.8264 Y22.9567
G01 X32.7400 Y23.1193
G01 X32.6861 Y23.2953
G01 X32.6705 Y23.4009
G01 X32.6705 Y23.5791
G01 X32.6849 Y23.6790
G01 X32.7379 Y23.8553
G01 X32.7806 Y23.9467
G01 X32.8826 Y24.1000
G01 X32.9500 Y24.1750
G01 X33.0250 Y24.2424
G01 X33.1733 Y24.3415
G01 X33.2643 Y24.3850
G01 X33.3594 Y24.4186
G01 X33.5343 Y24.4534
G01 X33.6292 Y24.4586
G01 X34.0300 Y24.4541
G01 X34.1297 Y24.4389
G01 X34.3003 Y24.3871
G01 X34.3917 Y24.3444
G01 X34.4780 Y24.2921
G01 X34.6158 Y24.1790
G01 X34.6839 Y24.1046
G01 X34.7405 Y24.0282
G01 X34.7920 Y23.9415
G01 X34.8602 Y23.7767
G01 X34.8839 Y23.6847
G01 X34.8991 Y23.5850
G01 X34.9037 Y23.4900
G01 X34.8851 Y23.3010
G01 X34.8300 Y23.1193
G01 X34.7405 Y22.9518
G01 X34.6200 Y22.8050
G01 X34.4732 Y22.6845
G01 X34.3057 Y22.5950
G01 X34.1539 Y22.5472
G01 X34.1539 Y20.2999
G01 X34.1478 Y20.2337
G01 X34.1330 Y20.1784
G01 X35.2810 Y21.3264
G01 X35.2810 Y24.2936
G01 X34.5526 Y25.0220
G01 X33.0292 Y25.0214
G01 X32.9631 Y25.0283
G01 X32.8993 Y25.0472
G01 X32.8011 Y25.1050
G01 X32.7500 Y25.1561
G01 X32.7098 Y25.2162
G01 X32.6821 Y25.2830
G01 X32.6680 Y25.3539
G01 X32.6663 Y26.2334
G01 X31.5196 Y27.3800
G01 X5.7054 Y27.3800
G01 X4.4987 Y26.1734
G01 X4.4963 Y25.2881
G01 X4.4728 Y25.1943
G01 X4.4397 Y25.1301
G01 X4.3907 Y25.0693
G01 X4.3396 Y25.0268
G01 X4.2370 Y24.9771
G01 X4.1358 Y24.9614
G01 X2.6300 Y24.9613
G01 X2.5174 Y24.9790
G01 X2.4562 Y25.0048
G01 X2.3961 Y25.0450
G01 X2.3450 Y25.0961
G01 X2.3022 Y25.1614
G01 X2.2696 Y25.2524
G01 X2.2613 Y25.3271
G01 X2.2626 Y26.5603
G01 X2.2893 Y26.6711
G01 X2.3450 Y26.7639
G01 X2.3961 Y26.8150
G01 X2.4562 Y26.8552
G01 X2.5230 Y26.8829
G01 X2.5939 Y26.8970
G01 X3.4734 Y26.8987
G01 X5.0134 Y28.4387
G01 X5.1100 Y28.5168
G01 X5.1624 Y28.5475
G01 X5.2638 Y28.5895
G01 X5.3340 Y28.6071
G01 X5.4490 Y28.6180
G01 X31.8425 Y28.6143
G01 X31.9501 Y28.5929
G01 X32.0129 Y28.5709
G01 X32.1150 Y28.5168
G01 X32.1731 Y28.4737
G01 X33.6916 Y26.9587
G01 X34.5711 Y26.9570
G01 X34.6761 Y26.9307
G01 X34.7689 Y26.8750
G01 X34.8416 Y26.7949
G01 X34.8879 Y26.6970
G01 X34.9024 Y26.6203
G01 X34.9037 Y26.4216
G01 X36.3397 Y24.9856
G01 X36.4178 Y24.8890
G01 X36.4695 Y24.7922
G01 X36.4905 Y24.7352
G01 X36.5081 Y24.6650
G01 X36.5190 Y24.5500
G01 X36.5190 Y21.0700
G01 X36.5153 Y21.0035
G01 X36.4939 Y20.8959
G01 X36.4459 Y20.7782
G01 X36.3821 Y20.6819
G01 X36.3377 Y20.6323
G01 X32.3577 Y16.6523
G01 X32.2639 Y16.5753
G01 X32.1325 Y16.5093
G01 X34.0644 Y16.5093
G01 X34.2421 Y16.6202
G01 X34.3805 Y16.6855
G01 X34.5301 Y16.7390
G01 X34.6899 Y16.7786
G01 X34.8413 Y16.8010
G01 X34.9942 Y16.8086
G01 X35.1587 Y16.8010
G01 X35.3215 Y16.7764
G01 X35.4699 Y16.7390
G01 X35.6140 Y16.6876
G01 X35.7631 Y16.6176
G01 X35.8993 Y16.5359
G01 X36.0269 Y16.4413
G01 X36.1446 Y16.3346
G01 X36.2549 Y16.2123
G01 X36.3459 Y16.0893
G01 X36.4247 Y15.9581
G01 X36.4932 Y15.8148
G01 X36.5490 Y15.6599
G01 X36.5864 Y15.5115
G01 X36.6110 Y15.3487
G01 X36.6187 Y15.1900
G01 X36.6110 Y15.0313
G01 X36.5876 Y14.8742
G01 X36.5490 Y14.7201
G01 X36.4955 Y14.5705
G01 X36.4276 Y14.4269
G01 X36.3426 Y14.2859
G01 X36.2513 Y14.1631
G01 X36.1486 Y14.0496
G01 X36.0313 Y13.9425
G01 X35.8993 Y13.8441
G01 X35.7631 Y13.7624
G01 X35.6195 Y13.6945
G01 X35.4643 Y13.6394
G01 X35.3158 Y13.6024
G01 X35.1644 Y13.5798
G01 X35.0000 Y13.5713
G01 X34.8356 Y13.5798
G01 X34.6842 Y13.6024
G01 X34.5357 Y13.6394
G01 X34.3805 Y13.6945
G01 X34.2369 Y13.7624
G01 X34.1007 Y13.8441
G01 X33.9687 Y13.9425
G01 X33.8514 Y14.0496
G01 X33.7487 Y14.1631
G01 X33.6687 Y14.2707
G01 X29.8900 Y14.2713
G01 X29.7830 Y14.2871
G01 X29.6851 Y14.3334
G01 X29.6050 Y14.4061
G01 X29.5493 Y14.4989
G01 X29.5230 Y14.6039
G01 X29.5213 Y16.1429
G01 X29.5283 Y16.2119
G01 X29.5461 Y16.2725
G01 X29.1202 Y15.8467
G01 X29.1721 Y15.7091
G01 X29.1973 Y15.6083
G01 X29.2134 Y15.4997
G01 X29.2187 Y15.3900
G01 X29.2138 Y15.2862
G01 X29.1973 Y15.1717
G01 X29.1706 Y15.0652
G01 X29.1357 Y14.9673
G01 X29.0838 Y14.8576
G01 X29.0302 Y14.7685
G01 X28.9648 Y14.6803
G01 X28.8441 Y14.5561
G01 X28.8441 Y14.2840
G01 X28.9780 Y14.1501
G01 X31.7840 Y14.1501
G01 X31.9234 Y14.1368
G01 X32.0055 Y14.1162
G01 X32.0741 Y14.0911
G01 X32.1925 Y14.0278
G01 X32.3081 Y13.9342
G01 X34.4335 Y11.8087
G01 X35.8352 Y11.8046
G01 X36.0077 Y11.7695
G01 X36.1543 Y11.7088
G01 X36.2326 Y11.6623
G01 X36.3643 Y11.5543
G01 X36.4755 Y11.4177
G01 X36.5503 Y11.2778
G01 X36.5795 Y11.1977
G01 X36.6139 Y11.0309
G01 X36.6187 Y9.4371
G01 X36.6021 Y9.2705
G01 X36.5547 Y9.1130
G01 X36.4690 Y8.9526
G01 X36.3683 Y8.8299
G01 X36.3011 Y8.7684
G01 X36.2277 Y8.7145
G01 X36.0878 Y8.6397
G01 X35.9137 Y8.5869
G01 X35.7500 Y8.5713
G01 X34.2442 Y8.5714
G01 X34.1591 Y8.5761
G01 X34.0034 Y8.6071
G01 X33.8405 Y8.6738
G01 X33.6989 Y8.7684
G01 X33.5749 Y8.8935
G01 X33.5245 Y8.9623
G01 X33.4497 Y9.1022
G01 X33.3979 Y9.2705
G01 X33.3813 Y9.4400
G01 X33.3813 Y10.7565
G01 X31.4758 Y12.6619
G01 X29.9685 Y12.6619
G01 X30.0132 Y12.6367
G01 X30.0670 Y12.5929
G01 X30.5559 Y12.1039
G01 X30.6163 Y12.0212
G01 X30.6528 Y11.9193
G01 X30.6599 Y11.8473
G01 X30.6599 Y10.4310
G01 X30.9807 Y10.1066
G01 X31.0328 Y10.0184
G01 X31.0591 Y9.9134
G01 X31.0608 Y7.7421
G01 X31.0538 Y7.6730
G01 X31.0328 Y7.6038
G01 X30.9987 Y7.5401
G01 X30.9549 Y7.4863
G01 X29.9537 Y6.4851
G01 X29.8950 Y6.4382
G01 X29.8076 Y6.3968
G01 X29.6950 Y6.3791
G01 X25.6720 Y6.3791
G01 X25.5943 Y6.3875
G01 X25.5033 Y6.4201
G01 X25.4112 Y6.4872
G01 X21.3772 Y10.5211
G01 X17.1020 Y10.5211
G01 X12.5711 Y5.9902
G01 X12.5102 Y5.9412
G01 X12.4228 Y5.8998
G01 X12.3102 Y5.8821
G01 X4.0590 Y5.8821
G01 X3.9813 Y5.8905
G01 X3.8851 Y5.9257
G01 X3.8002 Y5.9881
G01 X2.5271 Y7.2613
G01 X2.0521 Y7.2613
G01 X1.9148 Y7.2751
G01 X1.8408 Y7.2940
G01 X1.7162 Y7.3461
G01 X1.6036 Y7.4208
G01 X1.5427 Y7.4760
G01 X1.4574 Y7.5807
G01 X1.3910 Y7.7049
G01 X1.3501 Y7.8398
G01 X1.3363 Y7.9800
G01 X1.3501 Y8.1202
G01 X1.3910 Y8.2551
G01 X1.4574 Y8.3793
G01 X1.5510 Y8.4923
G01 X1.6557 Y8.5776
G01 X1.7746 Y8.6417
G01 X1.8520 Y8.6694
G01 X1.9904 Y8.6957
G01 X2.6754 Y8.6953
G01 X2.7509 Y8.6837
G01 X2.8746 Y8.6461
G01 X3.0043 Y8.5776
G01 X3.1132 Y8.4882
G01 X3.2026 Y8.3793
G01 X3.2690 Y8.2551
G01 X3.3099 Y8.1202
G01 X3.3237 Y7.9800
G01 X3.3099 Y7.8398
G01 X3.2690 Y7.7049
G01 X3.2208 Y7.6108
G01 X4.2118 Y6.6199
G01 X7.1168 Y6.6199
G01 X2.4693 Y11.2613
G01 X2.0492 Y11.2614
G01 X1.9788 Y11.2654
G01 X1.8520 Y11.2906
G01 X1.7746 Y11.3183
G01 X1.6557 Y11.3824
G01 X1.5510 Y11.4677
G01 X1.4958 Y11.5286
G01 X1.4211 Y11.6412
G01 X1.3672 Y11.7714
G01 X1.3397 Y11.9096
G01 X1.3393 Y12.0446
G01 X1.3656 Y12.1830
G01 X1.3933 Y12.2604
G01 X1.4574 Y12.3793
G01 X1.5427 Y12.4840
G01 X1.6036 Y12.5392
G01 X1.7162 Y12.6139
G01 X1.8408 Y12.6660
G01 X1.9148 Y12.6849
G01 X2.0521 Y12.6987
G01 X2.6079 Y12.6987
G00 Z2.0000
G00 X2.6126 Y12.8887
G01 F50.00
G01 Z-0.0700
G01 F100.00
G01 X2.7674 Y12.8739
G01 X2.8688 Y12.8496
G01 X3.0198 Y12.7883
G01 X3.1099 Y12.7356
G01 X3.1930 Y12.6726
G01 X3.3075 Y12.5565
G01 X3.3687 Y12.4721
G01 X3.4446 Y12.3278
G01 X3.4787 Y12.2292
G01 X3.5094 Y12.0691
G01 X3.5105 Y11.9060
G01 X3.4963 Y11.8027
G01 X3.4699 Y11.7018
G01 X3.4064 Y11.5516
G01 X3.3519 Y11.4627
G01 X3.2636 Y11.3545
G01 X5.2510 Y9.3671
G01 X5.2538 Y12.6642
G01 X5.2699 Y12.7726
G01 X5.3126 Y12.9096
G01 X5.3792 Y13.0367
G01 X5.4361 Y13.1149
G01 X5.3262 Y13.1404
G01 X5.2422 Y13.1704
G01 X5.1155 Y13.2357
G01 X4.3379 Y13.5712
G01 X3.4161 Y13.5712
G01 X3.3606 Y13.4751
G01 X3.2976 Y13.3920
G01 X3.1930 Y13.2874
G01 X3.1099 Y13.2244
G01 X3.0198 Y13.1717
G01 X2.8832 Y13.1151
G01 X2.7823 Y13.0887
G01 X2.6790 Y13.0745
G01 X2.0474 Y13.0713
G01 X1.8629 Y13.0920
G01 X1.7214 Y13.1350
G01 X1.6134 Y13.1860
G01 X1.4785 Y13.2775
G01 X1.3799 Y13.3728
G01 X1.3799 Y12.5872
G01 X1.4785 Y12.6825
G01 X1.6134 Y12.7740
G01 X1.7214 Y12.8250
G01 X1.8629 Y12.8680
G01 X2.0474 Y12.8887
G01 X2.6126 Y12.8887
G00 Z2.0000
G00 X2.6126 Y14.8887
G01 F50.00
G01 Z-0.0700
G01 F100.00
G01 X2.7674 Y14.8739
G01 X2.8688 Y14.8496
G01 X2.9666 Y14.8134
G01 X3.0971 Y14.7437
G01 X3.1930 Y14.6726
G01 X3.2976 Y14.5680
G01 X3.3606 Y14.4849
G01 X3.4161 Y14.3888
G01 X4.3285 Y14.3888
G01 X5.2284 Y14.8434
G01 X5.3262 Y14.8796
G01 X5.4342 Y14.9049
G01 X5.2527 Y15.0865
G01 X5.1811 Y15.1710
G01 X3.0183 Y15.1710
G01 X2.8688 Y15.1104
G01 X2.6941 Y15.0756
G01 X1.9810 Y15.0745
G01 X1.8777 Y15.0887
G01 X1.7912 Y15.1104
G01 X1.6402 Y15.1717
G01 X1.4904 Y15.2682
G01 X1.3799 Y15.3728
G01 X1.3799 Y14.5872
G01 X1.4785 Y14.6825
G01 X1.6134 Y14.7740
G01 X1.7214 Y14.8250
G01 X1.8629 Y14.8680
G01 X2.0474 Y14.8887
G01 X2.6126 Y14.8887
G00 Z2.0000
G00 X1.4234 Y16.6330
G01 F50.00
G01 Z-0.0700
G01 F100.00
G01 X1.5501 Y16.7356
G01 X1.7072 Y16.8196
G01 X1.8777 Y16.8713
G01 X2.0474 Y16.8887
G01 X2.6941 Y16.8844
G01 X2.8688 Y16.8496
G01 X3.0183 Y16.7890
G01 X5.7211 Y16.7890
G01 X5.7211 Y18.1170
G01 X4.9532 Y17.3546
G01 X4.8767 Y17.2992
G01 X4.7634 Y17.2387
G01 X4.5978 Y17.1865
G01 X4.4400 Y17.1710
G01 X3.2734 Y17.1710
G01 X3.2049 Y17.1304
G01 X3.1172 Y17.0953
G01 X3.0248 Y17.0758
G01 X2.9550 Y17.0713
G01 X1.6653 Y17.0728
G01 X1.5960 Y17.0820
G01 X1.5053 Y17.1083
G01 X1.3799 Y17.1759
G01 X1.3799 Y16.5872
G01 X1.4234 Y16.6330
G00 Z2.0000
G00 X0.4539 Y20.9072
G01 F50.00
G01 Z-0.0700
G01 F100.00
G01 X0.4826 Y21.0175
G01 X0.5143 Y21.0759
G01 X0.5581 Y21.1297
G01 X2.3853 Y22.9570
G01 X2.3329 Y23.0647
G01 X2.2789 Y23.2467
G01 X2.2613 Y23.4300
G01 X2.2799 Y23.6190
G01 X2.3350 Y23.8007
G01 X2.4214 Y23.9633
G01 X2.4850 Y24.0490
G01 X2.6154 Y24.1789
G01 X2.6967 Y24.2386
G01 X2.8539 Y24.3226
G01 X2.9488 Y24.3570
G01 X3.0410 Y24.3801
G01 X3.2271 Y24.3987
G01 X3.6250 Y24.3941
G01 X3.8112 Y24.3570
G01 X3.9867 Y24.2844
G01 X4.1446 Y24.1789
G01 X4.2789 Y24.0446
G01 X4.3844 Y23.8867
G01 X4.4552 Y23.7167
G01 X4.4811 Y23.6133
G01 X4.4986 Y23.4242
G01 X4.4801 Y23.2410
G01 X4.4250 Y23.0593
G01 X4.3355 Y22.8918
G01 X4.2190 Y22.7492
G01 X4.1400 Y22.6776
G01 X3.9867 Y22.5756
G01 X3.8167 Y22.5048
G01 X3.7190 Y22.4799
G01 X3.5358 Y22.4614
G01 X3.2271 Y22.4613
G01 X3.1293 Y22.4666
G01 X2.9693 Y22.4977
G01 X1.1899 Y20.7182
G01 X1.1899 Y11.6418
G01 X2.1329 Y10.6987
G01 X2.6108 Y10.6986
G01 X2.7395 Y10.6859
G01 X2.8136 Y10.6678
G01 X2.9386 Y10.6165
G01 X3.0091 Y10.5743
G01 X3.1132 Y10.4882
G01 X3.2026 Y10.3793
G01 X3.2711 Y10.2496
G01 X3.3087 Y10.1259
G01 X3.3203 Y10.0504
G01 X3.3236 Y9.9742
G01 X3.3109 Y9.8455
G01 X3.2690 Y9.7049
G01 X3.2360 Y9.6361
G01 X3.1642 Y9.5286
G01 X3.0610 Y9.4244
G01 X2.9994 Y9.3793
G01 X2.8854 Y9.3183
G01 X2.7452 Y9.2751
G01 X2.6050 Y9.2613
G01 X2.0521 Y9.2613
G01 X1.9205 Y9.2741
G01 X1.8408 Y9.2940
G01 X1.7162 Y9.3461
G01 X1.6509 Y9.3857
G01 X1.5510 Y9.4677
G01 X1.4958 Y9.5286
G01 X1.4185 Y9.6464
G01 X1.3672 Y9.7714
G01 X1.3404 Y9.9038
G01 X1.3364 Y9.9858
G01 X1.3501 Y10.1202
G01 X1.3910 Y10.2551
G01 X1.4392 Y10.3492
G01 X0.5561 Y11.2324
G01 X0.4957 Y11.3151
G01 X0.4592 Y11.4170
G01 X0.4521 Y11.4890
G01 X0.4539 Y20.9072
G00 Z2.0000
G00 X6.4314 Y19.6533
G01 F50.00
G01 Z-0.0700
G01 F100.00
G01 X6.4721 Y19.5549
G01 X6.4721 Y19.6125
G01 X6.4314 Y19.6533
G00 Z2.0000
G00 X6.4721 Y19.1051
G01 F50.00
G01 Z-0.0700
G01 F100.00
G01 X6.4314 Y19.0067
G01 X6.4721 Y19.0475
G01 X6.4721 Y19.1051
G00 Z2.0000
G00 X6.6385 Y15.9981
G01 F50.00
G01 Z-0.0700
G01 F100.00
G01 X6.6389 Y15.9884
G01 X6.6563 Y15.9710
G01 X6.6563 Y16.0159
G01 X6.6385 Y15.9981
G00 Z2.0000
G00 X6.1572 Y14.4505
G01 F50.00
G01 Z-0.0700
G01 F100.00
G01 X6.2265 Y14.3436
G01 X6.2778 Y14.2186
G01 X6.3046 Y14.0862
G01 X6.3086 Y14.0042
G01 X6.2959 Y13.8755
G01 X6.2760 Y13.7958
G01 X6.2239 Y13.6712
G01 X6.1663 Y13.5817
G01 X6.5962 Y14.0116
G01 X6.1572 Y14.4505
G00 Z2.0000
G00 X8.1301 Y12.8784
G01 F50.00
G01 Z-0.0700
G01 F100.00
G01 X8.2923 Y12.8613
G01 X8.3788 Y12.8396
G01 X8.4766 Y12.8034
G01 X8.6071 Y12.7337
G01 X8.6796 Y12.6818
G01 X8.8076 Y12.5580
G01 X8.8706 Y12.4749
G01 X8.9164 Y12.3984
G01 X8.9846 Y12.2338
G01 X9.0194 Y12.0591
G01 X9.0237 Y11.9700
G01 X9.0171 Y11.8628
G01 X13.0256 Y11.8628
G01 X12.9355 Y11.9231
G01 X12.8581 Y12.0005
G01 X12.7972 Y12.0916
G01 X12.7513 Y12.2074
G01 X12.7313 Y12.3474
G01 X12.7313 Y12.9806
G01 X10.1507 Y15.5612
G01 X9.0206 Y15.5612
G01 X9.0037 Y15.4724
G01 X8.9812 Y15.4062
G01 X8.9377 Y15.3224
G01 X8.8969 Y15.2655
G01 X8.8309 Y15.1980
G01 X8.7754 Y15.1554
G01 X8.6416 Y15.0901
G01 X8.5591 Y15.0694
G01 X8.4726 Y15.0613
G01 X7.5660 Y15.0613
G01 X7.7485 Y14.8787
G01 X8.2191 Y14.8725
G01 X8.3788 Y14.8396
G01 X8.4628 Y14.8096
G01 X8.5566 Y14.7640
G01 X8.6915 Y14.6725
G01 X8.8175 Y14.5465
G01 X8.9164 Y14.3984
G01 X8.9546 Y14.3178
G01 X8.9887 Y14.2192
G01 X9.0175 Y14.0741
G01 X9.0237 Y13.9700
G01 X9.0089 Y13.8076
G01 X8.9846 Y13.7062
G01 X8.9233 Y13.5552
G01 X8.8706 Y13.4651
G01 X8.8076 Y13.3820
G01 X8.7030 Y13.2774
G01 X8.6199 Y13.2144
G01 X8.5298 Y13.1617
G01 X8.3932 Y13.1051
G01 X8.2923 Y13.0787
G01 X8.1226 Y13.0613
G01 X7.6653 Y13.0613
G01 X7.4787 Y12.8746
G01 X8.1301 Y12.8784
G00 Z2.0000
G00 X7.5621 Y12.6887
G01 F50.00
G01 Z-0.0700
G01 F100.00
G01 X8.1912 Y12.6846
G01 X8.3180 Y12.6594
G01 X8.4538 Y12.6039
G01 X8.5754 Y12.5218
G01 X8.6668 Y12.4304
G01 X8.7126 Y12.3693
G01 X8.7811 Y12.2396
G01 X8.8187 Y12.1159
G01 X8.8303 Y12.0404
G01 X8.8336 Y11.9642
G01 X8.8209 Y11.8355
G01 X8.8028 Y11.7614
G01 X8.7687 Y11.6728
G01 X14.3934 Y11.6728
G01 X15.0362 Y12.3157
G01 X14.9783 Y12.4246
G01 X14.9540 Y12.4908
G01 X14.9247 Y12.6346
G01 X14.9247 Y13.3254
G01 X14.9522 Y13.4636
G01 X15.0061 Y13.5938
G01 X15.0844 Y13.7110
G01 X15.1840 Y13.8106
G01 X15.2456 Y13.8557
G01 X15.3596 Y13.9167
G01 X15.5055 Y13.9609
G01 X15.6342 Y13.9736
G01 X15.7105 Y13.9703
G01 X15.8430 Y13.9444
G01 X15.9151 Y13.9190
G01 X15.9839 Y13.8860
G01 X16.0914 Y13.8142
G01 X16.1992 Y13.7064
G01 X16.2710 Y13.5989
G01 X16.3040 Y13.5301
G01 X16.3294 Y13.4580
G01 X16.3553 Y13.3254
G01 X16.3587 Y12.7021
G01 X16.3459 Y12.5705
G01 X16.3017 Y12.4246
G01 X16.2407 Y12.3106
G01 X16.1918 Y12.2446
G01 X16.1004 Y12.1532
G01 X16.0393 Y12.1074
G01 X15.9204 Y12.0433
G01 X15.8430 Y12.0156
G01 X15.7162 Y11.9904
G01 X15.6342 Y11.9864
G01 X15.4998 Y12.0001
G01 X15.3762 Y12.0368
G01 X14.6345 Y11.2953
G01 X14.5731 Y11.2542
G01 X14.5054 Y11.2363
G01 X8.3560 Y11.2352
G01 X8.2981 Y11.2431
G01 X8.2479 Y11.2638
G01 X8.1179 Y11.2513
G01 X7.5621 Y11.2513
G01 X7.4248 Y11.2651
G01 X7.2954 Y11.3039
G01 X7.2211 Y11.3390
G01 X7.1090 Y11.4144
G01 X7.0094 Y11.5140
G01 X6.9311 Y11.6312
G01 X6.8772 Y11.7614
G01 X6.8497 Y11.8996
G01 X6.8497 Y12.0404
G01 X6.8772 Y12.1786
G01 X6.9311 Y12.3088
G01 X7.0094 Y12.4260
G01 X7.1046 Y12.5218
G01 X7.1706 Y12.5707
G01 X7.2899 Y12.6340
G01 X7.4191 Y12.6737
G01 X7.5621 Y12.6887
G00 Z2.0000
G00 X8.1208 Y10.6886
G01 F50.00
G01 Z-0.0700
G01 F100.00
G01 X8.2495 Y10.6759
G01 X8.3236 Y10.6578
G01 X8.3901 Y10.6340
G01 X8.4789 Y10.5890
G01 X11.4328 Y10.5890
G01 X11.5314 Y10.6278
G01 X11.6638 Y10.6546
G01 X11.7458 Y10.6586
G01 X11.8802 Y10.6449
G01 X12.0151 Y10.6040
G01 X12.1393 Y10.5376
G01 X12.2482 Y10.4482
G01 X12.3376 Y10.3393
G01 X12.4040 Y10.2151
G01 X12.4449 Y10.0802
G01 X12.4587 Y9.9400
G01 X12.4449 Y9.7998
G01 X12.4061 Y9.6704
G01 X12.3710 Y9.5961
G01 X12.2956 Y9.4840
G01 X12.2004 Y9.3882
G01 X12.1344 Y9.3393
G01 X12.0151 Y9.2760
G01 X11.8859 Y9.2363
G01 X11.8046 Y9.2243
G01 X11.6695 Y9.2247
G01 X11.5370 Y9.2506
G01 X11.4064 Y9.3035
G01 X11.3288 Y9.3510
G01 X8.4789 Y9.3510
G01 X8.3901 Y9.3060
G01 X8.3236 Y9.2822
G01 X8.1855 Y9.2547
G01 X7.5592 Y9.2514
G01 X7.4248 Y9.2651
G01 X7.2954 Y9.3039
G01 X7.2211 Y9.3390
G01 X7.1090 Y9.4144
G01 X7.0094 Y9.5140
G01 X6.9311 Y9.6312
G01 X6.8772 Y9.7614
G01 X6.8497 Y9.8996
G01 X6.8497 Y10.0404
G01 X6.8772 Y10.1786
G01 X6.9311 Y10.3088
G01 X7.0094 Y10.4260
G01 X7.1046 Y10.5218
G01 X7.1706 Y10.5707
G01 X7.2899 Y10.6340
G01 X7.4191 Y10.6737
G01 X7.5621 Y10.6887
G01 X8.1208 Y10.6886
G00 Z2.0000
G00 X16.4319 Y11.7301
G01 F50.00
G01 Z-0.0700
G01 F100.00
G01 X16.4815 Y11.7722
G01 X16.5418 Y11.8083
G01 X16.6023 Y11.8322
G01 X16.6659 Y11.8460
G01 X17.3348 Y11.8498
G01 X17.2116 Y11.9035
G01 X17.0754 Y11.9932
G01 X16.9870 Y12.0734
G01 X16.8931 Y12.1877
G01 X16.8317 Y12.2902
G01 X16.7704 Y12.4412
G01 X16.7461 Y12.5426
G01 X16.7316 Y12.6899
G01 X16.7316 Y13.2701
G01 X16.7461 Y13.4174
G01 X16.7704 Y13.5188
G01 X16.8386 Y13.6834
G01 X16.9375 Y13.8315
G01 X17.0635 Y13.9575
G01 X17.1351 Y14.0106
G01 X17.2312 Y14.0661
G01 X17.2312 Y14.2952
G01 X15.4565 Y16.0699
G01 X14.6518 Y16.3661
G01 X14.5122 Y16.4104
G01 X14.3551 Y16.4944
G01 X14.2835 Y16.5475
G01 X14.2070 Y16.6184
G01 X14.1131 Y16.7327
G01 X14.0517 Y16.8352
G01 X13.9904 Y16.9862
G01 X13.9575 Y17.1459
G01 X13.9516 Y17.2651
G01 X13.9687 Y17.4273
G01 X14.0150 Y17.5836
G01 X14.0660 Y17.6916
G01 X14.1131 Y17.7673
G01 X14.2070 Y17.8816
G01 X14.2835 Y17.9525
G01 X14.3551 Y18.0056
G01 X14.4316 Y18.0514
G01 X14.5264 Y18.0950
G01 X14.6679 Y18.1380
G01 X14.7709 Y18.1544
G01 X14.8600 Y18.1587
G01 X14.9641 Y18.1525
G01 X15.1092 Y18.1237
G01 X15.2078 Y18.0896
G01 X15.2884 Y18.0514
G01 X15.3773 Y17.9969
G01 X15.4480 Y17.9426
G01 X15.5526 Y17.8380
G01 X15.6237 Y17.7421
G01 X15.6996 Y17.5978
G01 X16.0355 Y16.6472
G01 X17.9560 Y14.7239
G01 X18.0177 Y14.6210
G01 X18.0450 Y14.5196
G01 X18.0488 Y14.0661
G01 X18.1573 Y14.0019
G01 X18.2930 Y13.8866
G01 X18.3956 Y13.7599
G01 X18.4796 Y13.6028
G01 X18.5313 Y13.4323
G01 X18.5487 Y13.2626
G01 X18.5484 Y12.6899
G01 X18.5339 Y12.5426
G01 X18.5096 Y12.4412
G01 X18.4796 Y12.3572
G01 X18.4340 Y12.2634
G01 X18.3518 Y12.1404
G01 X18.2826 Y12.0624
G01 X18.2165 Y12.0025
G01 X18.1321 Y11.9413
G01 X18.0548 Y11.8967
G01 X17.9452 Y11.8498
G01 X19.3348 Y11.8498
G01 X19.2116 Y11.9035
G01 X19.0754 Y11.9932
G01 X18.9870 Y12.0734
G01 X18.8931 Y12.1877
G01 X18.8317 Y12.2902
G01 X18.7704 Y12.4412
G01 X18.7461 Y12.5426
G01 X18.7313 Y12.6974
G01 X18.7345 Y13.3290
G01 X18.7520 Y13.4471
G01 X18.7950 Y13.5886
G01 X18.8386 Y13.6834
G01 X18.8844 Y13.7599
G01 X18.9870 Y13.8866
G01 X19.1227 Y14.0019
G01 X19.2312 Y14.0661
G01 X19.2312 Y14.8595
G01 X18.0021 Y16.0886
G01 X17.0464 Y16.4050
G01 X16.9384 Y16.4560
G01 X16.8035 Y16.5475
G01 X16.6874 Y16.6620
G01 X16.6163 Y16.7579
G01 X16.5404 Y16.9022
G01 X16.4920 Y17.0579
G01 X16.4745 Y17.1760
G01 X16.4756 Y17.3391
G01 X16.5063 Y17.4992
G01 X16.5404 Y17.5978
G01 X16.6163 Y17.7421
G01 X16.6775 Y17.8265
G01 X16.7920 Y17.9426
G01 X16.8879 Y18.0137
G01 X17.0322 Y18.0896
G01 X17.1879 Y18.1380
G01 X17.3060 Y18.1555
G01 X17.4540 Y18.1555
G01 X17.5721 Y18.1380
G01 X17.7278 Y18.0896
G01 X17.8216 Y18.0440
G01 X17.9565 Y17.9525
G01 X18.0825 Y17.8265
G01 X18.1356 Y17.7549
G01 X18.1883 Y17.6648
G01 X18.5741 Y16.6728
G01 X19.9344 Y15.3125
G01 X19.9931 Y15.2347
G01 X20.0312 Y15.1475
G01 X20.0487 Y15.0364
G01 X20.0488 Y14.0661
G01 X20.1573 Y14.0019
G01 X20.2930 Y13.8866
G01 X20.3956 Y13.7599
G01 X20.4414 Y13.6834
G01 X20.4850 Y13.5886
G01 X20.5280 Y13.4471
G01 X20.5455 Y13.3290
G01 X20.5487 Y12.6974
G01 X20.5339 Y12.5426
G01 X20.5096 Y12.4412
G01 X20.4483 Y12.2902
G01 X20.3869 Y12.1877
G01 X20.2930 Y12.0734
G01 X20.2046 Y11.9932
G01 X20.0684 Y11.9035
G01 X19.9452 Y11.8498
G01 X21.3348 Y11.8498
G01 X21.2116 Y11.9035
G01 X21.0754 Y11.9932
G01 X20.9870 Y12.0734
G01 X20.8931 Y12.1877
G01 X20.8317 Y12.2902
G01 X20.7704 Y12.4412
G01 X20.7461 Y12.5426
G01 X20.7313 Y12.6974
G01 X20.7345 Y13.3290
G01 X20.7520 Y13.4471
G01 X20.7950 Y13.5886
G01 X20.8386 Y13.6834
G01 X20.8844 Y13.7599
G01 X20.9870 Y13.8866
G01 X21.1227 Y14.0019
G01 X21.2312 Y14.0661
G01 X21.2312 Y15.4238
G01 X20.5646 Y16.0905
G01 X19.6064 Y16.4050
G01 X19.4984 Y16.4560
G01 X19.3754 Y16.5382
G01 X19.2474 Y16.6620
G01 X19.1763 Y16.7579
G01 X19.1004 Y16.9022
G01 X19.0487 Y17.0727
G01 X19.0345 Y17.1760
G01 X19.0345 Y17.3240
G01 X19.0487 Y17.4273
G01 X19.0751 Y17.5282
G01 X19.1317 Y17.6648
G01 X19.1844 Y17.7549
G01 X19.2474 Y17.8380
G01 X19.3520 Y17.9426
G01 X19.4351 Y18.0056
G01 X19.5252 Y18.0583
G01 X19.6618 Y18.1149
G01 X19.7627 Y18.1413
G01 X19.8660 Y18.1555
G01 X20.0140 Y18.1555
G01 X20.1173 Y18.1413
G01 X20.2182 Y18.1149
G01 X20.3548 Y18.0583
G01 X20.4449 Y18.0056
G01 X20.5716 Y17.9030
G01 X20.6518 Y17.8146
G01 X20.7340 Y17.6916
G01 X20.7796 Y17.5978
G01 X20.8230 Y17.4620
G01 X21.1360 Y16.6753
G01 X21.9395 Y15.8712
G01 X22.0005 Y15.7859
G01 X22.0352 Y15.6972
G01 X22.0488 Y15.5932
G01 X22.0488 Y14.0661
G01 X22.1573 Y14.0019
G01 X22.2930 Y13.8866
G01 X22.3956 Y13.7599
G01 X22.4414 Y13.6834
G01 X22.4850 Y13.5886
G01 X22.5280 Y13.4471
G01 X22.5455 Y13.3290
G01 X22.5484 Y12.6899
G01 X22.5339 Y12.5426
G01 X22.5049 Y12.4268
G01 X22.4414 Y12.2766
G01 X22.3518 Y12.1404
G01 X22.2716 Y12.0520
G01 X22.1449 Y11.9494
G01 X22.0016 Y11.8716
G01 X21.8837 Y11.8300
G01 X21.9725 Y11.7890
G01 X22.0473 Y11.7301
G01 X26.0696 Y7.7078
G01 X27.8004 Y7.7078
G01 X27.7184 Y7.8190
G01 X27.6256 Y7.9927
G01 X27.5811 Y8.1136
G01 X27.5509 Y8.2389
G01 X27.5316 Y8.4349
G01 X27.5368 Y8.5636
G01 X27.5568 Y8.6908
G01 X27.6158 Y8.8839
G01 X24.5595 Y11.9402
G01 X24.5040 Y12.0071
G01 X24.4671 Y12.0666
G01 X24.4299 Y12.1534
G01 X24.4111 Y12.2253
G01 X24.3425 Y12.1285
G01 X24.2716 Y12.0520
G01 X24.1573 Y11.9581
G01 X24.0684 Y11.9035
G01 X23.9736 Y11.8600
G01 X23.8321 Y11.8170
G01 X23.7291 Y11.8006
G01 X23.6400 Y11.7963
G01 X23.5509 Y11.8006
G01 X23.4479 Y11.8170
G01 X23.3064 Y11.8600
G01 X23.2116 Y11.9035
G01 X23.1351 Y11.9494
G01 X23.0520 Y12.0124
G01 X22.9474 Y12.1170
G01 X22.8844 Y12.2001
G01 X22.8386 Y12.2766
G01 X22.7950 Y12.3714
G01 X22.7663 Y12.4558
G01 X22.7375 Y12.6009
G01 X22.7313 Y12.7050
G01 X22.7356 Y13.3441
G01 X22.7520 Y13.4471
G01 X22.7950 Y13.5886
G01 X22.8386 Y13.6834
G01 X22.8844 Y13.7599
G01 X22.9474 Y13.8430
G01 X23.0520 Y13.9476
G01 X23.1351 Y14.0106
G01 X23.2312 Y14.0661
G01 X23.2312 Y16.0307
G01 X23.1302 Y16.1317
G01 X22.1862 Y16.3804
G01 X22.0884 Y16.4166
G01 X21.9579 Y16.4863
G01 X21.8735 Y16.5475
G01 X21.8074 Y16.6074
G01 X21.6944 Y16.7451
G01 X21.6104 Y16.9022
G01 X21.5587 Y17.0727
G01 X21.5416 Y17.2349
G01 X21.5475 Y17.3541
G01 X21.5804 Y17.5138
G01 X21.6417 Y17.6648
G01 X21.7031 Y17.7673
G01 X21.8074 Y17.8926
G01 X21.9327 Y17.9969
G01 X22.0352 Y18.0583
G01 X22.1862 Y18.1196
G01 X22.3459 Y18.1525
G01 X22.4651 Y18.1584
G01 X22.6273 Y18.1413
G01 X22.7836 Y18.0950
G01 X22.8916 Y18.0440
G01 X23.0265 Y17.9525
G01 X23.1525 Y17.8265
G01 X23.2056 Y17.7549
G01 X23.2583 Y17.6648
G01 X23.3132 Y17.5327
G01 X23.6878 Y16.7303
G01 X23.9560 Y16.4593
G01 X24.0005 Y16.3927
G01 X24.0312 Y16.3187
G01 X24.0488 Y16.2000
G01 X24.0488 Y14.0661
G01 X24.1449 Y14.0106
G01 X24.2280 Y13.9476
G01 X24.3326 Y13.8430
G01 X24.4011 Y13.7511
G01 X24.4011 Y24.8685
G01 X23.3885 Y25.8811
G01 X18.5715 Y25.8811
G01 X18.0752 Y25.3849
G01 X18.1437 Y25.2921
G01 X18.2196 Y25.1478
G01 X18.2537 Y25.0492
G01 X18.2844 Y24.8891
G01 X18.2844 Y24.7109
G01 X18.2713 Y24.6227
G01 X18.2390 Y24.5054
G01 X18.2390 Y23.0462
G01 X18.3347 Y22.9262
G01 X18.4019 Y22.8162
G01 X18.4560 Y22.6993
G01 X18.5132 Y22.5108
G01 X18.5332 Y22.3836
G01 X18.5384 Y22.2549
G01 X18.5313 Y22.1414
G01 X18.4929 Y21.9482
G01 X18.4444 Y21.8127
G01 X18.4019 Y21.7238
G01 X18.3347 Y21.6138
G01 X18.1994 Y21.4506
G01 X18.1151 Y21.3743
G01 X18.0238 Y21.3065
G01 X17.8373 Y21.2056
G01 X17.7018 Y21.1571
G01 X17.4936 Y21.1168
G01 X17.2815 Y21.1157
G01 X17.1392 Y21.1368
G01 X16.9366 Y21.1995
G01 X16.7490 Y21.2984
G01 X16.6334 Y21.3842
G01 X16.4843 Y21.5349
G01 X16.3655 Y21.7106
G01 X16.3040 Y21.8407
G01 X16.2435 Y22.0439
G01 X16.2257 Y22.1715
G01 X16.2257 Y22.3685
G01 X16.2435 Y22.4961
G01 X16.2759 Y22.6208
G01 X16.3513 Y22.8027
G01 X16.4165 Y22.9138
G01 X16.4942 Y23.0166
G01 X16.6210 Y23.1446
G01 X16.6210 Y24.3005
G01 X16.5466 Y24.4384
G01 X16.5104 Y24.5362
G01 X16.4775 Y24.6959
G01 X16.4716 Y24.8151
G01 X16.4887 Y24.9773
G01 X16.5350 Y25.1336
G01 X16.6163 Y25.2921
G01 X16.6942 Y25.3954
G01 X16.2485 Y25.8411
G01 X8.9015 Y25.8411
G01 X6.8389 Y23.7785
G01 X6.8389 Y20.5578
G01 X7.2631 Y20.1314
G01 X7.3264 Y20.0420
G01 X7.3711 Y19.9420
G01 X7.3917 Y19.8594
G01 X7.3998 Y19.7729
G01 X7.3999 Y18.8947
G01 X7.3917 Y18.8006
G01 X7.3758 Y18.7324
G01 X7.3407 Y18.6447
G01 X7.2970 Y18.5718
G01 X7.2415 Y18.5049
G01 X6.8389 Y18.1022
G01 X6.8389 Y16.7328
G01 X6.9046 Y16.7846
G01 X6.9873 Y16.8301
G01 X7.0674 Y16.8587
G01 X7.1602 Y16.8761
G01 X8.5198 Y16.8761
G01 X8.6272 Y16.8547
G01 X8.7149 Y16.8196
G01 X8.7878 Y16.7759
G01 X8.8601 Y16.7151
G01 X8.9209 Y16.6428
G01 X8.9646 Y16.5699
G01 X8.9997 Y16.4822
G01 X9.0206 Y16.3788
G01 X10.3276 Y16.3787
G01 X10.4531 Y16.3564
G01 X10.5343 Y16.3180
G01 X10.6091 Y16.2591
G01 X12.8819 Y13.9863
G01 X12.9475 Y14.0462
G01 X13.0401 Y14.1046
G01 X13.1424 Y14.1437
G01 X13.2503 Y14.1622
G01 X14.0448 Y14.1611
G01 X14.1897 Y14.1267
G01 X14.3004 Y14.0696
G01 X14.3851 Y14.0001
G01 X14.4627 Y13.9026
G01 X14.5117 Y13.8047
G01 X14.5442 Y13.6748
G01 X14.5487 Y12.3474
G01 X14.5406 Y12.2609
G01 X14.5247 Y12.1928
G01 X14.4627 Y12.0574
G01 X14.3741 Y11.9495
G01 X14.2544 Y11.8628
G01 X14.3147 Y11.8628
G01 X14.8031 Y12.3512
G01 X14.7663 Y12.4558
G01 X14.7356 Y12.6159
G01 X14.7313 Y13.2626
G01 X14.7520 Y13.4471
G01 X14.7950 Y13.5886
G01 X14.8317 Y13.6698
G01 X14.8844 Y13.7599
G01 X14.9375 Y13.8315
G01 X15.0635 Y13.9575
G01 X15.2116 Y14.0564
G01 X15.3762 Y14.1246
G01 X15.4776 Y14.1489
G01 X15.6400 Y14.1637
G01 X15.8024 Y14.1489
G01 X15.9038 Y14.1246
G01 X16.0548 Y14.0633
G01 X16.1449 Y14.0106
G01 X16.2716 Y13.9080
G01 X16.3518 Y13.8196
G01 X16.4037 Y13.7471
G01 X16.4734 Y13.6166
G01 X16.5096 Y13.5188
G01 X16.5339 Y13.4174
G01 X16.5487 Y13.2626
G01 X16.5444 Y12.6159
G01 X16.5096 Y12.4412
G01 X16.4414 Y12.2766
G01 X16.3425 Y12.1285
G01 X16.2165 Y12.0025
G01 X16.1449 Y11.9494
G01 X16.0548 Y11.8967
G01 X15.9182 Y11.8401
G01 X15.8321 Y11.8170
G01 X15.7291 Y11.8006
G01 X15.6400 Y11.7963
G01 X15.5509 Y11.8006
G01 X15.4297 Y11.8216
G01 X14.7548 Y11.1479
G01 X14.6543 Y11.0825
G01 X14.5391 Y11.0490
G01 X8.3560 Y11.0452
G01 X8.2912 Y11.0505
G01 X8.2220 Y11.0679
G01 X8.1150 Y11.0613
G01 X7.5499 Y11.0616
G01 X7.3729 Y11.0820
G01 X7.2314 Y11.1250
G01 X7.1502 Y11.1617
G01 X7.0601 Y11.2144
G01 X6.9885 Y11.2675
G01 X6.8690 Y11.3860
G01 X6.8690 Y10.5540
G01 X6.9885 Y10.6725
G01 X7.1366 Y10.7714
G01 X7.3012 Y10.8396
G01 X7.3877 Y10.8613
G01 X7.4910 Y10.8755
G01 X8.2041 Y10.8744
G01 X8.3788 Y10.8396
G01 X8.5283 Y10.7790
G01 X11.3909 Y10.7790
G01 X11.4762 Y10.8096
G01 X11.5776 Y10.8339
G01 X11.7249 Y10.8484
G01 X11.8291 Y10.8444
G01 X11.9892 Y10.8137
G01 X12.1016 Y10.7734
G01 X12.2449 Y10.6956
G01 X12.3716 Y10.5930
G01 X12.4518 Y10.5046
G01 X12.5414 Y10.3684
G01 X12.6049 Y10.2182
G01 X12.6313 Y10.1173
G01 X12.6487 Y9.9400
G01 X12.6313 Y9.7627
G01 X12.5796 Y9.5922
G01 X12.4956 Y9.4351
G01 X12.3826 Y9.2974
G01 X12.2449 Y9.1844
G01 X12.0878 Y9.1004
G01 X11.9173 Y9.0487
G01 X11.7400 Y9.0313
G01 X11.5627 Y9.0487
G01 X11.3922 Y9.1004
G01 X11.2734 Y9.1610
G01 X8.5283 Y9.1610
G01 X8.3788 Y9.1004
G01 X8.2041 Y9.0656
G01 X7.5650 Y9.0613
G01 X7.4089 Y9.0752
G01 X7.6053 Y8.8787
G01 X8.2041 Y8.8744
G01 X8.3642 Y8.8437
G01 X8.4628 Y8.8096
G01 X8.5566 Y8.7640
G01 X8.6915 Y8.6725
G01 X8.7680 Y8.6016
G01 X8.8706 Y8.4749
G01 X8.9546 Y8.3178
G01 X9.0063 Y8.1473
G01 X9.0289 Y7.9700
G01 X9.0063 Y7.7927
G01 X8.9546 Y7.6222
G01 X8.8706 Y7.4651
G01 X8.7576 Y7.3274
G01 X8.6142 Y7.2108
G01 X11.9127 Y7.2108
G01 X16.4319 Y11.7301
G00 Z2.0000
G00 X17.1049 Y16.5860
G01 F50.00
G01 Z-0.0700
G01 F100.00
G01 X16.9807 Y16.6524
G01 X16.8718 Y16.7418
G01 X16.7824 Y16.8507
G01 X16.7160 Y16.9749
G01 X16.6751 Y17.1098
G01 X16.6613 Y17.2500
G01 X16.6751 Y17.3902
G01 X16.7160 Y17.5251
G01 X16.7824 Y17.6493
G01 X16.8718 Y17.7582
G01 X16.9807 Y17.8476
G01 X17.1049 Y17.9140
G01 X17.2398 Y17.9549
G01 X17.3800 Y17.9687
G01 X17.5202 Y17.9549
G01 X17.6551 Y17.9140
G01 X17.7793 Y17.8476
G01 X17.8840 Y17.7623
G01 X17.9392 Y17.7014
G01 X18.0139 Y17.5888
G01 X18.4119 Y16.5664
G01 X19.8219 Y15.1504
G01 X19.8494 Y15.0924
G01 X19.8588 Y15.0317
G01 X19.8588 Y13.9393
G01 X19.9736 Y13.8915
G01 X20.0393 Y13.8526
G01 X20.1004 Y13.8068
G01 X20.1956 Y13.7110
G01 X20.2407 Y13.6494
G01 X20.3040 Y13.5301
G01 X20.3437 Y13.4009
G01 X20.3557 Y13.3196
G01 X20.3587 Y12.7021
G01 X20.3546 Y12.6288
G01 X20.3294 Y12.5020
G01 X20.2765 Y12.3714
G01 X20.2343 Y12.3009
G01 X20.1482 Y12.1968
G01 X20.0393 Y12.1074
G01 X19.9736 Y12.0685
G01 X19.8542 Y12.0190
G01 X19.7104 Y11.9897
G01 X19.6342 Y11.9864
G01 X19.5055 Y11.9991
G01 X19.3649 Y12.0410
G01 X19.2359 Y12.1107
G01 X19.1360 Y12.1927
G01 X19.0844 Y12.2490
G01 X19.0035 Y12.3714
G01 X18.9540 Y12.4908
G01 X18.9351 Y12.5648
G01 X18.9213 Y12.7021
G01 X18.9213 Y13.2579
G01 X18.9341 Y13.3895
G01 X18.9540 Y13.4692
G01 X18.9783 Y13.5354
G01 X19.0393 Y13.6494
G01 X19.1318 Y13.7632
G01 X19.2456 Y13.8557
G01 X19.3064 Y13.8915
G01 X19.4212 Y13.9393
G01 X19.4212 Y14.9382
G01 X18.1048 Y16.2546
G01 X17.1049 Y16.5860
G00 Z2.0000
G00 X14.5849 Y16.5860
G01 F50.00
G01 Z-0.0700
G01 F100.00
G01 X14.4607 Y16.6524
G01 X14.3518 Y16.7418
G01 X14.2624 Y16.8507
G01 X14.1960 Y16.9749
G01 X14.1551 Y17.1098
G01 X14.1413 Y17.2500
G01 X14.1551 Y17.3902
G01 X14.1960 Y17.5251
G01 X14.2624 Y17.6493
G01 X14.3518 Y17.7582
G01 X14.4607 Y17.8476
G01 X14.5849 Y17.9140
G01 X14.7198 Y17.9549
G01 X14.8600 Y17.9687
G01 X15.0002 Y17.9549
G01 X15.1351 Y17.9140
G01 X15.2593 Y17.8476
G01 X15.3640 Y17.7623
G01 X15.4192 Y17.7014
G01 X15.4939 Y17.5888
G01 X15.5261 Y17.5196
G01 X15.5624 Y17.4009
G01 X15.8711 Y16.5429
G01 X17.7947 Y14.6192
G01 X17.8330 Y14.5677
G01 X17.8509 Y14.5224
G01 X17.8587 Y14.4703
G01 X17.8588 Y13.9393
G01 X17.9736 Y13.8915
G01 X18.0393 Y13.8526
G01 X18.1004 Y13.8068
G01 X18.1956 Y13.7110
G01 X18.2407 Y13.6494
G01 X18.3040 Y13.5301
G01 X18.3294 Y13.4580
G01 X18.3553 Y13.3254
G01 X18.3587 Y12.7021
G01 X18.3449 Y12.5648
G01 X18.3040 Y12.4299
G01 X18.2407 Y12.3106
G01 X18.1918 Y12.2446
G01 X18.0960 Y12.1494
G01 X18.0344 Y12.1043
G01 X17.9204 Y12.0433
G01 X17.7802 Y12.0001
G01 X17.6342 Y11.9864
G01 X17.5055 Y11.9991
G01 X17.4314 Y12.0172
G01 X17.3596 Y12.0433
G01 X17.2456 Y12.1043
G01 X17.1318 Y12.1968
G01 X17.0808 Y12.2536
G01 X17.0090 Y12.3611
G01 X16.9522 Y12.4964
G01 X16.9341 Y12.5705
G01 X16.9213 Y12.7021
G01 X16.9213 Y13.2579
G01 X16.9363 Y13.4009
G01 X16.9739 Y13.5246
G01 X17.0035 Y13.5886
G01 X17.0882 Y13.7154
G01 X17.1796 Y13.8068
G01 X17.2407 Y13.8526
G01 X17.3064 Y13.8915
G01 X17.4212 Y13.9393
G01 X17.4212 Y14.3739
G01 X15.5613 Y16.2338
G01 X14.7086 Y16.5477
G01 X14.5849 Y16.5860
G00 Z2.0000
G00 X15.8041 Y19.6350
G01 F50.00
G01 Z-0.0700
G01 F100.00
G01 X15.7670 Y19.4488
G01 X15.6944 Y19.2733
G01 X15.5889 Y19.1154
G01 X15.4546 Y18.9811
G01 X15.2967 Y18.8756
G01 X15.1212 Y18.8030
G01 X14.9350 Y18.7659
G01 X14.7450 Y18.7659
G01 X14.5588 Y18.8030
G01 X14.3833 Y18.8756
G01 X14.2254 Y18.9811
G01 X14.0911 Y19.1154
G01 X13.9856 Y19.2733
G01 X13.9130 Y19.4488
G01 X13.8759 Y19.6350
G01 X13.8759 Y19.8250
G01 X13.9130 Y20.0112
G01 X13.9856 Y20.1867
G01 X14.0911 Y20.3446
G01 X14.2254 Y20.4789
G01 X14.3833 Y20.5844
G01 X14.5588 Y20.6570
G01 X14.7450 Y20.6941
G01 X14.9350 Y20.6941
G01 X15.1212 Y20.6570
G01 X15.2967 Y20.5844
G01 X15.4546 Y20.4789
G01 X15.5889 Y20.3446
G01 X15.6944 Y20.1867
G01 X15.7670 Y20.0112
G01 X15.8041 Y19.8250
G01 X15.8041 Y19.6350
G00 Z2.0000
G00 X15.9932 Y19.6164
G01 F50.00
G01 Z-0.0700
G01 F100.00
G01 X15.9765 Y19.5039
G01 X15.9489 Y19.3936
G01 X15.9105 Y19.2866
G01 X15.8619 Y19.1838
G01 X15.8035 Y19.0862
G01 X15.7357 Y18.9949
G01 X15.6594 Y18.9106
G01 X15.5751 Y18.8343
G01 X15.4838 Y18.7665
G01 X15.3862 Y18.7081
G01 X15.2834 Y18.6595
G01 X15.1764 Y18.6211
G01 X15.0661 Y18.5935
G01 X14.9536 Y18.5768
G01 X14.8400 Y18.5713
G01 X14.7264 Y18.5768
G01 X14.6139 Y18.5935
G01 X14.5036 Y18.6211
G01 X14.3966 Y18.6595
G01 X14.2938 Y18.7081
G01 X14.1962 Y18.7665
G01 X14.1049 Y18.8343
G01 X14.0206 Y18.9106
G01 X13.9443 Y18.9949
G01 X13.8765 Y19.0862
G01 X13.8181 Y19.1838
G01 X13.7695 Y19.2866
G01 X13.7311 Y19.3936
G01 X13.7035 Y19.5039
G01 X13.6868 Y19.6164
G01 X13.6813 Y19.7300
G01 X13.6868 Y19.8436
G01 X13.7035 Y19.9561
G01 X13.7311 Y20.0664
G01 X13.7695 Y20.1734
G01 X13.8181 Y20.2762
G01 X13.8765 Y20.3738
G01 X13.9443 Y20.4651
G01 X14.0206 Y20.5494
G01 X14.1049 Y20.6257
G01 X14.1962 Y20.6935
G01 X14.2938 Y20.7519
G01 X14.3966 Y20.8005
G01 X14.5036 Y20.8389
G01 X14.6139 Y20.8665
G01 X14.7264 Y20.8832
G01 X14.8400 Y20.8887
G01 X14.9536 Y20.8832
G01 X15.0661 Y20.8665
G01 X15.1764 Y20.8389
G01 X15.2834 Y20.8005
G01 X15.3862 Y20.7519
G01 X15.4838 Y20.6935
G01 X15.5751 Y20.6257
G01 X15.6594 Y20.5494
G01 X15.7357 Y20.4651
G01 X15.8035 Y20.3738
G01 X15.8619 Y20.2762
G01 X15.9105 Y20.1734
G01 X15.9489 Y20.0664
G01 X15.9765 Y19.9561
G01 X15.9932 Y19.8436
G01 X15.9987 Y19.7300
G01 X15.9932 Y19.6164
G00 Z2.0000
G00 X18.3434 Y19.6293
G01 F50.00
G01 Z-0.0700
G01 F100.00
G01 X18.3070 Y19.4488
G01 X18.2344 Y19.2733
G01 X18.1289 Y19.1154
G01 X17.9946 Y18.9811
G01 X17.8367 Y18.8756
G01 X17.6612 Y18.8030
G01 X17.4750 Y18.7659
G01 X17.2850 Y18.7659
G01 X17.0988 Y18.8030
G01 X16.9233 Y18.8756
G01 X16.7654 Y18.9811
G01 X16.6311 Y19.1154
G01 X16.5256 Y19.2733
G01 X16.4530 Y19.4488
G01 X16.4159 Y19.6350
G01 X16.4159 Y19.8250
G01 X16.4530 Y20.0112
G01 X16.5256 Y20.1867
G01 X16.6311 Y20.3446
G01 X16.7654 Y20.4789
G01 X16.9233 Y20.5844
G01 X17.0988 Y20.6570
G01 X17.2850 Y20.6941
G01 X17.4750 Y20.6941
G01 X17.6612 Y20.6570
G01 X17.8367 Y20.5844
G01 X17.9946 Y20.4789
G01 X18.1289 Y20.3446
G01 X18.2344 Y20.1867
G01 X18.3070 Y20.0112
G01 X18.3441 Y19.8250
G01 X18.3487 Y19.7300
G01 X18.3434 Y19.6293
G00 Z2.0000
G00 X18.5313 Y19.6014
G01 F50.00
G01 Z-0.0700
G01 F100.00
G01 X18.4889 Y19.3936
G01 X18.4505 Y19.2866
G01 X18.4019 Y19.1838
G01 X18.3435 Y19.0862
G01 X18.2757 Y18.9949
G01 X18.1994 Y18.9106
G01 X18.1151 Y18.8343
G01 X18.0238 Y18.7665
G01 X17.9262 Y18.7081
G01 X17.8234 Y18.6595
G01 X17.7164 Y18.6211
G01 X17.6061 Y18.5935
G01 X17.4936 Y18.5768
G01 X17.3800 Y18.5713
G01 X17.2664 Y18.5768
G01 X17.1539 Y18.5935
G01 X17.0436 Y18.6211
G01 X16.9366 Y18.6595
G01 X16.8338 Y18.7081
G01 X16.7362 Y18.7665
G01 X16.6449 Y18.8343
G01 X16.5606 Y18.9106
G01 X16.4843 Y18.9949
G01 X16.4165 Y19.0862
G01 X16.3581 Y19.1838
G01 X16.3095 Y19.2866
G01 X16.2711 Y19.3936
G01 X16.2435 Y19.5039
G01 X16.2268 Y19.6164
G01 X16.2213 Y19.7300
G01 X16.2268 Y19.8436
G01 X16.2435 Y19.9561
G01 X16.2711 Y20.0664
G01 X16.3095 Y20.1734
G01 X16.3581 Y20.2762
G01 X16.4165 Y20.3738
G01 X16.4843 Y20.4651
G01 X16.5606 Y20.5494
G01 X16.6449 Y20.6257
G01 X16.7362 Y20.6935
G01 X16.8338 Y20.7519
G01 X16.9366 Y20.8005
G01 X17.0436 Y20.8389
G01 X17.1539 Y20.8665
G01 X17.2664 Y20.8832
G01 X17.3800 Y20.8887
G01 X17.4936 Y20.8832
G01 X17.6061 Y20.8665
G01 X17.7164 Y20.8389
G01 X17.8234 Y20.8005
G01 X17.9262 Y20.7519
G01 X18.0238 Y20.6935
G01 X18.1151 Y20.6257
G01 X18.1994 Y20.5494
G01 X18.2757 Y20.4651
G01 X18.3435 Y20.3738
G01 X18.4019 Y20.2762
G01 X18.4505 Y20.1734
G01 X18.4889 Y20.0664
G01 X18.5165 Y19.9561
G01 X18.5332 Y19.8436
G01 X18.5387 Y19.7300
G01 X18.5313 Y19.6014
G00 Z2.0000
G00 X20.8834 Y19.6293
G01 F50.00
G01 Z-0.0700
G01 F100.00
G01 X20.8470 Y19.4488
G01 X20.7744 Y19.2733
G01 X20.6689 Y19.1154
G01 X20.5346 Y18.9811
G01 X20.3767 Y18.8756
G01 X20.2012 Y18.8030
G01 X20.0150 Y18.7659
G01 X19.8250 Y18.7659
G01 X19.6388 Y18.8030
G01 X19.4633 Y18.8756
G01 X19.3054 Y18.9811
G01 X19.1711 Y19.1154
G01 X19.0656 Y19.2733
G01 X18.9930 Y19.4488
G01 X18.9559 Y19.6350
G01 X18.9559 Y19.8250
G01 X18.9930 Y20.0112
G01 X19.0656 Y20.1867
G01 X19.1711 Y20.3446
G01 X19.3054 Y20.4789
G01 X19.4633 Y20.5844
G01 X19.6388 Y20.6570
G01 X19.8250 Y20.6941
G01 X20.0150 Y20.6941
G01 X20.2012 Y20.6570
G01 X20.3767 Y20.5844
G01 X20.5346 Y20.4789
G01 X20.6689 Y20.3446
G01 X20.7744 Y20.1867
G01 X20.8470 Y20.0112
G01 X20.8841 Y19.8250
G01 X20.8887 Y19.7300
G01 X20.8834 Y19.6293
G00 Z2.0000
G00 X21.0713 Y19.6014
G01 F50.00
G01 Z-0.0700
G01 F100.00
G01 X21.0289 Y19.3936
G01 X20.9905 Y19.2866
G01 X20.9419 Y19.1838
G01 X20.8835 Y19.0862
G01 X20.8157 Y18.9949
G01 X20.7394 Y18.9106
G01 X20.6551 Y18.8343
G01 X20.5638 Y18.7665
G01 X20.4662 Y18.7081
G01 X20.3634 Y18.6595
G01 X20.2564 Y18.6211
G01 X20.1461 Y18.5935
G01 X20.0336 Y18.5768
G01 X19.9200 Y18.5713
G01 X19.8064 Y18.5768
G01 X19.6939 Y18.5935
G01 X19.5836 Y18.6211
G01 X19.4766 Y18.6595
G01 X19.3738 Y18.7081
G01 X19.2762 Y18.7665
G01 X19.1849 Y18.8343
G01 X19.1006 Y18.9106
G01 X19.0243 Y18.9949
G01 X18.9565 Y19.0862
G01 X18.8981 Y19.1838
G01 X18.8495 Y19.2866
G01 X18.8111 Y19.3936
G01 X18.7835 Y19.5039
G01 X18.7668 Y19.6164
G01 X18.7613 Y19.7300
G01 X18.7668 Y19.8436
G01 X18.7835 Y19.9561
G01 X18.8111 Y20.0664
G01 X18.8495 Y20.1734
G01 X18.8981 Y20.2762
G01 X18.9565 Y20.3738
G01 X19.0243 Y20.4651
G01 X19.1006 Y20.5494
G01 X19.1849 Y20.6257
G01 X19.2762 Y20.6935
G01 X19.3738 Y20.7519
G01 X19.4766 Y20.8005
G01 X19.5836 Y20.8389
G01 X19.6939 Y20.8665
G01 X19.8064 Y20.8832
G01 X19.9200 Y20.8887
G01 X20.0336 Y20.8832
G01 X20.1461 Y20.8665
G01 X20.2564 Y20.8389
G01 X20.3634 Y20.8005
G01 X20.4662 Y20.7519
G01 X20.5638 Y20.6935
G01 X20.6551 Y20.6257
G01 X20.7394 Y20.5494
G01 X20.8157 Y20.4651
G01 X20.8835 Y20.3738
G01 X20.9419 Y20.2762
G01 X20.9905 Y20.1734
G01 X21.0289 Y20.0664
G01 X21.0565 Y19.9561
G01 X21.0732 Y19.8436
G01 X21.0787 Y19.7300
G01 X21.0713 Y19.6014
G00 Z2.0000
G00 X23.3332 Y20.6965
G01 F50.00
G01 Z-0.0700
G01 F100.00
G01 X23.3710 Y20.6819
G01 X23.4018 Y20.6553
G01 X23.4218 Y20.6200
G01 X23.4287 Y20.5829
G01 X23.4287 Y18.8771
G01 X23.4197 Y18.8346
G01 X23.3980 Y18.8003
G01 X23.3554 Y18.7703
G01 X23.3100 Y18.7612
G01 X21.6071 Y18.7613
G01 X21.5646 Y18.7703
G01 X21.5303 Y18.7920
G01 X21.5003 Y18.8346
G01 X21.4912 Y18.8800
G01 X21.4913 Y20.5829
G01 X21.5003 Y20.6254
G01 X21.5220 Y20.6597
G01 X21.5592 Y20.6873
G01 X21.6071 Y20.6987
G01 X23.3332 Y20.6965
G00 Z2.0000
G00 X23.3702 Y20.8828
G01 F50.00
G01 Z-0.0700
G01 F100.00
G01 X23.4687 Y20.8448
G01 X23.5388 Y20.7873
G01 X23.5891 Y20.7120
G01 X23.6173 Y20.6103
G01 X23.6184 Y18.8649
G01 X23.5952 Y18.7618
G01 X23.5388 Y18.6727
G01 X23.4939 Y18.6320
G01 X23.4282 Y18.5948
G01 X23.3702 Y18.5772
G01 X23.3100 Y18.5712
G01 X21.5949 Y18.5716
G01 X21.4918 Y18.5948
G01 X21.4027 Y18.6512
G01 X21.3620 Y18.6961
G01 X21.3248 Y18.7618
G01 X21.3072 Y18.8198
G01 X21.3012 Y18.8800
G01 X21.3016 Y20.5951
G01 X21.3248 Y20.6982
G01 X21.3812 Y20.7873
G01 X21.4261 Y20.8280
G01 X21.4780 Y20.8591
G01 X21.5350 Y20.8795
G01 X21.5949 Y20.8884
G01 X23.3100 Y20.8888
G01 X23.3702 Y20.8828
G00 Z2.0000
G00 X23.6113 Y22.1414
G01 F50.00
G01 Z-0.0700
G01 F100.00
G01 X23.5689 Y21.9336
G01 X23.5305 Y21.8266
G01 X23.4819 Y21.7238
G01 X23.4235 Y21.6262
G01 X23.3557 Y21.5349
G01 X23.2794 Y21.4506
G01 X23.1951 Y21.3743
G01 X23.1038 Y21.3065
G01 X23.0062 Y21.2481
G01 X22.9034 Y21.1995
G01 X22.7964 Y21.1611
G01 X22.6861 Y21.1335
G01 X22.5736 Y21.1168
G01 X22.4600 Y21.1113
G01 X22.3464 Y21.1168
G01 X22.2339 Y21.1335
G01 X22.1236 Y21.1611
G01 X22.0166 Y21.1995
G01 X21.9138 Y21.2481
G01 X21.8162 Y21.3065
G01 X21.7249 Y21.3743
G01 X21.6406 Y21.4506
G01 X21.5643 Y21.5349
G01 X21.4965 Y21.6262
G01 X21.4381 Y21.7238
G01 X21.3895 Y21.8266
G01 X21.3511 Y21.9336
G01 X21.3235 Y22.0439
G01 X21.3068 Y22.1564
G01 X21.3013 Y22.2700
G01 X21.3068 Y22.3836
G01 X21.3235 Y22.4961
G01 X21.3511 Y22.6064
G01 X21.3895 Y22.7134
G01 X21.4381 Y22.8162
G01 X21.4965 Y22.9138
G01 X21.5643 Y23.0051
G01 X21.6406 Y23.0894
G01 X21.7249 Y23.1657
G01 X21.8162 Y23.2335
G01 X21.9138 Y23.2919
G01 X22.0166 Y23.3405
G01 X22.1236 Y23.3789
G01 X22.2339 Y23.4065
G01 X22.3464 Y23.4232
G01 X22.4600 Y23.4287
G01 X22.5736 Y23.4232
G01 X22.6861 Y23.4065
G01 X22.7964 Y23.3789
G01 X22.9034 Y23.3405
G01 X23.0062 Y23.2919
G01 X23.1038 Y23.2335
G01 X23.1951 Y23.1657
G01 X23.2794 Y23.0894
G01 X23.3557 Y23.0051
G01 X23.4235 Y22.9138
G01 X23.4819 Y22.8162
G01 X23.5305 Y22.7134
G01 X23.5689 Y22.6064
G01 X23.5965 Y22.4961
G01 X23.6132 Y22.3836
G01 X23.6187 Y22.2700
G01 X23.6113 Y22.1414
G00 Z2.0000
G00 X23.4234 Y22.1693
G01 F50.00
G01 Z-0.0700
G01 F100.00
G01 X23.3870 Y21.9888
G01 X23.3144 Y21.8133
G01 X23.2089 Y21.6554
G01 X23.0746 Y21.5211
G01 X22.9167 Y21.4156
G01 X22.7412 Y21.3430
G01 X22.5550 Y21.3059
G01 X22.3650 Y21.3059
G01 X22.1788 Y21.3430
G01 X22.0033 Y21.4156
G01 X21.8454 Y21.5211
G01 X21.7111 Y21.6554
G01 X21.6056 Y21.8133
G01 X21.5330 Y21.9888
G01 X21.4959 Y22.1750
G01 X21.4959 Y22.3650
G01 X21.5330 Y22.5512
G01 X21.6056 Y22.7267
G01 X21.7111 Y22.8846
G01 X21.8454 Y23.0189
G01 X22.0033 Y23.1244
G01 X22.1788 Y23.1970
G01 X22.3650 Y23.2341
G01 X22.5550 Y23.2341
G01 X22.7412 Y23.1970
G01 X22.9167 Y23.1244
G01 X23.0746 Y23.0189
G01 X23.2089 Y22.8846
G01 X23.3144 Y22.7267
G01 X23.3870 Y22.5512
G01 X23.4241 Y22.3650
G01 X23.4287 Y22.2700
G01 X23.4234 Y22.1693
G00 Z2.0000
G00 X21.0713 Y22.1414
G01 F50.00
G01 Z-0.0700
G01 F100.00
G01 X21.0289 Y21.9336
G01 X20.9905 Y21.8266
G01 X20.9419 Y21.7238
G01 X20.8835 Y21.6262
G01 X20.8157 Y21.5349
G01 X20.7394 Y21.4506
G01 X20.6551 Y21.3743
G01 X20.5638 Y21.3065
G01 X20.4662 Y21.2481
G01 X20.3634 Y21.1995
G01 X20.2564 Y21.1611
G01 X20.1461 Y21.1335
G01 X20.0336 Y21.1168
G01 X19.9200 Y21.1113
G01 X19.8064 Y21.1168
G01 X19.6939 Y21.1335
G01 X19.5836 Y21.1611
G01 X19.4766 Y21.1995
G01 X19.3738 Y21.2481
G01 X19.2762 Y21.3065
G01 X19.1849 Y21.3743
G01 X19.1006 Y21.4506
G01 X19.0243 Y21.5349
G01 X18.9565 Y21.6262
G01 X18.8981 Y21.7238
G01 X18.8495 Y21.8266
G01 X18.8111 Y21.9336
G01 X18.7835 Y22.0439
G01 X18.7668 Y22.1564
G01 X18.7613 Y22.2700
G01 X18.7668 Y22.3836
G01 X18.7835 Y22.4961
G01 X18.8111 Y22.6064
G01 X18.8495 Y22.7134
G01 X18.8981 Y22.8162
G01 X18.9565 Y22.9138
G01 X19.0243 Y23.0051
G01 X19.1006 Y23.0894
G01 X19.1849 Y23.1657
G01 X19.2762 Y23.2335
G01 X19.3738 Y23.2919
G01 X19.4766 Y23.3405
G01 X19.5836 Y23.3789
G01 X19.6939 Y23.4065
G01 X19.8064 Y23.4232
G01 X19.9200 Y23.4287
G01 X20.0336 Y23.4232
G01 X20.1461 Y23.4065
G01 X20.2564 Y23.3789
G01 X20.3634 Y23.3405
G01 X20.4662 Y23.2919
G01 X20.5638 Y23.2335
G01 X20.6551 Y23.1657
G01 X20.7394 Y23.0894
G01 X20.8157 Y23.0051
G01 X20.8835 Y22.9138
G01 X20.9419 Y22.8162
G01 X20.9905 Y22.7134
G01 X21.0289 Y22.6064
G01 X21.0565 Y22.4961
G01 X21.0732 Y22.3836
G01 X21.0787 Y22.2700
G01 X21.0713 Y22.1414
G00 Z2.0000
G00 X20.8834 Y22.1693
G01 F50.00
G01 Z-0.0700
G01 F100.00
G01 X20.8470 Y21.9888
G01 X20.7744 Y21.8133
G01 X20.6689 Y21.6554
G01 X20.5346 Y21.5211
G01 X20.3767 Y21.4156
G01 X20.2012 Y21.3430
G01 X20.0150 Y21.3059
G01 X19.8250 Y21.3059
G01 X19.6388 Y21.3430
G01 X19.4633 Y21.4156
G01 X19.3054 Y21.5211
G01 X19.1711 Y21.6554
G01 X19.0656 Y21.8133
G01 X18.9930 Y21.9888
G01 X18.9559 Y22.1750
G01 X18.9559 Y22.3650
G01 X18.9930 Y22.5512
G01 X19.0656 Y22.7267
G01 X19.1711 Y22.8846
G01 X19.3054 Y23.0189
G01 X19.4633 Y23.1244
G01 X19.6388 Y23.1970
G01 X19.8250 Y23.2341
G01 X20.0150 Y23.2341
G01 X20.2012 Y23.1970
G01 X20.3767 Y23.1244
G01 X20.5346 Y23.0189
G01 X20.6689 Y22.8846
G01 X20.7744 Y22.7267
G01 X20.8470 Y22.5512
G01 X20.8841 Y22.3650
G01 X20.8887 Y22.2700
G01 X20.8834 Y22.1693
G00 Z2.0000
G00 X15.9932 Y22.1564
G01 F50.00
G01 Z-0.0700
G01 F100.00
G01 X15.9765 Y22.0439
G01 X15.9489 Y21.9336
G01 X15.9105 Y21.8266
G01 X15.8619 Y21.7238
G01 X15.8035 Y21.6262
G01 X15.7357 Y21.5349
G01 X15.6594 Y21.4506
G01 X15.5751 Y21.3743
G01 X15.4838 Y21.3065
G01 X15.3862 Y21.2481
G01 X15.2834 Y21.1995
G01 X15.1764 Y21.1611
G01 X15.0661 Y21.1335
G01 X14.9536 Y21.1168
G01 X14.8400 Y21.1113
G01 X14.7264 Y21.1168
G01 X14.6139 Y21.1335
G01 X14.5036 Y21.1611
G01 X14.3966 Y21.1995
G01 X14.2938 Y21.2481
G01 X14.1962 Y21.3065
G01 X14.1049 Y21.3743
G01 X14.0206 Y21.4506
G01 X13.9443 Y21.5349
G01 X13.8765 Y21.6262
G01 X13.8181 Y21.7238
G01 X13.7695 Y21.8266
G01 X13.7311 Y21.9336
G01 X13.7035 Y22.0439
G01 X13.6868 Y22.1564
G01 X13.6813 Y22.2700
G01 X13.6868 Y22.3836
G01 X13.7035 Y22.4961
G01 X13.7311 Y22.6064
G01 X13.7695 Y22.7134
G01 X13.8181 Y22.8162
G01 X13.8765 Y22.9138
G01 X13.9443 Y23.0051
G01 X14.0206 Y23.0894
G01 X14.1049 Y23.1657
G01 X14.1962 Y23.2335
G01 X14.2938 Y23.2919
G01 X14.3966 Y23.3405
G01 X14.5036 Y23.3789
G01 X14.6139 Y23.4065
G01 X14.7264 Y23.4232
G01 X14.8400 Y23.4287
G01 X14.9536 Y23.4232
G01 X15.0661 Y23.4065
G01 X15.1764 Y23.3789
G01 X15.2834 Y23.3405
G01 X15.3862 Y23.2919
G01 X15.4838 Y23.2335
G01 X15.5751 Y23.1657
G01 X15.6594 Y23.0894
G01 X15.7357 Y23.0051
G01 X15.8035 Y22.9138
G01 X15.8619 Y22.8162
G01 X15.9105 Y22.7134
G01 X15.9489 Y22.6064
G01 X15.9765 Y22.4961
G01 X15.9932 Y22.3836
G01 X15.9987 Y22.2700
G01 X15.9932 Y22.1564
G00 Z2.0000
G00 X15.8041 Y22.1750
G01 F50.00
G01 Z-0.0700
G01 F100.00
G01 X15.7670 Y21.9888
G01 X15.6944 Y21.8133
G01 X15.5889 Y21.6554
G01 X15.4546 Y21.5211
G01 X15.2967 Y21.4156
G01 X15.1212 Y21.3430
G01 X14.9350 Y21.3059
G01 X14.7450 Y21.3059
G01 X14.5588 Y21.3430
G01 X14.3833 Y21.4156
G01 X14.2254 Y21.5211
G01 X14.0911 Y21.6554
G01 X13.9856 Y21.8133
G01 X13.9130 Y21.9888
G01 X13.8759 Y22.1750
G01 X13.8759 Y22.3650
G01 X13.9130 Y22.5512
G01 X13.9856 Y22.7267
G01 X14.0911 Y22.8846
G01 X14.2254 Y23.0189
G01 X14.3833 Y23.1244
G01 X14.5588 Y23.1970
G01 X14.7450 Y23.2341
G01 X14.9350 Y23.2341
G01 X15.1212 Y23.1970
G01 X15.2967 Y23.1244
G01 X15.4546 Y23.0189
G01 X15.5889 Y22.8846
G01 X15.6944 Y22.7267
G01 X15.7670 Y22.5512
G01 X15.8041 Y22.3650
G01 X15.8041 Y22.1750
G00 Z2.0000
G00 X11.6109 Y20.8015
G01 F50.00
G01 Z-0.0700
G01 F100.00
G01 X11.5858 Y20.6348
G01 X11.5412 Y20.4567
G01 X11.4793 Y20.2837
G01 X11.4007 Y20.1177
G01 X11.3063 Y19.9601
G01 X11.1969 Y19.8126
G01 X11.0735 Y19.6765
G01 X10.9374 Y19.5531
G01 X10.7899 Y19.4437
G01 X10.6323 Y19.3493
G01 X10.4663 Y19.2707
G01 X10.2933 Y19.2088
G01 X10.1152 Y19.1642
G01 X9.9335 Y19.1373
G01 X9.7500 Y19.1283
G01 X9.5665 Y19.1373
G01 X9.3848 Y19.1642
G01 X9.2067 Y19.2088
G01 X9.0337 Y19.2707
G01 X8.8677 Y19.3493
G01 X8.7101 Y19.4437
G01 X8.5626 Y19.5531
G01 X8.4265 Y19.6765
G01 X8.3031 Y19.8126
G01 X8.1937 Y19.9601
G01 X8.0993 Y20.1177
G01 X8.0207 Y20.2837
G01 X7.9588 Y20.4567
G01 X7.9142 Y20.6348
G01 X7.8873 Y20.8165
G01 X7.8783 Y21.0000
G01 X7.8873 Y21.1835
G01 X7.9142 Y21.3652
G01 X7.9588 Y21.5433
G01 X8.0207 Y21.7163
G01 X8.0993 Y21.8823
G01 X8.1937 Y22.0399
G01 X8.3031 Y22.1874
G01 X8.4265 Y22.3235
G01 X8.5626 Y22.4469
G01 X8.7101 Y22.5563
G01 X8.8677 Y22.6507
G01 X9.0337 Y22.7293
G01 X9.2067 Y22.7912
G01 X9.3848 Y22.8358
G01 X9.5665 Y22.8627
G01 X9.7500 Y22.8717
G01 X9.9335 Y22.8627
G01 X10.1152 Y22.8358
G01 X10.2933 Y22.7912
G01 X10.4663 Y22.7293
G01 X10.6323 Y22.6507
G01 X10.7899 Y22.5563
G01 X10.9374 Y22.4469
G01 X11.0735 Y22.3235
G01 X11.1969 Y22.1874
G01 X11.3063 Y22.0399
G01 X11.4007 Y21.8823
G01 X11.4793 Y21.7163
G01 X11.5412 Y21.5433
G01 X11.5858 Y21.3652
G01 X11.6127 Y21.1835
G01 X11.6217 Y21.0000
G01 X11.6109 Y20.8015
G00 Z2.0000
G00 X11.4229 Y20.8294
G01 F50.00
G01 Z-0.0700
G01 F100.00
G01 X11.3994 Y20.6719
G01 X11.3593 Y20.5118
G01 X11.3037 Y20.3564
G01 X11.2332 Y20.2072
G01 X11.1483 Y20.0657
G01 X11.0500 Y19.9331
G01 X10.9392 Y19.8108
G01 X10.8169 Y19.7000
G01 X10.6843 Y19.6017
G01 X10.5428 Y19.5168
G01 X10.3936 Y19.4463
G01 X10.2382 Y19.3907
G01 X10.0781 Y19.3506
G01 X9.9148 Y19.3263
G01 X9.7500 Y19.3183
G01 X9.5852 Y19.3263
G01 X9.4219 Y19.3506
G01 X9.2618 Y19.3907
G01 X9.1064 Y19.4463
G01 X8.9572 Y19.5168
G01 X8.8157 Y19.6017
G01 X8.6831 Y19.7000
G01 X8.5608 Y19.8108
G01 X8.4500 Y19.9331
G01 X8.3517 Y20.0657
G01 X8.2668 Y20.2072
G01 X8.1963 Y20.3564
G01 X8.1407 Y20.5118
G01 X8.1006 Y20.6719
G01 X8.0763 Y20.8352
G01 X8.0683 Y21.0000
G01 X8.0763 Y21.1648
G01 X8.1006 Y21.3281
G01 X8.1407 Y21.4882
G01 X8.1963 Y21.6436
G01 X8.2668 Y21.7928
G01 X8.3517 Y21.9343
G01 X8.4500 Y22.0669
G01 X8.5608 Y22.1892
G01 X8.6831 Y22.3000
G01 X8.8157 Y22.3983
G01 X8.9572 Y22.4832
G01 X9.1064 Y22.5537
G01 X9.2618 Y22.6093
G01 X9.4219 Y22.6494
G01 X9.5852 Y22.6737
G01 X9.7500 Y22.6817
G01 X9.9148 Y22.6737
G01 X10.0781 Y22.6494
G01 X10.2382 Y22.6093
G01 X10.3936 Y22.5537
G01 X10.5428 Y22.4832
G01 X10.6843 Y22.3983
G01 X10.8169 Y22.3000
G01 X10.9392 Y22.1892
G01 X11.0500 Y22.0669
G01 X11.1483 Y21.9343
G01 X11.2332 Y21.7928
G01 X11.3037 Y21.6436
G01 X11.3593 Y21.4882
G01 X11.3994 Y21.3281
G01 X11.4237 Y21.1648
G01 X11.4317 Y21.0000
G01 X11.4229 Y20.8294
G00 Z2.0000
G00 X19.6704 Y16.5839
G01 F50.00
G01 Z-0.0700
G01 F100.00
G01 X19.5407 Y16.6524
G01 X19.4318 Y16.7418
G01 X19.3424 Y16.8507
G01 X19.2760 Y16.9749
G01 X19.2351 Y17.1098
G01 X19.2213 Y17.2500
G01 X19.2351 Y17.3902
G01 X19.2760 Y17.5251
G01 X19.3424 Y17.6493
G01 X19.4318 Y17.7582
G01 X19.5407 Y17.8476
G01 X19.6649 Y17.9140
G01 X19.7998 Y17.9549
G01 X19.9400 Y17.9687
G01 X20.0802 Y17.9549
G01 X20.2151 Y17.9140
G01 X20.3393 Y17.8476
G01 X20.4440 Y17.7623
G01 X20.4992 Y17.7014
G01 X20.5739 Y17.5888
G01 X20.9739 Y16.5687
G01 X21.7947 Y15.7479
G01 X21.8330 Y15.6963
G01 X21.8509 Y15.6510
G01 X21.8588 Y15.5961
G01 X21.8588 Y13.9393
G01 X21.9788 Y13.8889
G01 X22.0914 Y13.8142
G01 X22.1523 Y13.7590
G01 X22.2343 Y13.6591
G01 X22.2765 Y13.5886
G01 X22.3278 Y13.4636
G01 X22.3459 Y13.3895
G01 X22.3586 Y13.2608
G01 X22.3586 Y12.6992
G01 X22.3459 Y12.5705
G01 X22.3278 Y12.4964
G01 X22.2739 Y12.3662
G01 X22.1956 Y12.2490
G01 X22.0960 Y12.1494
G01 X21.9788 Y12.0711
G01 X21.9096 Y12.0389
G01 X21.7859 Y12.0013
G01 X21.6400 Y11.9863
G01 X21.4941 Y12.0013
G01 X21.4258 Y12.0190
G01 X21.3064 Y12.0685
G01 X21.1796 Y12.1532
G01 X21.1277 Y12.2010
G01 X21.0457 Y12.3009
G01 X20.9760 Y12.4299
G01 X20.9341 Y12.5705
G01 X20.9213 Y12.7021
G01 X20.9213 Y13.2579
G01 X20.9341 Y13.3895
G01 X20.9540 Y13.4692
G01 X20.9783 Y13.5354
G01 X21.0393 Y13.6494
G01 X21.1318 Y13.7632
G01 X21.2456 Y13.8557
G01 X21.3064 Y13.8915
G01 X21.4212 Y13.9393
G01 X21.4212 Y15.5025
G01 X20.6671 Y16.2567
G01 X19.6704 Y16.5839
G00 Z2.0000
G00 X22.2470 Y16.5606
G01 F50.00
G01 Z-0.0700
G01 F100.00
G01 X22.1061 Y16.6190
G01 X21.9896 Y16.6982
G01 X21.8944 Y16.7940
G01 X21.8135 Y16.9164
G01 X21.7622 Y17.0414
G01 X21.7347 Y17.1796
G01 X21.7347 Y17.3204
G01 X21.7622 Y17.4586
G01 X21.8161 Y17.5888
G01 X21.8944 Y17.7060
G01 X21.9940 Y17.8056
G01 X22.1061 Y17.8810
G01 X22.2358 Y17.9360
G01 X22.3155 Y17.9559
G01 X22.4500 Y17.9687
G01 X22.5902 Y17.9549
G01 X22.7251 Y17.9140
G01 X22.8444 Y17.8507
G01 X22.9104 Y17.8018
G01 X23.0092 Y17.7014
G01 X23.0865 Y17.5836
G01 X23.1370 Y17.4611
G01 X23.5298 Y16.6196
G01 X23.7987 Y16.3505
G01 X23.8442 Y16.2783
G01 X23.8588 Y16.2000
G01 X23.8588 Y13.9393
G01 X23.9788 Y13.8889
G01 X24.0914 Y13.8142
G01 X24.1523 Y13.7590
G01 X24.2343 Y13.6591
G01 X24.2765 Y13.5886
G01 X24.3278 Y13.4636
G01 X24.3459 Y13.3895
G01 X24.3587 Y13.2579
G01 X24.3557 Y12.6404
G01 X24.3437 Y12.5591
G01 X24.3061 Y12.4354
G01 X24.2376 Y12.3057
G01 X24.1482 Y12.1968
G01 X24.0393 Y12.1074
G01 X23.9096 Y12.0389
G01 X23.7859 Y12.0013
G01 X23.7162 Y11.9904
G01 X23.5696 Y11.9897
G01 X23.4258 Y12.0190
G01 X23.3064 Y12.0685
G01 X23.2456 Y12.1043
G01 X23.1318 Y12.1968
G01 X23.0393 Y12.3106
G01 X22.9783 Y12.4246
G01 X22.9540 Y12.4908
G01 X22.9247 Y12.6346
G01 X22.9243 Y13.3196
G01 X22.9363 Y13.4009
G01 X22.9739 Y13.5246
G01 X23.0424 Y13.6543
G01 X23.1360 Y13.7673
G01 X23.2456 Y13.8557
G01 X23.3064 Y13.8915
G01 X23.4212 Y13.9393
G01 X23.4212 Y16.1094
G01 X23.2283 Y16.3023
G01 X22.2470 Y16.5606
G00 Z2.0000
G00 X27.0179 Y15.6692
G01 F50.00
G01 Z-0.0700
G01 F100.00
G01 X27.0664 Y15.8181
G01 X27.1374 Y15.9577
G01 X27.0179 Y15.8382
G01 X27.0179 Y15.6692
G00 Z2.0000
G00 X27.5323 Y16.3526
G01 F50.00
G01 Z-0.0700
G01 F100.00
G01 X27.6719 Y16.4236
G01 X27.8208 Y16.4721
G01 X27.6518 Y16.4721
G01 X27.5323 Y16.3526
G00 Z2.0000
G00 X29.2241 Y17.6492
G01 F50.00
G01 Z-0.0700
G01 F100.00
G01 X29.2513 Y17.6619
G01 X29.2795 Y17.6721
G01 X29.2470 Y17.6721
G01 X29.2241 Y17.6492
G00 Z2.0000
G00 X29.9229 Y20.8294
G01 F50.00
G01 Z-0.0700
G01 F100.00
G01 X29.8994 Y20.6719
G01 X29.8593 Y20.5118
G01 X29.8037 Y20.3564
G01 X29.7332 Y20.2072
G01 X29.6483 Y20.0657
G01 X29.5500 Y19.9331
G01 X29.4392 Y19.8108
G01 X29.3169 Y19.7000
G01 X29.1843 Y19.6017
G01 X29.0428 Y19.5168
G01 X28.8936 Y19.4463
G01 X28.7382 Y19.3907
G01 X28.5781 Y19.3506
G01 X28.4148 Y19.3263
G01 X28.2500 Y19.3183
G01 X28.0852 Y19.3263
G01 X27.9219 Y19.3506
G01 X27.7618 Y19.3907
G01 X27.6064 Y19.4463
G01 X27.4572 Y19.5168
G01 X27.3157 Y19.6017
G01 X27.1831 Y19.7000
G01 X27.0608 Y19.8108
G01 X26.9500 Y19.9331
G01 X26.8517 Y20.0657
G01 X26.7668 Y20.2072
G01 X26.6963 Y20.3564
G01 X26.6407 Y20.5118
G01 X26.6006 Y20.6719
G01 X26.5763 Y20.8352
G01 X26.5683 Y21.0000
G01 X26.5763 Y21.1648
G01 X26.6006 Y21.3281
G01 X26.6407 Y21.4882
G01 X26.6963 Y21.6436
G01 X26.7668 Y21.7928
G01 X26.8517 Y21.9343
G01 X26.9500 Y22.0669
G01 X27.0608 Y22.1892
G01 X27.1831 Y22.3000
G01 X27.3157 Y22.3983
G01 X27.4572 Y22.4832
G01 X27.6064 Y22.5537
G01 X27.7618 Y22.6093
G01 X27.9219 Y22.6494
G01 X28.0852 Y22.6737
G01 X28.2500 Y22.6817
G01 X28.4148 Y22.6737
G01 X28.5781 Y22.6494
G01 X28.7382 Y22.6093
G01 X28.8936 Y22.5537
G01 X29.0428 Y22.4832
G01 X29.1843 Y22.3983
G01 X29.3169 Y22.3000
G01 X29.4392 Y22.1892
G01 X29.5500 Y22.0669
G01 X29.6483 Y21.9343
G01 X29.7332 Y21.7928
G01 X29.8037 Y21.6436
G01 X29.8593 Y21.4882
G01 X29.8994 Y21.3281
G01 X29.9237 Y21.1648
G01 X29.9317 Y21.0000
G01 X29.9229 Y20.8294
G00 Z2.0000
G00 X30.1109 Y20.8015
G01 F50.00
G01 Z-0.0700
G01 F100.00
G01 X30.0858 Y20.6348
G01 X30.0412 Y20.4567
G01 X29.9793 Y20.2837
G01 X29.9007 Y20.1177
G01 X29.8063 Y19.9601
G01 X29.6969 Y19.8126
G01 X29.5735 Y19.6765
G01 X29.4374 Y19.5531
G01 X29.2899 Y19.4437
G01 X29.1323 Y19.3493
G01 X28.9663 Y19.2707
G01 X28.7933 Y19.2088
G01 X28.6152 Y19.1642
G01 X28.4335 Y19.1373
G01 X28.2500 Y19.1283
G01 X28.0665 Y19.1373
G01 X27.8848 Y19.1642
G01 X27.7067 Y19.2088
G01 X27.5337 Y19.2707
G01 X27.3677 Y19.3493
G01 X27.2101 Y19.4437
G01 X27.0626 Y19.5531
G01 X26.9265 Y19.6765
G01 X26.8031 Y19.8126
G01 X26.6937 Y19.9601
G01 X26.5993 Y20.1177
G01 X26.5207 Y20.2837
G01 X26.4588 Y20.4567
G01 X26.4142 Y20.6348
G01 X26.3873 Y20.8165
G01 X26.3783 Y21.0000
G01 X26.3873 Y21.1835
G01 X26.4142 Y21.3652
G01 X26.4588 Y21.5433
G01 X26.5207 Y21.7163
G01 X26.5993 Y21.8823
G01 X26.6937 Y22.0399
G01 X26.8031 Y22.1874
G01 X26.9265 Y22.3235
G01 X27.0626 Y22.4469
G01 X27.2101 Y22.5563
G01 X27.3677 Y22.6507
G01 X27.5337 Y22.7293
G01 X27.7067 Y22.7912
G01 X27.8848 Y22.8358
G01 X28.0665 Y22.8627
G01 X28.2500 Y22.8717
G01 X28.4335 Y22.8627
G01 X28.6152 Y22.8358
G01 X28.7933 Y22.7912
G01 X28.9663 Y22.7293
G01 X29.1323 Y22.6507
G01 X29.2899 Y22.5563
G01 X29.4374 Y22.4469
G01 X29.5735 Y22.3235
G01 X29.6969 Y22.1874
G01 X29.8063 Y22.0399
G01 X29.9007 Y21.8823
G01 X29.9793 Y21.7163
G01 X30.0412 Y21.5433
G01 X30.0858 Y21.3652
G01 X30.1127 Y21.1835
G01 X30.1217 Y21.0000
G01 X30.1109 Y20.8015
G00 Z2.0000
G00 X35.0910 Y23.4264
G01 F50.00
G01 Z-0.0700
G01 F100.00
G01 X35.0682 Y23.2492
G01 X35.0056 Y23.0466
G01 X34.9495 Y22.9306
G01 X34.8400 Y22.7668
G01 X34.7434 Y22.6602
G01 X34.5912 Y22.5353
G01 X34.4812 Y22.4681
G01 X34.3439 Y22.4067
G01 X34.3439 Y20.6580
G01 X35.0910 Y21.4051
G01 X35.0910 Y23.4264
G00 Z2.0000
G00 X29.4188 Y14.3401
G01 F50.00
G01 Z-0.0700
G01 F100.00
G01 X29.3553 Y14.4778
G01 X29.3339 Y14.5852
G01 X29.3313 Y14.9499
G01 X29.2610 Y14.7866
G01 X29.1963 Y14.6757
G01 X29.1117 Y14.5597
G01 X29.0341 Y14.4736
G01 X29.0341 Y14.3627
G01 X29.0567 Y14.3401
G01 X29.4188 Y14.3401
G00 Z2.0000
G00 X27.6215 Y12.8889
G01 F50.00
G01 Z-0.0700
G01 F100.00
G01 X27.8659 Y12.8889
G01 X27.3780 Y13.3832
G01 X27.2762 Y13.5355
G01 X27.2079 Y13.6994
G01 X27.2079 Y13.3025
G01 X27.6215 Y12.8889
G00 Z2.0000
G00 X27.5428 Y12.6989
G01 F50.00
G01 Z-0.0700
G01 F100.00
G01 X28.4397 Y12.6989
G01 X28.3242 Y12.7472
G01 X28.2613 Y12.7842
G01 X28.1479 Y12.8758
G01 X27.5718 Y13.4517
G01 X27.5212 Y13.5084
G01 X27.4467 Y13.6200
G01 X27.3880 Y13.7598
G01 X27.3595 Y13.9029
G01 X27.3559 Y14.5561
G01 X27.2390 Y14.6759
G01 X27.1667 Y14.7734
G01 X27.1134 Y14.8626
G01 X27.0664 Y14.9619
G01 X27.0179 Y15.1108
G01 X27.0179 Y13.2238
G01 X27.5428 Y12.6989
G00 Z2.0000
G00 X27.5313 Y11.5576
G01 F50.00
G01 Z-0.0700
G01 F100.00
G01 X27.5420 Y11.6590
G01 X27.5770 Y11.7711
G01 X27.3824 Y11.7712
G01 X27.2810 Y11.7819
G01 X27.1623 Y11.8198
G01 X27.0474 Y11.8887
G01 X26.2434 Y12.6868
G01 X26.1636 Y12.7944
G01 X26.1142 Y12.9088
G01 X26.0983 Y12.9769
G01 X26.0901 Y13.0710
G01 X26.0902 Y15.9986
G01 X26.0983 Y16.0851
G01 X26.1142 Y16.1533
G01 X26.1762 Y16.2887
G01 X26.2538 Y16.3862
G01 X27.1444 Y17.2730
G01 X27.2491 Y17.3407
G01 X27.3752 Y17.3858
G01 X27.4838 Y17.3995
G01 X27.6627 Y17.3999
G01 X28.7045 Y18.4415
G01 X28.7837 Y18.5057
G01 X28.8665 Y18.5512
G01 X28.9852 Y18.5891
G01 X29.0867 Y18.5998
G01 X31.2946 Y18.5999
G01 X33.2261 Y20.5314
G01 X33.2261 Y22.4067
G01 X33.0888 Y22.4681
G01 X32.9788 Y22.5353
G01 X32.8266 Y22.6602
G01 X32.7300 Y22.7668
G01 X32.6205 Y22.9306
G01 X32.5644 Y23.0466
G01 X32.5018 Y23.2492
G01 X32.4818 Y23.3764
G01 X32.4763 Y23.4900
G01 X32.4837 Y23.6186
G01 X32.5221 Y23.8118
G01 X32.5644 Y23.9334
G01 X32.6131 Y24.0362
G01 X32.6803 Y24.1462
G01 X32.8052 Y24.2984
G01 X32.8999 Y24.3857
G01 X33.0756 Y24.5045
G01 X33.1916 Y24.5605
G01 X33.3132 Y24.6029
G01 X33.5214 Y24.6432
G01 X33.9350 Y24.6487
G01 X34.0486 Y24.6432
G01 X34.1758 Y24.6232
G01 X34.3643 Y24.5660
G01 X34.4944 Y24.5045
G01 X34.6701 Y24.3857
G01 X34.7648 Y24.2984
G01 X34.8897 Y24.1462
G01 X34.9637 Y24.0227
G01 X35.0391 Y23.8408
G01 X35.0715 Y23.7161
G01 X35.0910 Y23.5536
G01 X35.0910 Y24.2149
G01 X34.4747 Y24.8313
G01 X32.9802 Y24.8339
G01 X32.8728 Y24.8553
G01 X32.7851 Y24.8904
G01 X32.7122 Y24.9341
G01 X32.6399 Y24.9949
G01 X32.5791 Y25.0672
G01 X32.5354 Y25.1401
G01 X32.5003 Y25.2278
G01 X32.4808 Y25.3202
G01 X32.4763 Y26.1547
G01 X31.4409 Y27.1900
G01 X5.7841 Y27.1900
G01 X4.6887 Y26.0947
G01 X4.6884 Y25.3149
G01 X4.6780 Y25.2210
G01 X4.6462 Y25.1162
G01 X4.6027 Y25.0324
G01 X4.5619 Y24.9755
G01 X4.5141 Y24.9245
G01 X4.4404 Y24.8654
G01 X4.3799 Y24.8304
G01 X4.2922 Y24.7953
G01 X4.2241 Y24.7794
G01 X4.1376 Y24.7713
G01 X2.5752 Y24.7739
G01 X2.4678 Y24.7953
G01 X2.3801 Y24.8304
G01 X2.3072 Y24.8741
G01 X2.2349 Y24.9349
G01 X2.1654 Y25.0196
G01 X2.1138 Y25.1162
G01 X2.0820 Y25.2210
G01 X2.0716 Y25.3149
G01 X2.0728 Y26.5697
G01 X2.0953 Y26.6922
G01 X2.1573 Y26.8276
G01 X2.2349 Y26.9251
G01 X2.3196 Y26.9946
G01 X2.4162 Y27.0462
G01 X2.5210 Y27.0780
G01 X2.6224 Y27.0887
G01 X3.3947 Y27.0887
G01 X4.9358 Y28.6244
G01 X5.0123 Y28.6798
G01 X5.1394 Y28.7464
G01 X5.2764 Y28.7891
G01 X5.3848 Y28.8052
G01 X31.8402 Y28.8052
G01 X31.9486 Y28.7891
G01 X32.0856 Y28.7464
G01 X32.1705 Y28.7050
G01 X32.2892 Y28.6244
G01 X33.7703 Y27.1487
G01 X34.5898 Y27.1461
G01 X34.6826 Y27.1287
G01 X34.7488 Y27.1062
G01 X34.8116 Y27.0753
G01 X34.8895 Y27.0219
G01 X34.9909 Y26.9128
G01 X35.0512 Y26.8038
G01 X35.0892 Y26.6598
G01 X35.0937 Y26.5003
G01 X36.5254 Y25.0632
G01 X36.6060 Y24.9445
G01 X36.6474 Y24.8596
G01 X36.6901 Y24.7226
G01 X36.7051 Y24.6293
G01 X36.7089 Y21.0624
G01 X36.7032 Y20.9757
G01 X36.6782 Y20.8498
G01 X36.6135 Y20.6886
G01 X36.5347 Y20.5687
G01 X36.4720 Y20.4980
G01 X32.6733 Y16.6993
G01 X34.0035 Y16.6993
G01 X34.1474 Y16.7852
G01 X34.2940 Y16.8549
G01 X34.4749 Y16.9209
G01 X34.6621 Y16.9666
G01 X34.8227 Y16.9900
G01 X34.9849 Y16.9984
G01 X35.1773 Y16.9900
G01 X35.3677 Y16.9607
G01 X35.5251 Y16.9209
G01 X35.6780 Y16.8665
G01 X35.8526 Y16.7852
G01 X36.0049 Y16.6939
G01 X36.1475 Y16.5882
G01 X36.2790 Y16.4690
G01 X36.3982 Y16.3375
G01 X36.5039 Y16.1949
G01 X36.5952 Y16.0426
G01 X36.6711 Y15.8822
G01 X36.7261 Y15.7294
G01 X36.7766 Y15.5279
G01 X36.8000 Y15.3673
G01 X36.8084 Y15.1749
G01 X36.8000 Y15.0127
G01 X36.7740 Y14.8371
G01 X36.7309 Y14.6649
G01 X36.6711 Y14.4978
G01 X36.5877 Y14.3242
G01 X36.5039 Y14.1851
G01 X36.4075 Y14.0545
G01 X36.2790 Y13.9110
G01 X36.1355 Y13.7825
G01 X36.0049 Y13.6861
G01 X35.8658 Y13.6023
G01 X35.6922 Y13.5189
G01 X35.5251 Y13.4591
G01 X35.3677 Y13.4193
G01 X35.1773 Y13.3900
G01 X34.9849 Y13.3816
G01 X34.8227 Y13.3900
G01 X34.6621 Y13.4134
G01 X34.4749 Y13.4591
G01 X34.3078 Y13.5189
G01 X34.1342 Y13.6023
G01 X33.9951 Y13.6861
G01 X33.8645 Y13.7825
G01 X33.7210 Y13.9110
G01 X33.5730 Y14.0807
G01 X32.4293 Y14.0807
G01 X34.5122 Y11.9987
G01 X35.7576 Y11.9987
G01 X35.9565 Y11.9784
G01 X36.0573 Y11.9532
G01 X36.1552 Y11.9182
G01 X36.2491 Y11.8737
G01 X36.3382 Y11.8203
G01 X36.4217 Y11.7584
G01 X36.4987 Y11.6886
G01 X36.5684 Y11.6117
G01 X36.6303 Y11.5282
G01 X36.6837 Y11.4391
G01 X36.7336 Y11.3310
G01 X36.7851 Y11.1613
G01 X36.8037 Y11.0438
G01 X36.8087 Y9.4400
G01 X36.8037 Y9.3362
G01 X36.7851 Y9.2187
G01 X36.7336 Y9.0490
G01 X36.6837 Y8.9409
G01 X36.6303 Y8.8518
G01 X36.5684 Y8.7683
G01 X36.4877 Y8.6809
G01 X36.3506 Y8.5684
G01 X36.2623 Y8.5137
G01 X36.1552 Y8.4618
G01 X36.0573 Y8.4268
G01 X35.9565 Y8.4016
G01 X35.8387 Y8.3852
G01 X34.2424 Y8.3813
G01 X34.0584 Y8.3990
G01 X33.9427 Y8.4268
G01 X33.8310 Y8.4680
G01 X33.6618 Y8.5597
G01 X33.5783 Y8.6216
G01 X33.5013 Y8.6914
G01 X33.4316 Y8.7683
G01 X33.3697 Y8.8518
G01 X33.3163 Y8.9409
G01 X33.2718 Y9.0348
G01 X33.2368 Y9.1327
G01 X33.2116 Y9.2334
G01 X33.1913 Y9.4324
G01 X33.1913 Y10.6778
G01 X31.3971 Y12.4719
G01 X30.4567 Y12.4719
G01 X30.7230 Y12.2019
G01 X30.7839 Y12.1107
G01 X30.8258 Y12.0095
G01 X30.8417 Y11.9414
G01 X30.8498 Y11.8549
G01 X30.8499 Y10.5097
G01 X31.0925 Y10.2670
G01 X31.1480 Y10.2001
G01 X31.2083 Y10.0911
G01 X31.2427 Y9.9713
G01 X31.2509 Y9.8772
G01 X31.2482 Y7.6902
G01 X31.2309 Y7.5974
G01 X31.2022 Y7.5173
G01 X31.1567 Y7.4345
G01 X31.0925 Y7.3553
G01 X30.0792 Y6.3424
G01 X29.9584 Y6.2551
G01 X29.8426 Y6.2091
G01 X29.6950 Y6.1891
G01 X25.6720 Y6.1891
G01 X25.6022 Y6.1937
G01 X25.5098 Y6.2132
G01 X25.3954 Y6.2626
G01 X25.2768 Y6.3528
G01 X21.2985 Y10.3311
G01 X17.1807 Y10.3311
G01 X12.7054 Y5.8558
G01 X12.6079 Y5.7782
G01 X12.4869 Y5.7209
G01 X12.4043 Y5.7003
G01 X12.3102 Y5.6921
G01 X4.0590 Y5.6921
G01 X3.9649 Y5.7003
G01 X3.8968 Y5.7162
G01 X3.7613 Y5.7782
G01 X3.6638 Y5.8558
G01 X2.4484 Y7.0713
G01 X1.9810 Y7.0745
G01 X1.8777 Y7.0887
G01 X1.7912 Y7.1104
G01 X1.6934 Y7.1466
G01 X1.5501 Y7.2244
G01 X1.4670 Y7.2874
G01 X1.3525 Y7.4035
G01 X1.2536 Y7.5516
G01 X1.1854 Y7.7162
G01 X1.1506 Y7.8909
G01 X1.1506 Y8.0691
G01 X1.1854 Y8.2438
G01 X1.2536 Y8.4084
G01 X1.3525 Y8.5565
G01 X1.4785 Y8.6825
G01 X1.6134 Y8.7740
G01 X1.7214 Y8.8250
G01 X1.8777 Y8.8713
G01 X2.0474 Y8.8887
G01 X2.6050 Y8.8887
G01 X2.7091 Y8.8825
G01 X2.7971 Y8.8680
G01 X2.9386 Y8.8250
G01 X3.0334 Y8.7815
G01 X3.1099 Y8.7356
G01 X3.2476 Y8.6226
G01 X3.3519 Y8.4973
G01 X3.4133 Y8.3948
G01 X3.4746 Y8.2438
G01 X3.5075 Y8.0841
G01 X3.5134 Y7.9649
G01 X3.4963 Y7.8027
G01 X3.4511 Y7.6493
G01 X4.2905 Y6.8099
G01 X6.6520 Y6.8099
G01 X3.5126 Y9.9493
G01 X3.4989 Y9.8176
G01 X3.4699 Y9.7018
G01 X3.4133 Y9.5652
G01 X3.3519 Y9.4627
G01 X3.2580 Y9.3484
G01 X3.1815 Y9.2775
G01 X3.0466 Y9.1860
G01 X2.9386 Y9.1350
G01 X2.7971 Y9.0920
G01 X2.6790 Y9.0745
G01 X1.9810 Y9.0745
G01 X1.8777 Y9.0887
G01 X1.7768 Y9.1151
G01 X1.6402 Y9.1717
G01 X1.5501 Y9.2244
G01 X1.4234 Y9.3270
G01 X1.3432 Y9.4154
G01 X1.2536 Y9.5516
G01 X1.1854 Y9.7162
G01 X1.1525 Y9.8759
G01 X1.1466 Y9.9951
G01 X1.1637 Y10.1573
G01 X1.2089 Y10.3107
G01 X0.4205 Y11.0992
G01 X0.3563 Y11.1785
G01 X0.3108 Y11.2613
G01 X0.2729 Y11.3800
G01 X0.2621 Y11.4890
G01 X0.2621 Y20.8710
G01 X0.2762 Y20.9948
G01 X0.3281 Y21.1345
G01 X0.3650 Y21.1939
G01 X0.4205 Y21.2608
G01 X2.1558 Y22.9961
G01 X2.0968 Y23.1892
G01 X2.0768 Y23.3164
G01 X2.0757 Y23.5285
G01 X2.0968 Y23.6708
G01 X2.1540 Y23.8593
G01 X2.2155 Y23.9894
G01 X2.3343 Y24.1651
G01 X2.4834 Y24.3158
G01 X2.5990 Y24.4016
G01 X2.7866 Y24.5005
G01 X2.9082 Y24.5429
G01 X3.1164 Y24.5832
G01 X3.5300 Y24.5887
G01 X3.6586 Y24.5813
G01 X3.8664 Y24.5389
G01 X3.9734 Y24.5005
G01 X4.0894 Y24.4445
G01 X4.2651 Y24.3257
G01 X4.3494 Y24.2494
G01 X4.4257 Y24.1651
G01 X4.4935 Y24.0738
G01 X4.5519 Y23.9762
G01 X4.6005 Y23.8734
G01 X4.6389 Y23.7664
G01 X4.6665 Y23.6561
G01 X4.6832 Y23.5436
G01 X4.6887 Y23.4300
G01 X4.6832 Y23.3164
G01 X4.6665 Y23.2039
G01 X4.6389 Y23.0936
G01 X4.5587 Y22.8973
G01 X4.4935 Y22.7862
G01 X4.4350 Y22.7068
G01 X4.3384 Y22.6002
G01 X4.1738 Y22.4665
G01 X4.0762 Y22.4081
G01 X3.9734 Y22.3595
G01 X3.8518 Y22.3171
G01 X3.6436 Y22.2768
G01 X3.2224 Y22.2713
G01 X3.0297 Y22.2893
G01 X1.3799 Y20.6395
G01 X1.3799 Y18.7841
G01 X1.4551 Y18.8296
G01 X1.5428 Y18.8647
G01 X1.6352 Y18.8842
G01 X1.7050 Y18.8887
G01 X2.9701 Y18.8884
G01 X3.1172 Y18.8647
G01 X3.2049 Y18.8296
G01 X3.2734 Y18.7890
G01 X4.1049 Y18.7890
G01 X4.9257 Y19.6098
G01 X4.9817 Y19.7448
G01 X5.0344 Y19.8349
G01 X5.0974 Y19.9180
G01 X5.2020 Y20.0226
G01 X5.2979 Y20.0937
G01 X5.4422 Y20.1696
G01 X5.5979 Y20.2180
G01 X5.7287 Y20.2361
G01 X5.7211 Y20.3263
G01 X5.7212 Y24.0176
G01 X5.7411 Y24.1576
G01 X5.7871 Y24.2735
G01 X5.8240 Y24.3329
G01 X5.8848 Y24.4052
G01 X8.2802 Y26.8005
G01 X8.3471 Y26.8560
G01 X8.4065 Y26.8929
G01 X8.5462 Y26.9448
G01 X8.6700 Y26.9589
G01 X16.5348 Y26.9562
G01 X16.6276 Y26.9389
G01 X16.6939 Y26.9163
G01 X16.7777 Y26.8728
G01 X16.8345 Y26.8320
G01 X17.3900 Y26.2804
G01 X17.9855 Y26.8720
G01 X18.0423 Y26.9128
G01 X18.1261 Y26.9563
G01 X18.1924 Y26.9789
G01 X18.2852 Y26.9962
G01 X23.6276 Y26.9988
G01 X23.7290 Y26.9881
G01 X23.8197 Y26.9618
G01 X23.8966 Y26.9254
G01 X23.9745 Y26.8720
G01 X25.3821 Y25.4660
G01 X25.4328 Y25.3977
G01 X25.4763 Y25.3139
G01 X25.4989 Y25.2476
G01 X25.5162 Y25.1548
G01 X25.5189 Y12.5615
G01 X27.5313 Y10.5491
G01 X27.5313 Y11.5576
G00 Z2.0000
G00 X29.4206 Y9.7913
G01 F50.00
G01 Z-0.0700
G01 F100.00
G01 X28.2891 Y9.7913
G01 X28.4897 Y9.5907
G01 X28.6824 Y9.6087
G01 X28.9900 Y9.6087
G01 X29.1036 Y9.6032
G01 X29.2161 Y9.5865
G01 X29.3408 Y9.5541
G01 X29.5227 Y9.4787
G01 X29.6338 Y9.4135
G01 X29.7322 Y9.3396
G01 X29.7322 Y9.4797
G01 X29.4206 Y9.7913
G00 Z2.0000
G00 X29.9293 Y10.2058
G01 F50.00
G01 Z-0.0700
G01 F100.00
G01 X29.9179 Y10.1815
G01 X29.9432 Y10.1562
G01 X29.9293 Y10.2058
G00 Z2.0000
G00 X29.9222 Y8.1888
G01 F50.00
G01 Z-0.0700
G01 F100.00
G01 X29.8850 Y8.0793
G01 X29.8339 Y7.9755
G01 X29.9222 Y8.0639
G01 X29.9222 Y8.1888
G00 Z2.0000
G00 X29.4645 Y7.6061
G01 F50.00
G01 Z-0.0700
G01 F100.00
G01 X29.3607 Y7.5550
G01 X29.2512 Y7.5178
G01 X29.3761 Y7.5178
G01 X29.4645 Y7.6061
G00 Z2.0000
G00 X21.7463 Y7.6586
G01 F50.00
G01 Z-0.0700
G01 F100.00
G01 X21.7149 Y7.4495
G01 X21.6598 Y7.2297
G01 X21.5835 Y7.0163
G01 X21.4866 Y6.8114
G01 X21.3701 Y6.6170
G01 X21.2351 Y6.4350
G01 X21.0829 Y6.2671
G01 X20.9150 Y6.1149
G01 X20.7329 Y5.9799
G01 X20.5386 Y5.8634
G01 X20.3337 Y5.7665
G01 X20.1203 Y5.6902
G01 X19.9005 Y5.6351
G01 X19.6763 Y5.6019
G01 X19.4500 Y5.5908
G01 X19.2237 Y5.6019
G01 X18.9995 Y5.6351
G01 X18.7797 Y5.6902
G01 X18.5663 Y5.7665
G01 X18.3614 Y5.8634
G01 X18.1671 Y5.9799
G01 X17.9850 Y6.1149
G01 X17.8171 Y6.2671
G01 X17.6649 Y6.4350
G01 X17.5299 Y6.6170
G01 X17.4134 Y6.8114
G01 X17.3165 Y7.0163
G01 X17.2402 Y7.2297
G01 X17.1851 Y7.4495
G01 X17.1519 Y7.6737
G01 X17.1408 Y7.9000
G01 X17.1519 Y8.1263
G01 X17.1851 Y8.3505
G01 X17.2402 Y8.5703
G01 X17.3165 Y8.7837
G01 X17.4134 Y8.9886
G01 X17.5299 Y9.1830
G01 X17.6649 Y9.3650
G01 X17.8171 Y9.5329
G01 X17.9850 Y9.6851
G01 X18.1670 Y9.8201
G01 X18.3614 Y9.9366
G01 X18.5663 Y10.0335
G01 X18.7797 Y10.1098
G01 X18.9995 Y10.1649
G01 X19.2236 Y10.1981
G01 X19.4500 Y10.2092
G01 X19.6764 Y10.1981
G01 X19.9005 Y10.1649
G01 X20.1203 Y10.1098
G01 X20.3337 Y10.0335
G01 X20.5386 Y9.9366
G01 X20.7330 Y9.8201
G01 X20.9150 Y9.6851
G01 X21.0829 Y9.5329
G01 X21.2351 Y9.3650
G01 X21.3701 Y9.1830
G01 X21.4866 Y8.9886
G01 X21.5835 Y8.7837
G01 X21.6598 Y8.5703
G01 X21.7149 Y8.3505
G01 X21.7481 Y8.1263
G01 X21.7592 Y7.9000
G01 X21.7463 Y7.6586
G00 Z2.0000
G00 X21.5583 Y7.6865
G01 F50.00
G01 Z-0.0700
G01 F100.00
G01 X21.5285 Y7.4866
G01 X21.4780 Y7.2848
G01 X21.4079 Y7.0890
G01 X21.3190 Y6.9010
G01 X21.2121 Y6.7226
G01 X21.0882 Y6.5556
G01 X20.9485 Y6.4015
G01 X20.7944 Y6.2618
G01 X20.6274 Y6.1379
G01 X20.4490 Y6.0310
G01 X20.2610 Y5.9421
G01 X20.0652 Y5.8720
G01 X19.8634 Y5.8215
G01 X19.6577 Y5.7910
G01 X19.4500 Y5.7808
G01 X19.2423 Y5.7910
G01 X19.0366 Y5.8215
G01 X18.8348 Y5.8720
G01 X18.6390 Y5.9421
G01 X18.4510 Y6.0310
G01 X18.2726 Y6.1379
G01 X18.1056 Y6.2618
G01 X17.9515 Y6.4015
G01 X17.8118 Y6.5556
G01 X17.6879 Y6.7226
G01 X17.5810 Y6.9010
G01 X17.4921 Y7.0890
G01 X17.4220 Y7.2848
G01 X17.3715 Y7.4866
G01 X17.3410 Y7.6923
G01 X17.3308 Y7.9000
G01 X17.3410 Y8.1077
G01 X17.3715 Y8.3134
G01 X17.4220 Y8.5152
G01 X17.4921 Y8.7110
G01 X17.5810 Y8.8990
G01 X17.6879 Y9.0774
G01 X17.8118 Y9.2444
G01 X17.9515 Y9.3985
G01 X18.1056 Y9.5382
G01 X18.2726 Y9.6621
G01 X18.4510 Y9.7690
G01 X18.6390 Y9.8579
G01 X18.8348 Y9.9280
G01 X19.0366 Y9.9785
G01 X19.2423 Y10.0090
G01 X19.4500 Y10.0192
G01 X19.6577 Y10.0090
G01 X19.8634 Y9.9785
G01 X20.0652 Y9.9280
G01 X20.2610 Y9.8579
G01 X20.4490 Y9.7690
G01 X20.6274 Y9.6621
G01 X20.7944 Y9.5382
G01 X20.9485 Y9.3985
G01 X21.0882 Y9.2444
G01 X21.2121 Y9.0774
G01 X21.3190 Y8.8990
G01 X21.4079 Y8.7110
G01 X21.4780 Y8.5152
G01 X21.5285 Y8.3134
G01 X21.5590 Y8.1077
G01 X21.5692 Y7.9000
G01 X21.5583 Y7.6865
G00 Z2.0000
M05
G00 Z2.0000
G00 Z2.00


