(G-code generated by FlatCAM Evo vUnstable - Version Date: 2023/6/31)

(Name: Toolhead PCB-B_Cu.gbr_iso_combined_cnc)
(Type: G-code from Geometry)
(Units: MM)

(Created on Thursday, 25 September 2025 at 23:28)

(This preprocessor is the default preprocessor.)
(It is made to work with MACH3 compatible motion controllers.)

(TOOL DIAMETER: 0.1247 mm)
(Feedrate_XY: 100.0 mm/min)
(Feedrate_Z: 50.0 mm/min)
(Feedrate rapids 1500.0 mm/min)

(Z_Cut: -0.07 mm)
(Z_Move: 2.0 mm)
(Z Start: None mm)
(Z End: 2.0 mm)
(X,Y End: None mm)
(Steps per circle: 16)
(Preprocessor Geometry: default)

(X range:    0.4088 ...   36.6621  mm)
(Y range:    5.8388 ...   28.6614  mm)

(Spindle Speed: 0.0 RPM)
G21
G90
G94

G01 F100.00
G00 Z2.0000

M03
G4 P1.0
G01 F100.00
G00 X2.6065 Y12.6423
G01 F50.00
G01 Z-0.0700
G01 F100.00
G01 X2.7342 Y12.6296
G01 X2.8556 Y12.5930
G01 X2.9199 Y12.5626
G01 X3.0252 Y12.4920
G01 X3.1150 Y12.4025
G01 X3.1574 Y12.3454
G01 X3.2169 Y12.2335
G01 X3.2546 Y12.1092
G01 X3.2673 Y11.9831
G01 X3.2638 Y11.9120
G01 X3.2388 Y11.7877
G01 X3.1891 Y11.6678
G01 X3.1189 Y11.5622
G01 X3.0711 Y11.5095
G01 X2.9730 Y11.4293
G01 X2.8878 Y11.3819
G01 X7.3053 Y6.9644
G01 X12.0147 Y6.9644
G01 X16.6062 Y11.5558
G01 X16.6589 Y11.5910
G01 X16.7179 Y11.6033
G01 X21.7582 Y11.6034
G01 X21.8054 Y11.5964
G01 X21.8731 Y11.5558
G01 X25.9675 Y7.4614
G01 X29.3995 Y7.4614
G01 X29.9786 Y8.0405
G01 X29.9786 Y9.5817
G01 X29.5227 Y10.0377
G01 X28.0624 Y10.0389
G01 X27.9677 Y10.0627
G01 X27.9165 Y10.0903
G01 X27.8714 Y10.1270
G01 X27.8303 Y10.1765
G01 X27.8027 Y10.2277
G01 X27.7789 Y10.3224
G01 X27.7789 Y11.5776
G01 X27.8027 Y11.6723
G01 X27.8303 Y11.7235
G01 X27.8691 Y11.7709
G01 X27.9455 Y11.8268
G01 X27.9993 Y11.8489
G01 X28.0563 Y11.8605
G01 X29.5900 Y11.8623
G01 X29.6777 Y11.8497
G01 X29.7635 Y11.8097
G01 X29.8314 Y11.7482
G01 X29.8786 Y11.6695
G01 X29.9008 Y11.5806
G01 X29.9023 Y10.3469
G01 X29.8889 Y10.2593
G01 X29.8470 Y10.1727
G01 X30.2579 Y9.7616
G01 X30.2842 Y9.7256
G01 X30.3008 Y9.6777
G01 X30.3008 Y7.9446
G01 X30.2842 Y7.8967
G01 X30.2558 Y7.8584
G01 X29.5805 Y7.1831
G01 X29.5433 Y7.1558
G01 X29.4984 Y7.1397
G01 X25.8656 Y7.1404
G01 X25.8237 Y7.1558
G01 X25.7854 Y7.1842
G01 X21.6910 Y11.2786
G01 X16.7883 Y11.2786
G01 X12.1968 Y6.6872
G01 X12.1558 Y6.6574
G01 X12.0820 Y6.6396
G01 X7.2093 Y6.6422
G01 X7.1614 Y6.6588
G01 X7.1232 Y6.6872
G01 X2.4927 Y11.3177
G01 X2.0519 Y11.3177
G01 X1.9870 Y11.3212
G01 X1.8657 Y11.3454
G01 X1.7987 Y11.3693
G01 X1.6870 Y11.4293
G01 X1.5889 Y11.5095
G01 X1.5411 Y11.5622
G01 X1.4709 Y11.6678
G01 X1.4212 Y11.7877
G01 X1.3958 Y11.9151
G01 X1.3956 Y12.0419
G01 X1.4204 Y12.1693
G01 X1.4443 Y12.2363
G01 X1.5043 Y12.3480
G01 X1.5866 Y12.4484
G01 X1.6845 Y12.5290
G01 X1.7428 Y12.5641
G01 X1.8598 Y12.6129
G01 X1.9258 Y12.6296
G01 X2.0535 Y12.6423
G01 X2.6065 Y12.6423
G00 Z2.0000
G00 X2.6090 Y12.7421
G01 F50.00
G01 Z-0.0700
G01 F100.00
G01 X2.7458 Y12.7288
G01 X2.8338 Y12.7068
G01 X2.9643 Y12.6521
G01 X3.0822 Y12.5740
G01 X3.1494 Y12.5131
G01 X3.2387 Y12.4034
G01 X3.2807 Y12.3321
G01 X3.3343 Y12.2012
G01 X3.3538 Y12.1208
G01 X3.3671 Y11.9800
G01 X3.3538 Y11.8392
G01 X3.3318 Y11.7512
G01 X3.2807 Y11.6279
G01 X3.2341 Y11.5501
G01 X3.1439 Y11.4411
G01 X3.0492 Y11.3615
G01 X5.5386 Y8.8722
G01 X5.4759 Y8.9678
G01 X5.4287 Y9.0802
G01 X5.4090 Y9.1586
G01 X5.3977 Y9.2760
G01 X5.4002 Y12.6570
G01 X5.4287 Y12.7998
G01 X5.4723 Y12.9051
G01 X5.5093 Y12.9680
G01 X5.5889 Y13.0655
G01 X5.8013 Y13.2780
G01 X5.6726 Y13.2525
G01 X5.5900 Y13.2479
G01 X5.5074 Y13.2525
G01 X5.3688 Y13.2807
G01 X5.2984 Y13.3059
G01 X5.1826 Y13.3665
G01 X4.3682 Y13.7178
G01 X3.3199 Y13.7178
G01 X3.2771 Y13.6207
G01 X3.2387 Y13.5566
G01 X3.1439 Y13.4411
G01 X3.0217 Y13.3421
G01 X2.9571 Y13.3043
G01 X2.8338 Y13.2532
G01 X2.7458 Y13.2312
G01 X2.6090 Y13.2179
G01 X2.0510 Y13.2179
G01 X1.9142 Y13.2312
G01 X1.8262 Y13.2532
G01 X1.6888 Y13.3118
G01 X1.5715 Y13.3909
G01 X1.4659 Y13.4965
G01 X1.3829 Y13.6207
G01 X1.3282 Y13.7512
G01 X1.2975 Y13.8974
G01 X1.2931 Y13.9880
G01 X1.3075 Y14.1287
G01 X1.3480 Y14.2642
G01 X1.3868 Y14.3462
G01 X1.4659 Y14.4635
G01 X1.5715 Y14.5691
G01 X1.6888 Y14.6482
G01 X1.7708 Y14.6870
G01 X1.9142 Y14.7288
G01 X2.0510 Y14.7421
G01 X2.6090 Y14.7421
G01 X2.7458 Y14.7288
G01 X2.8338 Y14.7068
G01 X2.9039 Y14.6809
G01 X3.0217 Y14.6179
G01 X3.1439 Y14.5189
G01 X3.2387 Y14.4034
G01 X3.2771 Y14.3393
G01 X3.3199 Y14.2422
G01 X4.3633 Y14.2422
G01 X5.2379 Y14.6857
G01 X5.3612 Y14.7368
G01 X5.4492 Y14.7588
G01 X5.5900 Y14.7721
G01 X5.6726 Y14.7675
G01 X5.8056 Y14.7409
G01 X5.3589 Y15.1876
G01 X5.3131 Y15.2392
G01 X5.2596 Y15.3176
G01 X2.9809 Y15.3176
G01 X2.8966 Y15.2759
G01 X2.8186 Y15.2486
G01 X2.6876 Y15.2225
G01 X2.6090 Y15.2179
G01 X2.0470 Y15.2181
G01 X1.9724 Y15.2225
G01 X1.8414 Y15.2486
G01 X1.7561 Y15.2791
G01 X1.6316 Y15.3463
G01 X1.5219 Y15.4356
G01 X1.4610 Y15.5028
G01 X1.3829 Y15.6207
G01 X1.3282 Y15.7512
G01 X1.2975 Y15.8974
G01 X1.2931 Y15.9880
G01 X1.3075 Y16.1287
G01 X1.3480 Y16.2642
G01 X1.4171 Y16.3967
G01 X1.4711 Y16.4695
G01 X1.5715 Y16.5691
G01 X1.6957 Y16.6521
G01 X1.8338 Y16.7093
G01 X1.9724 Y16.7375
G01 X2.6797 Y16.7384
G01 X2.8262 Y16.7093
G01 X2.9809 Y16.6424
G01 X5.8678 Y16.6407
G01 X5.8678 Y18.3376
G01 X5.8774 Y18.4218
G01 X5.9086 Y18.5119
G01 X4.9055 Y17.5089
G01 X4.8080 Y17.4293
G01 X4.6935 Y17.3681
G01 X4.5692 Y17.3304
G01 X4.4440 Y17.3177
G01 X3.2236 Y17.3176
G01 X3.1772 Y17.2831
G01 X3.1053 Y17.2464
G01 X3.0354 Y17.2258
G01 X2.9590 Y17.2179
G01 X1.6725 Y17.2193
G01 X1.5778 Y17.2381
G01 X1.4695 Y17.2919
G01 X1.4136 Y17.3386
G01 X1.3623 Y17.4010
G01 X1.3243 Y17.4723
G01 X1.2994 Y17.5574
G01 X1.2929 Y17.6300
G01 X1.2929 Y18.3300
G01 X1.2994 Y18.4026
G01 X1.3416 Y18.5243
G01 X1.4194 Y18.6269
G01 X1.4760 Y18.6727
G01 X1.5400 Y18.7075
G01 X1.6646 Y18.7401
G01 X2.9630 Y18.7419
G01 X3.0354 Y18.7342
G01 X3.1053 Y18.7136
G01 X3.1772 Y18.6769
G01 X3.2236 Y18.6424
G01 X4.1656 Y18.6424
G01 X5.0558 Y19.5325
G01 X5.0891 Y19.6289
G01 X5.1563 Y19.7534
G01 X5.2456 Y19.8631
G01 X5.3065 Y19.9191
G01 X5.4379 Y20.0057
G01 X5.5058 Y20.0370
G01 X5.6336 Y20.0757
G01 X5.7900 Y20.0921
G01 X5.9545 Y20.0737
G01 X5.9164 Y20.1320
G01 X5.8880 Y20.1991
G01 X5.8678 Y20.3224
G01 X5.8678 Y24.0100
G01 X5.8757 Y24.0904
G01 X5.8991 Y24.1678
G01 X5.9372 Y24.2390
G01 X5.9885 Y24.3015
G01 X8.3785 Y26.6915
G01 X8.4688 Y26.7596
G01 X8.5580 Y26.7966
G01 X8.6700 Y26.8122
G01 X16.5204 Y26.8102
G01 X16.6378 Y26.7809
G01 X16.7415 Y26.7187
G01 X17.3900 Y26.0730
G01 X18.0785 Y26.7587
G01 X18.1822 Y26.8209
G01 X18.2996 Y26.8502
G01 X23.6240 Y26.8522
G01 X23.7004 Y26.8443
G01 X23.7703 Y26.8237
G01 X23.8423 Y26.7870
G01 X23.8875 Y26.7535
G01 X25.2570 Y25.3857
G01 X25.3028 Y25.3290
G01 X25.3376 Y25.2650
G01 X25.3702 Y25.1404
G01 X25.3722 Y12.5008
G01 X27.7399 Y10.1331
G01 X27.6956 Y10.2304
G01 X27.6781 Y10.3420
G01 X27.6799 Y11.5904
G01 X27.7064 Y11.7003
G01 X27.7473 Y11.7790
G01 X27.8225 Y11.8634
G01 X27.9044 Y11.9178
G01 X27.3496 Y11.9198
G01 X27.2397 Y11.9463
G01 X27.1610 Y11.9872
G01 X27.0985 Y12.0385
G01 X26.3520 Y12.7853
G01 X26.2854 Y12.8767
G01 X26.2464 Y12.9828
G01 X26.2368 Y13.0710
G01 X26.2368 Y15.9950
G01 X26.2545 Y16.1107
G01 X26.3062 Y16.2201
G01 X26.3575 Y16.2825
G01 X27.2375 Y17.1597
G01 X27.3339 Y17.2186
G01 X27.4186 Y17.2453
G01 X27.4950 Y17.2532
G01 X27.7235 Y17.2532
G01 X28.8056 Y18.3353
G01 X28.8652 Y18.3838
G01 X28.9365 Y18.4219
G01 X29.0138 Y18.4453
G01 X29.0903 Y18.4532
G01 X31.3553 Y18.4532
G01 X33.3728 Y20.4707
G01 X33.3728 Y22.5134
G01 X33.2404 Y22.5582
G01 X33.0727 Y22.6485
G01 X32.9869 Y22.7128
G01 X32.8526 Y22.8479
G01 X32.7463 Y23.0060
G01 X32.6999 Y23.1027
G01 X32.6441 Y23.2848
G01 X32.6272 Y23.3987
G01 X32.6272 Y23.5813
G01 X32.6423 Y23.6875
G01 X32.6971 Y23.8699
G01 X32.7424 Y23.9671
G01 X32.8477 Y24.1258
G01 X32.9193 Y24.2057
G01 X32.9992 Y24.2773
G01 X33.1510 Y24.3787
G01 X33.2477 Y24.4251
G01 X33.3412 Y24.4585
G01 X33.4375 Y24.4827
G01 X33.5437 Y24.4978
G01 X34.0263 Y24.4978
G01 X34.1325 Y24.4827
G01 X34.2364 Y24.4560
G01 X34.3296 Y24.4218
G01 X34.4906 Y24.3358
G01 X34.5771 Y24.2724
G01 X34.6507 Y24.2057
G01 X34.7223 Y24.1258
G01 X34.8237 Y23.9740
G01 X34.8701 Y23.8773
G01 X34.9057 Y23.7761
G01 X34.9422 Y23.5892
G01 X34.9422 Y23.3908
G01 X34.9035 Y23.1962
G01 X34.8276 Y23.0129
G01 X34.7174 Y22.8479
G01 X34.5771 Y22.7076
G01 X34.4121 Y22.5974
G01 X34.3223 Y22.5549
G01 X34.1972 Y22.5134
G01 X34.1972 Y20.3040
G01 X35.2376 Y21.3444
G01 X35.2376 Y24.2756
G01 X34.5354 Y24.9779
G01 X33.0025 Y24.9793
G01 X32.8773 Y25.0093
G01 X32.7736 Y25.0714
G01 X32.7164 Y25.1286
G01 X32.6716 Y25.1957
G01 X32.6406 Y25.2704
G01 X32.6258 Y25.3417
G01 X32.6229 Y26.2154
G01 X31.5016 Y27.3366
G01 X5.7234 Y27.3366
G01 X4.5421 Y26.1554
G01 X4.5421 Y25.3300
G01 X4.5356 Y25.2574
G01 X4.5107 Y25.1723
G01 X4.4727 Y25.1010
G01 X4.4214 Y25.0386
G01 X4.3590 Y24.9873
G01 X4.2496 Y24.9356
G01 X4.1380 Y24.9181
G01 X2.6300 Y24.9179
G01 X2.5028 Y24.9381
G01 X2.4357 Y24.9666
G01 X2.3686 Y25.0114
G01 X2.3114 Y25.0686
G01 X2.2630 Y25.1428
G01 X2.2276 Y25.2418
G01 X2.2179 Y25.3260
G01 X2.2193 Y26.5625
G01 X2.2493 Y26.6877
G01 X2.3114 Y26.7914
G01 X2.3686 Y26.8486
G01 X2.4357 Y26.8934
G01 X2.5104 Y26.9244
G01 X2.5817 Y26.9392
G01 X3.4554 Y26.9421
G01 X4.9835 Y28.4701
G01 X5.0877 Y28.5540
G01 X5.1439 Y28.5867
G01 X5.2492 Y28.6303
G01 X5.3276 Y28.6500
G01 X5.4490 Y28.6614
G01 X31.8488 Y28.6572
G01 X31.9606 Y28.6350
G01 X32.0295 Y28.6109
G01 X32.1373 Y28.5540
G01 X32.2022 Y28.5058
G01 X33.7096 Y27.0021
G01 X34.5754 Y27.0001
G01 X34.6927 Y26.9707
G01 X34.7964 Y26.9086
G01 X34.8777 Y26.8190
G01 X34.9294 Y26.7096
G01 X34.9457 Y26.6225
G01 X34.9471 Y26.4396
G01 X36.3711 Y25.0155
G01 X36.4550 Y24.9113
G01 X36.5087 Y24.8107
G01 X36.5313 Y24.7498
G01 X36.5510 Y24.6714
G01 X36.5624 Y24.5500
G01 X36.5624 Y21.0700
G01 X36.5582 Y20.9972
G01 X36.5360 Y20.8854
G01 X36.4841 Y20.7578
G01 X36.4169 Y20.6561
G01 X36.3684 Y20.6016
G01 X32.3884 Y16.6216
G01 X32.3063 Y16.5526
G01 X34.0501 Y16.5526
G01 X34.2236 Y16.6594
G01 X34.3639 Y16.7256
G01 X34.5175 Y16.7805
G01 X34.6836 Y16.8215
G01 X34.8371 Y16.8441
G01 X34.9920 Y16.8519
G01 X35.1629 Y16.8441
G01 X35.3320 Y16.8184
G01 X35.4825 Y16.7805
G01 X35.6286 Y16.7285
G01 X35.7835 Y16.6558
G01 X35.9234 Y16.5720
G01 X36.0544 Y16.4748
G01 X36.1753 Y16.3653
G01 X36.2897 Y16.2382
G01 X36.3820 Y16.1134
G01 X36.4619 Y15.9804
G01 X36.5324 Y15.8333
G01 X36.5905 Y15.6725
G01 X36.6284 Y15.5220
G01 X36.6541 Y15.3529
G01 X36.6621 Y15.1900
G01 X36.6541 Y15.0271
G01 X36.6302 Y14.8657
G01 X36.5905 Y14.7075
G01 X36.5356 Y14.5539
G01 X36.4658 Y14.4065
G01 X36.3774 Y14.2601
G01 X36.2848 Y14.1356
G01 X36.1808 Y14.0205
G01 X36.0605 Y13.9104
G01 X35.9234 Y13.8080
G01 X35.7835 Y13.7241
G01 X35.6361 Y13.6544
G01 X35.4748 Y13.5973
G01 X35.3243 Y13.5598
G01 X35.1708 Y13.5369
G01 X35.0000 Y13.5279
G01 X34.8292 Y13.5369
G01 X34.6757 Y13.5598
G01 X34.5252 Y13.5973
G01 X34.3639 Y13.6544
G01 X34.2165 Y13.7241
G01 X34.0766 Y13.8080
G01 X33.9395 Y13.9104
G01 X33.8192 Y14.0205
G01 X33.7152 Y14.1356
G01 X33.6468 Y14.2274
G01 X29.8900 Y14.2279
G01 X29.7780 Y14.2435
G01 X29.6888 Y14.2805
G01 X29.5931 Y14.3544
G01 X29.5266 Y14.4457
G01 X29.4844 Y14.5674
G01 X29.4779 Y14.6400
G01 X29.4779 Y16.1431
G01 X29.1724 Y15.8375
G01 X29.2142 Y15.7197
G01 X29.2398 Y15.6167
G01 X29.2565 Y15.5039
G01 X29.2621 Y15.3900
G01 X29.2571 Y15.2840
G01 X29.2398 Y15.1633
G01 X29.2096 Y15.0451
G01 X29.1736 Y14.9453
G01 X29.1249 Y14.8422
G01 X29.0663 Y14.7444
G01 X29.0032 Y14.6590
G01 X28.8874 Y14.5369
G01 X28.8874 Y14.3019
G01 X28.9959 Y14.1934
G01 X31.7840 Y14.1934
G01 X31.9298 Y14.1797
G01 X32.0201 Y14.1570
G01 X32.0926 Y14.1303
G01 X32.2147 Y14.0650
G01 X32.3380 Y13.9656
G01 X34.4515 Y11.8521
G01 X35.8394 Y11.8477
G01 X36.0223 Y11.8103
G01 X36.1729 Y11.7480
G01 X36.2567 Y11.6984
G01 X36.3950 Y11.5850
G01 X36.5126 Y11.4400
G01 X36.5895 Y11.2963
G01 X36.6203 Y11.2123
G01 X36.6567 Y11.0373
G01 X36.6621 Y10.9400
G01 X36.6621 Y9.4360
G01 X36.6446 Y9.2621
G01 X36.5955 Y9.0984
G01 X36.5544 Y9.0100
G01 X36.5038 Y8.9268
G01 X36.4004 Y8.8008
G01 X36.3286 Y8.7349
G01 X36.2500 Y8.6774
G01 X36.1063 Y8.6005
G01 X36.0148 Y8.5672
G01 X35.9201 Y8.5441
G01 X35.7500 Y8.5279
G01 X34.2420 Y8.5281
G01 X34.1527 Y8.5333
G01 X33.9929 Y8.5650
G01 X33.8200 Y8.6356
G01 X33.6714 Y8.7349
G01 X33.5400 Y8.8676
G01 X33.4874 Y8.9400
G01 X33.4105 Y9.0837
G01 X33.3572 Y9.2543
G01 X33.3379 Y9.4360
G01 X33.3379 Y10.7385
G01 X31.4578 Y12.6186
G01 X30.1027 Y12.6186
G01 X30.6097 Y12.1088
G01 X30.6581 Y12.0345
G01 X30.6953 Y11.9277
G01 X30.7032 Y11.8473
G01 X30.7032 Y10.4490
G01 X31.0156 Y10.1325
G01 X31.0729 Y10.0350
G01 X31.1022 Y9.9176
G01 X31.1040 Y7.7371
G01 X31.0963 Y7.6646
G01 X31.0729 Y7.5873
G01 X31.0348 Y7.5160
G01 X30.9890 Y7.4593
G01 X29.9836 Y6.4537
G01 X29.9173 Y6.4010
G01 X29.8222 Y6.3560
G01 X29.6950 Y6.3358
G01 X25.6720 Y6.3358
G01 X25.5916 Y6.3437
G01 X25.5142 Y6.3671
G01 X25.4430 Y6.4052
G01 X25.3805 Y6.4565
G01 X21.3592 Y10.4778
G01 X20.4808 Y10.4778
G01 X20.5871 Y10.4273
G01 X20.7901 Y10.3056
G01 X20.9802 Y10.1646
G01 X21.1556 Y10.0056
G01 X21.3146 Y9.8302
G01 X21.4556 Y9.6401
G01 X21.5773 Y9.4371
G01 X21.6785 Y9.2231
G01 X21.7582 Y9.0002
G01 X21.8158 Y8.7706
G01 X21.8505 Y8.5364
G01 X21.8621 Y8.3000
G01 X21.8505 Y8.0636
G01 X21.8158 Y7.8294
G01 X21.7582 Y7.5998
G01 X21.6785 Y7.3769
G01 X21.5773 Y7.1629
G01 X21.4556 Y6.9599
G01 X21.3146 Y6.7698
G01 X21.1556 Y6.5944
G01 X20.9802 Y6.4354
G01 X20.7901 Y6.2944
G01 X20.5871 Y6.1727
G01 X20.3803 Y6.0747
G01 X20.1502 Y5.9918
G01 X19.9283 Y5.9360
G01 X19.6785 Y5.8989
G01 X19.4500 Y5.8879
G01 X19.2136 Y5.8995
G01 X18.9794 Y5.9342
G01 X18.7498 Y5.9918
G01 X18.5197 Y6.0747
G01 X18.3129 Y6.1727
G01 X18.1099 Y6.2944
G01 X17.9137 Y6.4406
G01 X17.7444 Y6.5944
G01 X17.5854 Y6.7698
G01 X17.4401 Y6.9666
G01 X17.3227 Y7.1629
G01 X17.2215 Y7.3769
G01 X17.1418 Y7.5998
G01 X17.0860 Y7.8217
G01 X17.0489 Y8.0715
G01 X17.0379 Y8.3000
G01 X17.0489 Y8.5285
G01 X17.0842 Y8.7706
G01 X17.1418 Y9.0002
G01 X17.2186 Y9.2157
G01 X17.3266 Y9.4440
G01 X17.4444 Y9.6401
G01 X17.5805 Y9.8240
G01 X17.7501 Y10.0111
G01 X17.9198 Y10.1646
G01 X18.1099 Y10.3056
G01 X18.3129 Y10.4273
G01 X18.4192 Y10.4778
G01 X17.1200 Y10.4778
G01 X12.6017 Y5.9595
G01 X12.5325 Y5.9040
G01 X12.4375 Y5.8590
G01 X12.3102 Y5.8388
G01 X4.0590 Y5.8388
G01 X3.9708 Y5.8484
G01 X3.8647 Y5.8874
G01 X3.7703 Y5.9567
G01 X2.5091 Y7.2179
G01 X2.0470 Y7.2181
G01 X1.9724 Y7.2225
G01 X1.8414 Y7.2486
G01 X1.7561 Y7.2791
G01 X1.6316 Y7.3463
G01 X1.5655 Y7.3961
G01 X1.4711 Y7.4905
G01 X1.3829 Y7.6207
G01 X1.3257 Y7.7588
G01 X1.2966 Y7.9053
G01 X1.2966 Y8.0547
G01 X1.3257 Y8.2012
G01 X1.3829 Y8.3393
G01 X1.4659 Y8.4635
G01 X1.5655 Y8.5639
G01 X1.6888 Y8.6482
G01 X1.7708 Y8.6870
G01 X1.9063 Y8.7275
G01 X2.0510 Y8.7421
G01 X2.6876 Y8.7375
G01 X2.7614 Y8.7257
G01 X2.8892 Y8.6870
G01 X3.0349 Y8.6091
G01 X3.1439 Y8.5189
G01 X3.2387 Y8.4034
G01 X3.3091 Y8.2716
G01 X3.3507 Y8.1364
G01 X3.3640 Y8.0468
G01 X3.3625 Y7.8974
G01 X3.3343 Y7.7588
G01 X3.2754 Y7.6176
G01 X4.2298 Y6.6632
G01 X7.0060 Y6.6632
G01 X2.4514 Y11.2179
G01 X1.9882 Y11.2210
G01 X1.8338 Y11.2507
G01 X1.7029 Y11.3043
G01 X1.6251 Y11.3509
G01 X1.5161 Y11.4411
G01 X1.4259 Y11.5501
G01 X1.3793 Y11.6279
G01 X1.3236 Y11.7664
G01 X1.2966 Y11.9053
G01 X1.2966 Y12.0547
G01 X1.3236 Y12.1936
G01 X1.3541 Y12.2789
G01 X1.4213 Y12.4034
G01 X1.5161 Y12.5189
G01 X1.6251 Y12.6091
G01 X1.6957 Y12.6521
G01 X1.8262 Y12.7068
G01 X1.9063 Y12.7275
G01 X2.0510 Y12.7421
G01 X2.6090 Y12.7421
G00 Z2.0000
G00 X2.6065 Y14.6423
G01 F50.00
G01 Z-0.0700
G01 F100.00
G01 X2.7342 Y14.6296
G01 X2.8556 Y14.5930
G01 X2.9199 Y14.5626
G01 X3.0252 Y14.4920
G01 X3.1150 Y14.4025
G01 X3.1574 Y14.3454
G01 X3.2169 Y14.2335
G01 X3.2464 Y14.1424
G01 X4.3869 Y14.1424
G01 X5.3365 Y14.6219
G01 X5.4007 Y14.6446
G01 X5.5251 Y14.6692
G01 X5.6519 Y14.6694
G01 X5.7192 Y14.6596
G01 X5.8435 Y14.6219
G01 X5.9580 Y14.5607
G01 X6.0584 Y14.4784
G01 X6.1407 Y14.3780
G01 X6.2019 Y14.2635
G01 X6.2396 Y14.1392
G01 X6.2523 Y14.0100
G01 X6.2396 Y13.8808
G01 X6.2229 Y13.8148
G01 X6.1741 Y13.6978
G01 X6.1039 Y13.5922
G01 X6.0561 Y13.5395
G01 X5.9580 Y13.4593
G01 X5.8463 Y13.3993
G01 X5.7793 Y13.3754
G01 X5.6549 Y13.3508
G01 X5.5220 Y13.3512
G01 X5.4578 Y13.3610
G01 X5.3394 Y13.3970
G01 X5.2270 Y13.4562
G01 X4.3888 Y13.8176
G01 X3.2464 Y13.8176
G01 X3.2169 Y13.7265
G01 X3.1574 Y13.6146
G01 X3.1150 Y13.5575
G01 X3.0275 Y13.4700
G01 X2.9704 Y13.4276
G01 X2.8585 Y13.3681
G01 X2.7943 Y13.3454
G01 X2.6730 Y13.3212
G01 X1.9870 Y13.3212
G01 X1.8657 Y13.3454
G01 X1.8015 Y13.3681
G01 X1.7401 Y13.3974
G01 X1.6348 Y13.4680
G01 X1.5430 Y13.5598
G01 X1.4709 Y13.6678
G01 X1.4212 Y13.7877
G01 X1.3958 Y13.9151
G01 X1.3958 Y14.0449
G01 X1.4212 Y14.1723
G01 X1.4709 Y14.2922
G01 X1.5430 Y14.4002
G01 X1.6325 Y14.4900
G01 X1.6896 Y14.5324
G01 X1.8015 Y14.5919
G01 X1.9228 Y14.6290
G01 X2.0535 Y14.6423
G01 X2.6065 Y14.6423
G00 Z2.0000
G00 X2.6081 Y16.6423
G01 F50.00
G01 Z-0.0700
G01 F100.00
G01 X2.7312 Y16.6301
G01 X2.7973 Y16.6138
G01 X2.8613 Y16.5907
G01 X2.9533 Y16.5426
G01 X5.8300 Y16.5426
G01 X5.9399 Y16.5318
G01 X5.9675 Y16.5594
G01 X5.9675 Y18.3337
G01 X5.9742 Y18.3976
G01 X6.0030 Y18.4782
G01 X6.0405 Y18.5342
G01 X6.5285 Y19.0241
G01 X6.5285 Y19.6359
G01 X6.0385 Y20.1281
G01 X5.9913 Y20.2068
G01 X5.9690 Y20.2957
G01 X5.9675 Y24.0100
G01 X5.9802 Y24.0978
G01 X6.0059 Y24.1600
G01 X6.0590 Y24.2310
G01 X8.4490 Y26.6210
G01 X8.5254 Y26.6770
G01 X8.6061 Y26.7058
G01 X8.6700 Y26.7125
G01 X16.5106 Y26.7110
G01 X16.5996 Y26.6887
G01 X16.6805 Y26.6395
G01 X17.3900 Y25.9319
G01 X18.1395 Y26.6795
G01 X18.2204 Y26.7287
G01 X18.3063 Y26.7506
G01 X23.6200 Y26.7525
G01 X23.7107 Y26.7390
G01 X23.7700 Y26.7141
G01 X23.8399 Y26.6620
G01 X25.1820 Y25.3199
G01 X25.2198 Y25.2736
G01 X25.2474 Y25.2224
G01 X25.2710 Y25.1306
G01 X25.2725 Y12.4594
G01 X28.4131 Y9.3188
G01 X28.5150 Y9.3453
G01 X28.6885 Y9.3623
G01 X28.9915 Y9.3623
G01 X29.1680 Y9.3448
G01 X29.2577 Y9.3221
G01 X29.4201 Y9.2546
G01 X29.4994 Y9.2068
G01 X29.6329 Y9.0972
G01 X29.7502 Y8.9543
G01 X29.8317 Y8.8019
G01 X29.8639 Y8.7119
G01 X29.8976 Y8.5425
G01 X29.9023 Y8.4500
G01 X29.8853 Y8.2750
G01 X29.8631 Y8.1852
G01 X29.7931 Y8.0173
G01 X29.6971 Y7.8736
G01 X29.6351 Y7.8049
G01 X29.5664 Y7.7429
G01 X29.4227 Y7.6469
G01 X29.2519 Y7.5761
G01 X29.0764 Y7.5418
G01 X28.5975 Y7.5424
G01 X28.4281 Y7.5761
G01 X28.3409 Y7.6071
G01 X28.2573 Y7.6469
G01 X28.1136 Y7.7429
G01 X27.9847 Y7.8712
G01 X27.8869 Y8.0173
G01 X27.8179 Y8.1823
G01 X27.7947 Y8.2750
G01 X27.7777 Y8.4500
G01 X27.7952 Y8.6280
G01 X27.8471 Y8.7991
G01 X27.9163 Y8.9318
G01 X24.7390 Y12.1090
G01 X24.6985 Y12.1590
G01 X24.6619 Y12.2364
G01 X24.6475 Y12.3300
G01 X24.6475 Y24.9706
G01 X23.4906 Y26.1275
G01 X18.4694 Y26.1275
G01 X17.7425 Y25.4006
G01 X17.7425 Y25.3541
G01 X17.8484 Y25.2684
G01 X17.9324 Y25.1654
G01 X17.9919 Y25.0535
G01 X18.0301 Y24.9262
G01 X18.0423 Y24.8031
G01 X18.0392 Y24.7351
G01 X18.0290 Y24.6678
G01 X17.9926 Y24.5483
G01 X17.9926 Y22.9447
G01 X18.0833 Y22.8511
G01 X18.1386 Y22.7769
G01 X18.1860 Y22.6973
G01 X18.2521 Y22.5377
G01 X18.2882 Y22.3564
G01 X18.2882 Y22.1836
G01 X18.2748 Y22.0920
G01 X18.2521 Y22.0023
G01 X18.1846 Y21.8399
G01 X18.0871 Y21.6936
G01 X18.0229 Y21.6228
G01 X17.8894 Y21.5132
G01 X17.8073 Y21.4640
G01 X17.6448 Y21.3969
G01 X17.4725 Y21.3624
G01 X17.2906 Y21.3620
G01 X17.1181 Y21.3961
G01 X17.0281 Y21.4283
G01 X16.8706 Y21.5132
G01 X16.7349 Y21.6249
G01 X16.6214 Y21.7631
G01 X16.5371 Y21.9209
G01 X16.4859 Y22.0890
G01 X16.4718 Y22.1836
G01 X16.4720 Y22.3594
G01 X16.5061 Y22.5319
G01 X16.5371 Y22.6191
G01 X16.6198 Y22.7743
G01 X16.6747 Y22.8488
G01 X16.7371 Y22.9172
G01 X16.8674 Y23.0244
G01 X16.8674 Y24.3806
G01 X16.7945 Y24.4905
G01 X16.7670 Y24.5494
G01 X16.7310 Y24.6678
G01 X16.7177 Y24.8000
G01 X16.7304 Y24.9292
G01 X16.7681 Y25.0535
G01 X16.8310 Y25.1705
G01 X16.9139 Y25.2705
G01 X16.9622 Y25.3139
G01 X17.0591 Y25.3790
G01 X16.3506 Y26.0875
G01 X8.7994 Y26.0875
G01 X6.5925 Y23.8806
G01 X6.5925 Y20.4558
G01 X7.0630 Y19.9852
G01 X7.1008 Y19.9389
G01 X7.1308 Y19.8821
G01 X7.1475 Y19.8263
G01 X7.1535 Y19.7669
G01 X7.1535 Y18.8931
G01 X7.1475 Y18.8337
G01 X7.1308 Y18.7779
G01 X7.0825 Y18.6964
G01 X6.5925 Y18.2042
G01 X6.5910 Y16.3994
G01 X6.5698 Y16.3133
G01 X6.5398 Y16.2564
G01 X6.3818 Y16.0899
G01 X6.3901 Y16.0321
G01 X6.3926 Y15.8862
G01 X7.6464 Y14.6323
G01 X8.1165 Y14.6323
G01 X8.2412 Y14.6201
G01 X8.3713 Y14.5807
G01 X8.4804 Y14.5224
G01 X8.5352 Y14.4820
G01 X8.6270 Y14.3902
G01 X8.7005 Y14.2795
G01 X8.7280 Y14.2206
G01 X8.7640 Y14.1022
G01 X8.7773 Y13.9700
G01 X8.7640 Y13.8378
G01 X8.7280 Y13.7194
G01 X8.7005 Y13.6605
G01 X8.6270 Y13.5498
G01 X8.5328 Y13.4561
G01 X8.4804 Y13.4176
G01 X8.3713 Y13.3593
G01 X8.2412 Y13.3199
G01 X8.1165 Y13.3077
G01 X7.5633 Y13.3077
G01 X6.6226 Y12.3670
G01 X6.6226 Y9.5130
G01 X7.5061 Y8.6295
G01 X8.1165 Y8.6323
G01 X8.2442 Y8.6196
G01 X8.3656 Y8.5830
G01 X8.4299 Y8.5526
G01 X8.5352 Y8.4820
G01 X8.6270 Y8.3902
G01 X8.7005 Y8.2795
G01 X8.7280 Y8.2206
G01 X8.7640 Y8.1022
G01 X8.7825 Y7.9700
G01 X8.7640 Y7.8378
G01 X8.7280 Y7.7194
G01 X8.7005 Y7.6605
G01 X8.6270 Y7.5498
G01 X8.5328 Y7.4561
G01 X8.4804 Y7.4176
G01 X8.3713 Y7.3593
G01 X8.3043 Y7.3354
G01 X8.1769 Y7.3106
G01 X7.5001 Y7.3108
G01 X7.3757 Y7.3354
G01 X7.3115 Y7.3581
G01 X7.0600 Y7.5006
G01 X6.9722 Y7.5722
G01 X5.6611 Y8.8833
G01 X5.6232 Y8.9255
G01 X5.5653 Y9.0121
G01 X5.5208 Y9.1196
G01 X5.5005 Y9.2218
G01 X5.4974 Y9.2800
G01 X5.4974 Y12.6000
G01 X5.5089 Y12.7127
G01 X5.5391 Y12.8124
G01 X5.5625 Y12.8625
G01 X5.6271 Y12.9592
G01 X6.6759 Y14.0116
G01 X5.4311 Y15.2564
G01 X5.3622 Y15.3406
G01 X5.3198 Y15.4174
G01 X2.9533 Y15.4174
G01 X2.8613 Y15.3693
G01 X2.8002 Y15.3471
G01 X2.6699 Y15.3208
G01 X2.0535 Y15.3177
G01 X1.9258 Y15.3304
G01 X1.8044 Y15.3670
G01 X1.7401 Y15.3974
G01 X1.6348 Y15.4680
G01 X1.5430 Y15.5598
G01 X1.4709 Y15.6678
G01 X1.4212 Y15.7877
G01 X1.3958 Y15.9151
G01 X1.3958 Y16.0449
G01 X1.4212 Y16.1723
G01 X1.4709 Y16.2922
G01 X1.5430 Y16.4002
G01 X1.6325 Y16.4900
G01 X1.6896 Y16.5324
G01 X1.8015 Y16.5919
G01 X1.9228 Y16.6290
G01 X2.0535 Y16.6423
G01 X2.6081 Y16.6423
G00 Z2.0000
G00 X3.0129 Y17.3231
G01 F50.00
G01 Z-0.0700
G01 F100.00
G01 X2.9550 Y17.3177
G01 X1.7019 Y17.3177
G01 X1.6114 Y17.3321
G01 X1.5578 Y17.3545
G01 X1.5093 Y17.3867
G01 X1.4636 Y17.4318
G01 X1.4282 Y17.4855
G01 X1.3993 Y17.5661
G01 X1.3927 Y17.6269
G01 X1.3942 Y18.3606
G01 X1.4164 Y18.4495
G01 X1.4617 Y18.5257
G01 X1.5068 Y18.5715
G01 X1.5605 Y18.6068
G01 X1.6411 Y18.6357
G01 X1.7050 Y18.6423
G01 X2.9581 Y18.6423
G01 X3.0159 Y18.6363
G01 X3.0745 Y18.6186
G01 X3.1285 Y18.5897
G01 X3.1835 Y18.5426
G01 X4.2070 Y18.5426
G01 X5.1459 Y19.4815
G01 X5.1770 Y19.5806
G01 X5.2045 Y19.6395
G01 X5.2761 Y19.7478
G01 X5.3698 Y19.8420
G01 X5.4778 Y19.9141
G01 X5.5977 Y19.9638
G01 X5.7220 Y19.9888
G01 X5.8519 Y19.9894
G01 X5.9222 Y19.9790
G01 X6.0435 Y19.9419
G01 X6.1580 Y19.8807
G01 X6.2584 Y19.7984
G01 X6.3390 Y19.7005
G01 X6.3755 Y19.6395
G01 X6.4238 Y19.5223
G01 X6.4401 Y19.4562
G01 X6.4523 Y19.3300
G01 X6.4401 Y19.2038
G01 X6.4238 Y19.1377
G01 X6.3755 Y19.0205
G01 X6.3390 Y18.9595
G01 X6.2584 Y18.8616
G01 X6.1580 Y18.7793
G01 X6.0435 Y18.7181
G01 X5.9415 Y18.6859
G01 X4.8378 Y17.5822
G01 X4.7551 Y17.5140
G01 X4.6524 Y17.4591
G01 X4.5527 Y17.4289
G01 X4.4921 Y17.4199
G01 X3.1835 Y17.4174
G01 X3.1022 Y17.3545
G01 X3.0129 Y17.3231
G00 Z2.0000
G00 X0.5100 Y20.9016
G01 F50.00
G01 Z-0.0700
G01 F100.00
G01 X0.5336 Y20.9934
G01 X0.5612 Y21.0446
G01 X0.5990 Y21.0909
G01 X2.4563 Y22.9482
G01 X2.3871 Y23.0809
G01 X2.3352 Y23.2520
G01 X2.3177 Y23.4300
G01 X2.3347 Y23.6050
G01 X2.3579 Y23.6977
G01 X2.4269 Y23.8627
G01 X2.5247 Y24.0088
G01 X2.6512 Y24.1353
G01 X2.7257 Y24.1902
G01 X2.8781 Y24.2717
G01 X3.0520 Y24.3248
G01 X3.2285 Y24.3423
G01 X3.6194 Y24.3380
G01 X3.7948 Y24.3031
G01 X3.9601 Y24.2346
G01 X4.1088 Y24.1353
G01 X4.2353 Y24.0088
G01 X4.3346 Y23.8601
G01 X4.4021 Y23.6977
G01 X4.4253 Y23.6050
G01 X4.4423 Y23.4269
G01 X4.4248 Y23.2520
G01 X4.3729 Y23.0809
G01 X4.2886 Y22.9231
G01 X4.1772 Y22.7871
G01 X4.1064 Y22.7229
G01 X3.9601 Y22.6254
G01 X3.7977 Y22.5579
G01 X3.7080 Y22.5352
G01 X3.5315 Y22.5177
G01 X3.2285 Y22.5177
G01 X3.0550 Y22.5347
G01 X2.9531 Y22.5612
G01 X1.1335 Y20.7416
G01 X1.1335 Y11.6184
G01 X2.1096 Y10.6423
G01 X2.6081 Y10.6423
G01 X2.7312 Y10.6301
G01 X2.7973 Y10.6138
G01 X2.9145 Y10.5655
G01 X2.9755 Y10.5290
G01 X3.0734 Y10.4484
G01 X3.1557 Y10.3480
G01 X3.2180 Y10.2306
G01 X3.2540 Y10.1122
G01 X3.2642 Y10.0449
G01 X3.2673 Y9.9769
G01 X3.2551 Y9.8538
G01 X3.2169 Y9.7265
G01 X3.1876 Y9.6651
G01 X3.1189 Y9.5622
G01 X3.0252 Y9.4680
G01 X2.9704 Y9.4276
G01 X2.8613 Y9.3693
G01 X2.7342 Y9.3304
G01 X2.6050 Y9.3177
G01 X2.0535 Y9.3177
G01 X1.9288 Y9.3299
G01 X1.8598 Y9.3471
G01 X1.7428 Y9.3959
G01 X1.6845 Y9.4310
G01 X1.5889 Y9.5095
G01 X1.5411 Y9.5622
G01 X1.4695 Y9.6705
G01 X1.4212 Y9.7877
G01 X1.3958 Y9.9151
G01 X1.3958 Y10.0449
G01 X1.4204 Y10.1693
G01 X1.4695 Y10.2895
G01 X1.5110 Y10.3571
G01 X0.5990 Y11.2691
G01 X0.5454 Y11.3417
G01 X0.5145 Y11.4280
G01 X0.5085 Y11.4890
G01 X0.5100 Y20.9016
G00 Z2.0000
G00 X0.4108 Y20.9114
G01 F50.00
G01 Z-0.0700
G01 F100.00
G01 X0.4434 Y21.0360
G01 X0.4782 Y21.1000
G01 X0.5267 Y21.1596
G01 X2.3316 Y22.9646
G01 X2.2615 Y23.1362
G01 X2.2237 Y23.3229
G01 X2.2181 Y23.4380
G01 X2.2373 Y23.6275
G01 X2.2949 Y23.8173
G01 X2.3842 Y23.9856
G01 X2.4528 Y24.0781
G01 X2.5879 Y24.2124
G01 X2.6744 Y24.2758
G01 X2.8354 Y24.3618
G01 X2.9362 Y24.3985
G01 X3.0325 Y24.4227
G01 X3.2260 Y24.4421
G01 X3.6292 Y24.4372
G01 X3.8238 Y24.3985
G01 X4.0071 Y24.3226
G01 X4.1721 Y24.2124
G01 X4.3124 Y24.0721
G01 X4.4226 Y23.9071
G01 X4.4960 Y23.7314
G01 X4.5240 Y23.6196
G01 X4.5372 Y23.5292
G01 X4.5419 Y23.4220
G01 X4.5227 Y23.2325
G01 X4.4651 Y23.0427
G01 X4.3715 Y22.8677
G01 X4.2512 Y22.7201
G01 X4.1658 Y22.6427
G01 X4.0071 Y22.5374
G01 X3.8314 Y22.4640
G01 X3.7275 Y22.4373
G01 X3.5380 Y22.4181
G01 X3.2260 Y22.4179
G01 X3.1229 Y22.4237
G01 X2.9826 Y22.4496
G01 X1.2332 Y20.7002
G01 X1.2332 Y11.6598
G01 X2.1509 Y10.7421
G01 X2.6130 Y10.7419
G01 X2.7458 Y10.7288
G01 X2.8262 Y10.7093
G01 X2.9643 Y10.6521
G01 X3.0822 Y10.5740
G01 X3.1494 Y10.5131
G01 X3.2429 Y10.3967
G01 X3.3059 Y10.2789
G01 X3.3318 Y10.2088
G01 X3.3634 Y10.0547
G01 X3.3669 Y9.9720
G01 X3.3538 Y9.8392
G01 X3.3091 Y9.6884
G01 X3.2732 Y9.6138
G01 X3.1990 Y9.5028
G01 X3.0885 Y9.3909
G01 X3.0217 Y9.3421
G01 X2.9039 Y9.2791
G01 X2.7537 Y9.2325
G01 X2.6050 Y9.2179
G01 X2.0510 Y9.2179
G01 X1.9142 Y9.2312
G01 X1.8262 Y9.2532
G01 X1.6957 Y9.3079
G01 X1.6251 Y9.3509
G01 X1.5219 Y9.4356
G01 X1.4610 Y9.5028
G01 X1.3829 Y9.6207
G01 X1.3282 Y9.7512
G01 X1.3062 Y9.8392
G01 X1.2929 Y9.9800
G01 X1.3062 Y10.1208
G01 X1.3282 Y10.2088
G01 X1.3846 Y10.3424
G01 X0.5240 Y11.2033
G01 X0.4574 Y11.2947
G01 X0.4167 Y11.4086
G01 X0.4088 Y11.4890
G01 X0.4108 Y20.9114
G00 Z2.0000
G00 X5.0921 Y28.4339
G01 F50.00
G01 Z-0.0700
G01 F100.00
G01 X5.1838 Y28.4952
G01 X5.2828 Y28.5364
G01 X5.3423 Y28.5513
G01 X5.4490 Y28.5616
G01 X31.8281 Y28.5591
G01 X31.8887 Y28.5501
G01 X31.9913 Y28.5188
G01 X32.0860 Y28.4684
G01 X32.1352 Y28.4319
G01 X33.6683 Y26.9023
G01 X34.5626 Y26.9011
G01 X34.6286 Y26.8879
G01 X34.7059 Y26.8513
G01 X34.7783 Y26.7857
G01 X34.8105 Y26.7372
G01 X34.8339 Y26.6807
G01 X34.8473 Y26.5931
G01 X34.8473 Y26.3974
G01 X36.2989 Y24.9467
G01 X36.3368 Y24.9045
G01 X36.3947 Y24.8179
G01 X36.4384 Y24.7133
G01 X36.4595 Y24.6082
G01 X36.4626 Y24.5500
G01 X36.4626 Y21.0700
G01 X36.4518 Y20.9602
G01 X36.4185 Y20.8519
G01 X36.3678 Y20.7574
G01 X36.2978 Y20.6722
G01 X32.3178 Y16.6922
G01 X32.2326 Y16.6222
G01 X32.1825 Y16.5925
G01 X32.0833 Y16.5516
G01 X32.0267 Y16.5377
G01 X31.9231 Y16.5275
G01 X29.7212 Y16.5274
G01 X29.0523 Y15.8585
G01 X29.1166 Y15.6984
G01 X29.1419 Y15.5973
G01 X29.1569 Y15.4972
G01 X29.1623 Y15.3869
G01 X29.1425 Y15.1858
G01 X29.1166 Y15.0816
G01 X29.0826 Y14.9863
G01 X29.0354 Y14.8865
G01 X28.9833 Y14.7998
G01 X28.9212 Y14.7161
G01 X28.7877 Y14.5811
G01 X28.7877 Y14.2606
G01 X28.9546 Y14.0937
G01 X31.7840 Y14.0937
G01 X31.9151 Y14.0810
G01 X31.9865 Y14.0631
G01 X32.0500 Y14.0401
G01 X32.1635 Y13.9794
G01 X32.2692 Y13.8933
G01 X34.4102 Y11.7523
G01 X35.8296 Y11.7484
G01 X35.9887 Y11.7164
G01 X36.1302 Y11.6578
G01 X36.2013 Y11.6154
G01 X36.3244 Y11.5144
G01 X36.4271 Y11.3887
G01 X36.4993 Y11.2537
G01 X36.5264 Y11.1787
G01 X36.5584 Y11.0196
G01 X36.5587 Y9.3634
G01 X36.5264 Y9.2013
G01 X36.4993 Y9.1263
G01 X36.4271 Y8.9913
G01 X36.3244 Y8.8656
G01 X36.1987 Y8.7629
G01 X36.0637 Y8.6907
G01 X35.9887 Y8.6636
G01 X35.8296 Y8.6316
G01 X34.1734 Y8.6313
G01 X34.0113 Y8.6636
G01 X33.8698 Y8.7222
G01 X33.7987 Y8.7646
G01 X33.6756 Y8.8656
G01 X33.5746 Y8.9887
G01 X33.4995 Y9.1291
G01 X33.4533 Y9.2815
G01 X33.4377 Y9.4400
G01 X33.4377 Y10.7798
G01 X31.4992 Y12.7183
G01 X28.6683 Y12.7184
G01 X28.5993 Y12.7220
G01 X28.4731 Y12.7471
G01 X28.3456 Y12.7995
G01 X28.2852 Y12.8360
G01 X28.1835 Y12.9197
G01 X27.6127 Y13.4906
G01 X27.5300 Y13.5912
G01 X27.4935 Y13.6516
G01 X27.4419 Y13.7762
G01 X27.4156 Y13.9084
G01 X27.4123 Y14.5811
G01 X27.2808 Y14.7137
G01 X27.2167 Y14.7998
G01 X27.1631 Y14.8892
G01 X27.1198 Y14.9807
G01 X27.0826 Y15.0846
G01 X27.0431 Y15.2828
G01 X27.0377 Y15.3869
G01 X27.0428 Y15.4941
G01 X27.0581 Y15.5973
G01 X27.0844 Y15.7013
G01 X27.1617 Y15.8881
G01 X27.2167 Y15.9802
G01 X27.2788 Y16.0639
G01 X27.3488 Y16.1412
G01 X27.4261 Y16.2112
G01 X27.5098 Y16.2733
G01 X27.6019 Y16.3283
G01 X27.6935 Y16.3715
G01 X27.7946 Y16.4074
G01 X27.8958 Y16.4325
G01 X28.0526 Y16.4501
G01 X29.0914 Y17.4889
G01 X29.1731 Y17.5560
G01 X29.2229 Y17.5862
G01 X29.3278 Y17.6292
G01 X29.4300 Y17.6495
G01 X29.4866 Y17.6526
G01 X31.6870 Y17.6526
G01 X35.3374 Y21.3030
G01 X35.3374 Y24.3170
G01 X34.5740 Y25.0803
G01 X33.0319 Y25.0777
G01 X32.9741 Y25.0837
G01 X32.9183 Y25.1003
G01 X32.8368 Y25.1485
G01 X32.7936 Y25.1918
G01 X32.7595 Y25.2428
G01 X32.7361 Y25.2993
G01 X32.7242 Y25.3594
G01 X32.7227 Y26.2567
G01 X31.5430 Y27.4364
G01 X5.6820 Y27.4364
G01 X4.4423 Y26.1967
G01 X4.4408 Y25.2994
G01 X4.4289 Y25.2393
G01 X4.4040 Y25.1801
G01 X4.3695 Y25.1295
G01 X4.3060 Y25.0721
G01 X4.2207 Y25.0311
G01 X4.1315 Y25.0177
G01 X2.6300 Y25.0177
G01 X2.5364 Y25.0321
G01 X2.4828 Y25.0545
G01 X2.4318 Y25.0885
G01 X2.3885 Y25.1318
G01 X2.3532 Y25.1855
G01 X2.3243 Y25.2661
G01 X2.3177 Y25.3285
G01 X2.3189 Y26.5576
G01 X2.3414 Y26.6495
G01 X2.3885 Y26.7282
G01 X2.4318 Y26.7715
G01 X2.4828 Y26.8055
G01 X2.5393 Y26.8289
G01 X2.5994 Y26.8408
G01 X3.4967 Y26.8423
G01 X5.0921 Y28.4339
G00 Z2.0000
G00 X11.3667 Y20.8377
G01 F50.00
G01 Z-0.0700
G01 F100.00
G01 X11.3436 Y20.6830
G01 X11.3049 Y20.5283
G01 X11.2512 Y20.3782
G01 X11.1830 Y20.2341
G01 X11.1010 Y20.0973
G01 X11.0060 Y19.9692
G01 X10.8989 Y19.8511
G01 X10.7808 Y19.7440
G01 X10.6527 Y19.6490
G01 X10.5159 Y19.5670
G01 X10.3718 Y19.4988
G01 X10.2217 Y19.4451
G01 X10.0670 Y19.4064
G01 X9.9093 Y19.3830
G01 X9.7500 Y19.3751
G01 X9.5907 Y19.3830
G01 X9.4330 Y19.4064
G01 X9.2783 Y19.4451
G01 X9.1282 Y19.4988
G01 X8.9841 Y19.5670
G01 X8.8473 Y19.6490
G01 X8.7192 Y19.7440
G01 X8.6011 Y19.8511
G01 X8.4940 Y19.9692
G01 X8.3990 Y20.0973
G01 X8.3170 Y20.2341
G01 X8.2488 Y20.3782
G01 X8.1951 Y20.5283
G01 X8.1564 Y20.6830
G01 X8.1330 Y20.8407
G01 X8.1251 Y21.0000
G01 X8.1330 Y21.1593
G01 X8.1564 Y21.3170
G01 X8.1951 Y21.4717
G01 X8.2488 Y21.6218
G01 X8.3170 Y21.7659
G01 X8.3990 Y21.9027
G01 X8.4940 Y22.0308
G01 X8.6011 Y22.1489
G01 X8.7192 Y22.2560
G01 X8.8473 Y22.3510
G01 X8.9841 Y22.4330
G01 X9.1282 Y22.5012
G01 X9.2783 Y22.5549
G01 X9.4330 Y22.5936
G01 X9.5907 Y22.6170
G01 X9.7500 Y22.6249
G01 X9.9093 Y22.6170
G01 X10.0670 Y22.5936
G01 X10.2217 Y22.5549
G01 X10.3718 Y22.5012
G01 X10.5159 Y22.4330
G01 X10.6527 Y22.3510
G01 X10.7808 Y22.2560
G01 X10.8989 Y22.1489
G01 X11.0060 Y22.0308
G01 X11.1010 Y21.9027
G01 X11.1830 Y21.7659
G01 X11.2512 Y21.6218
G01 X11.3049 Y21.4717
G01 X11.3436 Y21.3170
G01 X11.3670 Y21.1593
G01 X11.3749 Y21.0000
G01 X11.3667 Y20.8377
G00 Z2.0000
G00 X11.4653 Y20.8231
G01 F50.00
G01 Z-0.0700
G01 F100.00
G01 X11.4415 Y20.6635
G01 X11.4003 Y20.4994
G01 X11.3433 Y20.3400
G01 X11.2710 Y20.1870
G01 X11.1840 Y20.0419
G01 X11.0831 Y19.9059
G01 X10.9695 Y19.7805
G01 X10.8441 Y19.6669
G01 X10.7081 Y19.5660
G01 X10.5630 Y19.4790
G01 X10.4100 Y19.4067
G01 X10.2506 Y19.3497
G01 X10.0865 Y19.3085
G01 X9.9190 Y19.2837
G01 X9.7500 Y19.2754
G01 X9.5810 Y19.2837
G01 X9.4135 Y19.3085
G01 X9.2494 Y19.3497
G01 X9.0900 Y19.4067
G01 X8.9370 Y19.4790
G01 X8.7919 Y19.5660
G01 X8.6559 Y19.6669
G01 X8.5305 Y19.7805
G01 X8.4169 Y19.9059
G01 X8.3160 Y20.0419
G01 X8.2290 Y20.1870
G01 X8.1567 Y20.3400
G01 X8.0997 Y20.4994
G01 X8.0585 Y20.6635
G01 X8.0337 Y20.8310
G01 X8.0254 Y21.0000
G01 X8.0337 Y21.1690
G01 X8.0585 Y21.3365
G01 X8.0997 Y21.5006
G01 X8.1567 Y21.6600
G01 X8.2290 Y21.8130
G01 X8.3160 Y21.9581
G01 X8.4169 Y22.0941
G01 X8.5305 Y22.2195
G01 X8.6559 Y22.3331
G01 X8.7919 Y22.4340
G01 X8.9370 Y22.5210
G01 X9.0900 Y22.5933
G01 X9.2494 Y22.6503
G01 X9.4135 Y22.6915
G01 X9.5810 Y22.7163
G01 X9.7500 Y22.7246
G01 X9.9190 Y22.7163
G01 X10.0865 Y22.6915
G01 X10.2506 Y22.6503
G01 X10.4100 Y22.5933
G01 X10.5630 Y22.5210
G01 X10.7081 Y22.4340
G01 X10.8441 Y22.3331
G01 X10.9695 Y22.2195
G01 X11.0831 Y22.0941
G01 X11.1840 Y21.9581
G01 X11.2710 Y21.8130
G01 X11.3433 Y21.6600
G01 X11.4003 Y21.5006
G01 X11.4415 Y21.3365
G01 X11.4663 Y21.1690
G01 X11.4746 Y21.0000
G01 X11.4653 Y20.8231
G00 Z2.0000
G00 X15.7480 Y19.6406
G01 F50.00
G01 Z-0.0700
G01 F100.00
G01 X15.7131 Y19.4652
G01 X15.6446 Y19.2999
G01 X15.5453 Y19.1512
G01 X15.4188 Y19.0247
G01 X15.2701 Y18.9254
G01 X15.1048 Y18.8569
G01 X14.9294 Y18.8220
G01 X14.7506 Y18.8220
G01 X14.5752 Y18.8569
G01 X14.4099 Y18.9254
G01 X14.2612 Y19.0247
G01 X14.1347 Y19.1512
G01 X14.0354 Y19.2999
G01 X13.9669 Y19.4652
G01 X13.9320 Y19.6406
G01 X13.9320 Y19.8194
G01 X13.9669 Y19.9948
G01 X14.0354 Y20.1601
G01 X14.1347 Y20.3088
G01 X14.2612 Y20.4353
G01 X14.4099 Y20.5346
G01 X14.5752 Y20.6031
G01 X14.7506 Y20.6380
G01 X14.9294 Y20.6380
G01 X15.1048 Y20.6031
G01 X15.2701 Y20.5346
G01 X15.4188 Y20.4353
G01 X15.5453 Y20.3088
G01 X15.6446 Y20.1601
G01 X15.7131 Y19.9948
G01 X15.7480 Y19.8194
G01 X15.7480 Y19.6406
G00 Z2.0000
G00 X15.8472 Y19.6308
G01 F50.00
G01 Z-0.0700
G01 F100.00
G01 X15.8085 Y19.4362
G01 X15.7326 Y19.2529
G01 X15.6224 Y19.0879
G01 X15.4821 Y18.9476
G01 X15.3171 Y18.8374
G01 X15.1338 Y18.7615
G01 X14.9392 Y18.7228
G01 X14.7408 Y18.7228
G01 X14.5462 Y18.7615
G01 X14.3629 Y18.8374
G01 X14.1979 Y18.9476
G01 X14.0576 Y19.0879
G01 X13.9474 Y19.2529
G01 X13.8715 Y19.4362
G01 X13.8328 Y19.6308
G01 X13.8328 Y19.8292
G01 X13.8715 Y20.0238
G01 X13.9474 Y20.2071
G01 X14.0576 Y20.3721
G01 X14.1979 Y20.5124
G01 X14.3629 Y20.6226
G01 X14.5462 Y20.6985
G01 X14.7408 Y20.7372
G01 X14.9392 Y20.7372
G01 X15.1338 Y20.6985
G01 X15.3171 Y20.6226
G01 X15.4821 Y20.5124
G01 X15.6224 Y20.3721
G01 X15.7326 Y20.2071
G01 X15.8085 Y20.0238
G01 X15.8472 Y19.8292
G01 X15.8472 Y19.6308
G00 Z2.0000
G00 X18.2876 Y19.6375
G01 F50.00
G01 Z-0.0700
G01 F100.00
G01 X18.2531 Y19.4652
G01 X18.1846 Y19.2999
G01 X18.0853 Y19.1512
G01 X17.9588 Y19.0247
G01 X17.8101 Y18.9254
G01 X17.6448 Y18.8569
G01 X17.4694 Y18.8220
G01 X17.2906 Y18.8220
G01 X17.1152 Y18.8569
G01 X16.9499 Y18.9254
G01 X16.8012 Y19.0247
G01 X16.6747 Y19.1512
G01 X16.5754 Y19.2999
G01 X16.5069 Y19.4652
G01 X16.4720 Y19.6406
G01 X16.4720 Y19.8194
G01 X16.5069 Y19.9948
G01 X16.5754 Y20.1601
G01 X16.6747 Y20.3088
G01 X16.8012 Y20.4353
G01 X16.9499 Y20.5346
G01 X17.1152 Y20.6031
G01 X17.2906 Y20.6380
G01 X17.4694 Y20.6380
G01 X17.6448 Y20.6031
G01 X17.8101 Y20.5346
G01 X17.9588 Y20.4353
G01 X18.0853 Y20.3088
G01 X18.1846 Y20.1601
G01 X18.2531 Y19.9948
G01 X18.2880 Y19.8194
G01 X18.2876 Y19.6375
G00 Z2.0000
G00 X18.3863 Y19.6229
G01 F50.00
G01 Z-0.0700
G01 F100.00
G01 X18.3485 Y19.4362
G01 X18.2726 Y19.2529
G01 X18.1624 Y19.0879
G01 X18.0221 Y18.9476
G01 X17.8571 Y18.8374
G01 X17.6738 Y18.7615
G01 X17.4792 Y18.7228
G01 X17.2808 Y18.7228
G01 X17.0862 Y18.7615
G01 X16.9029 Y18.8374
G01 X16.7379 Y18.9476
G01 X16.5976 Y19.0879
G01 X16.4874 Y19.2529
G01 X16.4115 Y19.4362
G01 X16.3728 Y19.6308
G01 X16.3728 Y19.8292
G01 X16.4115 Y20.0238
G01 X16.4874 Y20.2071
G01 X16.5976 Y20.3721
G01 X16.7379 Y20.5124
G01 X16.9029 Y20.6226
G01 X17.0862 Y20.6985
G01 X17.2808 Y20.7372
G01 X17.4792 Y20.7372
G01 X17.6738 Y20.6985
G01 X17.8571 Y20.6226
G01 X18.0221 Y20.5124
G01 X18.1624 Y20.3721
G01 X18.2726 Y20.2071
G01 X18.3485 Y20.0238
G01 X18.3872 Y19.8292
G01 X18.3921 Y19.7300
G01 X18.3863 Y19.6229
G00 Z2.0000
G00 X20.8276 Y19.6375
G01 F50.00
G01 Z-0.0700
G01 F100.00
G01 X20.7931 Y19.4652
G01 X20.7246 Y19.2999
G01 X20.6253 Y19.1512
G01 X20.4988 Y19.0247
G01 X20.3501 Y18.9254
G01 X20.1848 Y18.8569
G01 X20.0094 Y18.8220
G01 X19.8306 Y18.8220
G01 X19.6552 Y18.8569
G01 X19.4899 Y18.9254
G01 X19.3412 Y19.0247
G01 X19.2147 Y19.1512
G01 X19.1154 Y19.2999
G01 X19.0469 Y19.4652
G01 X19.0120 Y19.6406
G01 X19.0120 Y19.8194
G01 X19.0469 Y19.9948
G01 X19.1154 Y20.1601
G01 X19.2147 Y20.3088
G01 X19.3412 Y20.4353
G01 X19.4899 Y20.5346
G01 X19.6552 Y20.6031
G01 X19.8306 Y20.6380
G01 X20.0094 Y20.6380
G01 X20.1848 Y20.6031
G01 X20.3501 Y20.5346
G01 X20.4988 Y20.4353
G01 X20.6253 Y20.3088
G01 X20.7246 Y20.1601
G01 X20.7931 Y19.9948
G01 X20.8280 Y19.8194
G01 X20.8276 Y19.6375
G00 Z2.0000
G00 X20.9263 Y19.6229
G01 F50.00
G01 Z-0.0700
G01 F100.00
G01 X20.8885 Y19.4362
G01 X20.8126 Y19.2529
G01 X20.7024 Y19.0879
G01 X20.5621 Y18.9476
G01 X20.3971 Y18.8374
G01 X20.2138 Y18.7615
G01 X20.0192 Y18.7228
G01 X19.8208 Y18.7228
G01 X19.6262 Y18.7615
G01 X19.4429 Y18.8374
G01 X19.2779 Y18.9476
G01 X19.1376 Y19.0879
G01 X19.0274 Y19.2529
G01 X18.9515 Y19.4362
G01 X18.9128 Y19.6308
G01 X18.9128 Y19.8292
G01 X18.9515 Y20.0238
G01 X19.0274 Y20.2071
G01 X19.1376 Y20.3721
G01 X19.2779 Y20.5124
G01 X19.4429 Y20.6226
G01 X19.6262 Y20.6985
G01 X19.8208 Y20.7372
G01 X20.0192 Y20.7372
G01 X20.2138 Y20.6985
G01 X20.3971 Y20.6226
G01 X20.5621 Y20.5124
G01 X20.7024 Y20.3721
G01 X20.8126 Y20.2071
G01 X20.8885 Y20.0238
G01 X20.9272 Y19.8292
G01 X20.9321 Y19.7300
G01 X20.9263 Y19.6229
G00 Z2.0000
G00 X20.9263 Y22.1629
G01 F50.00
G01 Z-0.0700
G01 F100.00
G01 X20.8885 Y21.9762
G01 X20.8126 Y21.7929
G01 X20.7024 Y21.6279
G01 X20.5621 Y21.4876
G01 X20.3971 Y21.3774
G01 X20.2138 Y21.3015
G01 X20.0192 Y21.2628
G01 X19.8208 Y21.2628
G01 X19.6262 Y21.3015
G01 X19.4429 Y21.3774
G01 X19.2779 Y21.4876
G01 X19.1376 Y21.6279
G01 X19.0274 Y21.7929
G01 X18.9515 Y21.9762
G01 X18.9128 Y22.1708
G01 X18.9128 Y22.3692
G01 X18.9515 Y22.5638
G01 X19.0274 Y22.7471
G01 X19.1376 Y22.9121
G01 X19.2779 Y23.0524
G01 X19.4429 Y23.1626
G01 X19.6262 Y23.2385
G01 X19.8208 Y23.2772
G01 X20.0192 Y23.2772
G01 X20.2138 Y23.2385
G01 X20.3971 Y23.1626
G01 X20.5621 Y23.0524
G01 X20.7024 Y22.9121
G01 X20.8126 Y22.7471
G01 X20.8885 Y22.5638
G01 X20.9272 Y22.3692
G01 X20.9321 Y22.2700
G01 X20.9263 Y22.1629
G00 Z2.0000
G00 X20.8276 Y22.1775
G01 F50.00
G01 Z-0.0700
G01 F100.00
G01 X20.7931 Y22.0052
G01 X20.7246 Y21.8399
G01 X20.6253 Y21.6912
G01 X20.4988 Y21.5647
G01 X20.3501 Y21.4654
G01 X20.1848 Y21.3969
G01 X20.0094 Y21.3620
G01 X19.8306 Y21.3620
G01 X19.6552 Y21.3969
G01 X19.4899 Y21.4654
G01 X19.3412 Y21.5647
G01 X19.2147 Y21.6912
G01 X19.1154 Y21.8399
G01 X19.0469 Y22.0052
G01 X19.0120 Y22.1806
G01 X19.0120 Y22.3594
G01 X19.0469 Y22.5348
G01 X19.1154 Y22.7001
G01 X19.2147 Y22.8488
G01 X19.3412 Y22.9753
G01 X19.4899 Y23.0746
G01 X19.6552 Y23.1431
G01 X19.8306 Y23.1780
G01 X20.0094 Y23.1780
G01 X20.1848 Y23.1431
G01 X20.3501 Y23.0746
G01 X20.4988 Y22.9753
G01 X20.6253 Y22.8488
G01 X20.7246 Y22.7001
G01 X20.7931 Y22.5348
G01 X20.8280 Y22.3594
G01 X20.8276 Y22.1775
G00 Z2.0000
G00 X23.3676 Y22.1775
G01 F50.00
G01 Z-0.0700
G01 F100.00
G01 X23.3331 Y22.0052
G01 X23.2646 Y21.8399
G01 X23.1653 Y21.6912
G01 X23.0388 Y21.5647
G01 X22.8901 Y21.4654
G01 X22.7248 Y21.3969
G01 X22.5494 Y21.3620
G01 X22.3706 Y21.3620
G01 X22.1952 Y21.3969
G01 X22.0299 Y21.4654
G01 X21.8812 Y21.5647
G01 X21.7547 Y21.6912
G01 X21.6554 Y21.8399
G01 X21.5869 Y22.0052
G01 X21.5520 Y22.1806
G01 X21.5520 Y22.3594
G01 X21.5869 Y22.5348
G01 X21.6554 Y22.7001
G01 X21.7547 Y22.8488
G01 X21.8812 Y22.9753
G01 X22.0299 Y23.0746
G01 X22.1952 Y23.1431
G01 X22.3706 Y23.1780
G01 X22.5494 Y23.1780
G01 X22.7248 Y23.1431
G01 X22.8901 Y23.0746
G01 X23.0388 Y22.9753
G01 X23.1653 Y22.8488
G01 X23.2646 Y22.7001
G01 X23.3331 Y22.5348
G01 X23.3680 Y22.3594
G01 X23.3676 Y22.1775
G00 Z2.0000
G00 X23.4663 Y22.1629
G01 F50.00
G01 Z-0.0700
G01 F100.00
G01 X23.4285 Y21.9762
G01 X23.3526 Y21.7929
G01 X23.2424 Y21.6279
G01 X23.1021 Y21.4876
G01 X22.9371 Y21.3774
G01 X22.7538 Y21.3015
G01 X22.5592 Y21.2628
G01 X22.3608 Y21.2628
G01 X22.1662 Y21.3015
G01 X21.9829 Y21.3774
G01 X21.8179 Y21.4876
G01 X21.6776 Y21.6279
G01 X21.5674 Y21.7929
G01 X21.4915 Y21.9762
G01 X21.4528 Y22.1708
G01 X21.4528 Y22.3692
G01 X21.4915 Y22.5638
G01 X21.5674 Y22.7471
G01 X21.6776 Y22.9121
G01 X21.8179 Y23.0524
G01 X21.9829 Y23.1626
G01 X22.1662 Y23.2385
G01 X22.3608 Y23.2772
G01 X22.5592 Y23.2772
G01 X22.7538 Y23.2385
G01 X22.9371 Y23.1626
G01 X23.1021 Y23.0524
G01 X23.2424 Y22.9121
G01 X23.3526 Y22.7471
G01 X23.4285 Y22.5638
G01 X23.4672 Y22.3692
G01 X23.4721 Y22.2700
G01 X23.4663 Y22.1629
G00 Z2.0000
G00 X23.3416 Y20.7390
G01 F50.00
G01 Z-0.0700
G01 F100.00
G01 X23.3933 Y20.7190
G01 X23.4301 Y20.6889
G01 X23.4598 Y20.6420
G01 X23.4719 Y20.5880
G01 X23.4721 Y18.8760
G01 X23.4598 Y18.8180
G01 X23.4301 Y18.7711
G01 X23.3720 Y18.7302
G01 X23.3100 Y18.7179
G01 X21.6060 Y18.7179
G01 X21.5480 Y18.7302
G01 X21.5011 Y18.7599
G01 X21.4602 Y18.8180
G01 X21.4479 Y18.8800
G01 X21.4479 Y20.5840
G01 X21.4602 Y20.6420
G01 X21.4899 Y20.6889
G01 X21.5407 Y20.7265
G01 X21.6060 Y20.7421
G01 X23.3416 Y20.7390
G00 Z2.0000
G00 X23.3222 Y20.6412
G01 F50.00
G01 Z-0.0700
G01 F100.00
G01 X23.3582 Y20.6196
G01 X23.3723 Y20.5815
G01 X23.3724 Y18.8800
G01 X23.3541 Y18.8359
G01 X23.3100 Y18.8176
G01 X21.6100 Y18.8176
G01 X21.5659 Y18.8359
G01 X21.5476 Y18.8800
G01 X21.5476 Y20.5800
G01 X21.5659 Y20.6241
G01 X21.6100 Y20.6424
G01 X23.3222 Y20.6412
G00 Z2.0000
G00 X22.2548 Y16.6171
G01 F50.00
G01 Z-0.0700
G01 F100.00
G01 X22.1378 Y16.6659
G01 X22.0298 Y16.7380
G01 X21.9380 Y16.8298
G01 X21.8659 Y16.9378
G01 X21.8162 Y17.0577
G01 X21.7908 Y17.1851
G01 X21.7908 Y17.3149
G01 X21.8154 Y17.4393
G01 X21.8659 Y17.5622
G01 X21.9380 Y17.6702
G01 X22.0298 Y17.7620
G01 X22.1351 Y17.8326
G01 X22.2577 Y17.8838
G01 X22.3820 Y17.9088
G01 X22.5119 Y17.9094
G01 X22.5822 Y17.8990
G01 X22.7035 Y17.8619
G01 X22.8180 Y17.8007
G01 X22.9184 Y17.7184
G01 X22.9990 Y17.6205
G01 X23.0607 Y17.5063
G01 X23.0842 Y17.4408
G01 X23.4829 Y16.5868
G01 X23.7569 Y16.3126
G01 X23.7944 Y16.2500
G01 X23.8024 Y16.2000
G01 X23.8024 Y13.8964
G01 X23.8935 Y13.8669
G01 X24.0080 Y13.8057
G01 X24.1061 Y13.7255
G01 X24.1539 Y13.6728
G01 X24.2241 Y13.5672
G01 X24.2729 Y13.4502
G01 X24.2901 Y13.3812
G01 X24.3023 Y13.2550
G01 X24.2994 Y12.6431
G01 X24.2890 Y12.5728
G01 X24.2519 Y12.4515
G01 X24.1907 Y12.3370
G01 X24.1061 Y12.2345
G01 X24.0105 Y12.1560
G01 X23.9549 Y12.1224
G01 X23.8352 Y12.0721
G01 X23.7049 Y12.0458
G01 X23.5720 Y12.0462
G01 X23.5078 Y12.0560
G01 X23.3894 Y12.0920
G01 X23.2720 Y12.1543
G01 X23.1716 Y12.2366
G01 X23.0876 Y12.3396
G01 X23.0293 Y12.4487
G01 X23.0071 Y12.5098
G01 X22.9808 Y12.6401
G01 X22.9806 Y13.3169
G01 X22.9910 Y13.3872
G01 X23.0281 Y13.5085
G01 X23.0910 Y13.6255
G01 X23.1300 Y13.6775
G01 X23.2175 Y13.7650
G01 X23.3278 Y13.8391
G01 X23.4776 Y13.8964
G01 X23.4776 Y16.1327
G01 X23.2574 Y16.3530
G01 X22.2548 Y16.6171
G00 Z2.0000
G00 X22.1658 Y16.5430
G01 F50.00
G01 Z-0.0700
G01 F100.00
G01 X22.0266 Y16.6163
G01 X21.9111 Y16.7111
G01 X21.8163 Y16.8266
G01 X21.7459 Y16.9584
G01 X21.7025 Y17.1013
G01 X21.6879 Y17.2500
G01 X21.7025 Y17.3987
G01 X21.7459 Y17.5416
G01 X21.8163 Y17.6734
G01 X21.9111 Y17.7889
G01 X22.0266 Y17.8837
G01 X22.1584 Y17.9541
G01 X22.3013 Y17.9975
G01 X22.4500 Y18.0121
G01 X22.5987 Y17.9975
G01 X22.7416 Y17.9541
G01 X22.8162 Y17.9182
G01 X22.9335 Y17.8391
G01 X22.9944 Y17.7831
G01 X23.0837 Y17.6734
G01 X23.1509 Y17.5489
G01 X23.1773 Y17.4773
G01 X23.5658 Y16.6449
G01 X23.8427 Y16.3663
G01 X23.8748 Y16.3165
G01 X23.8971 Y16.2511
G01 X23.9022 Y13.9699
G01 X24.0062 Y13.9232
G01 X24.1235 Y13.8441
G01 X24.1844 Y13.7881
G01 X24.2737 Y13.6784
G01 X24.3157 Y13.6071
G01 X24.3693 Y13.4762
G01 X24.3888 Y13.3958
G01 X24.4021 Y13.2550
G01 X24.3990 Y12.6382
G01 X24.3857 Y12.5486
G01 X24.3470 Y12.4208
G01 X24.2737 Y12.2816
G01 X24.1789 Y12.1661
G01 X24.0634 Y12.0713
G01 X23.9316 Y12.0009
G01 X23.7808 Y11.9562
G01 X23.6480 Y11.9431
G01 X23.5732 Y11.9460
G01 X23.4188 Y11.9757
G01 X23.2738 Y12.0368
G01 X23.2101 Y12.0759
G01 X23.1069 Y12.1606
G01 X23.0063 Y12.2816
G01 X22.9330 Y12.4208
G01 X22.9086 Y12.4914
G01 X22.8825 Y12.6224
G01 X22.8810 Y13.3218
G01 X22.8943 Y13.4114
G01 X22.9330 Y13.5392
G01 X23.0063 Y13.6784
G01 X23.1011 Y13.7939
G01 X23.2166 Y13.8887
G01 X23.2807 Y13.9271
G01 X23.3778 Y13.9699
G01 X23.3778 Y16.0914
G01 X23.2059 Y16.2634
G01 X22.2364 Y16.5186
G01 X22.1658 Y16.5430
G00 Z2.0000
G00 X19.7448 Y16.6171
G01 F50.00
G01 Z-0.0700
G01 F100.00
G01 X19.6278 Y16.6659
G01 X19.5198 Y16.7380
G01 X19.4280 Y16.8298
G01 X19.3559 Y16.9378
G01 X19.3062 Y17.0577
G01 X19.2808 Y17.1851
G01 X19.2808 Y17.3149
G01 X19.3062 Y17.4423
G01 X19.3559 Y17.5622
G01 X19.4280 Y17.6702
G01 X19.5198 Y17.7620
G01 X19.6278 Y17.8341
G01 X19.7477 Y17.8838
G01 X19.8751 Y17.9092
G01 X20.0049 Y17.9092
G01 X20.1323 Y17.8838
G01 X20.2522 Y17.8341
G01 X20.3602 Y17.7620
G01 X20.4520 Y17.6702
G01 X20.5226 Y17.5649
G01 X20.9258 Y16.5370
G01 X21.7548 Y15.7080
G01 X21.7846 Y15.6670
G01 X21.8024 Y15.5932
G01 X21.8024 Y13.8964
G01 X21.8935 Y13.8669
G01 X22.0054 Y13.8074
G01 X22.0625 Y13.7650
G01 X22.1520 Y13.6752
G01 X22.2226 Y13.5699
G01 X22.2530 Y13.5056
G01 X22.2896 Y13.3842
G01 X22.3023 Y13.2581
G01 X22.3023 Y12.7019
G01 X22.2901 Y12.5788
G01 X22.2738 Y12.5127
G01 X22.2241 Y12.3928
G01 X22.1520 Y12.2848
G01 X22.0602 Y12.1930
G01 X21.9495 Y12.1195
G01 X21.8352 Y12.0721
G01 X21.7722 Y12.0560
G01 X21.6400 Y12.0427
G01 X21.5078 Y12.0560
G01 X21.3894 Y12.0920
G01 X21.3278 Y12.1209
G01 X21.2175 Y12.1950
G01 X21.1300 Y12.2825
G01 X21.0893 Y12.3370
G01 X21.0270 Y12.4544
G01 X21.0054 Y12.5157
G01 X20.9812 Y12.6370
G01 X20.9806 Y13.3169
G01 X20.9910 Y13.3872
G01 X21.0281 Y13.5085
G01 X21.0910 Y13.6255
G01 X21.1300 Y13.6775
G01 X21.2175 Y13.7650
G01 X21.3278 Y13.8391
G01 X21.4776 Y13.8964
G01 X21.4776 Y15.5259
G01 X20.6975 Y16.3060
G01 X19.7448 Y16.6171
G00 Z2.0000
G00 X19.6558 Y16.5430
G01 F50.00
G01 Z-0.0700
G01 F100.00
G01 X19.5166 Y16.6163
G01 X19.4011 Y16.7111
G01 X19.3063 Y16.8266
G01 X19.2359 Y16.9584
G01 X19.1925 Y17.1013
G01 X19.1779 Y17.2500
G01 X19.1925 Y17.3987
G01 X19.2359 Y17.5416
G01 X19.3063 Y17.6734
G01 X19.4011 Y17.7889
G01 X19.5166 Y17.8837
G01 X19.6484 Y17.9541
G01 X19.7913 Y17.9975
G01 X19.9400 Y18.0121
G01 X20.0887 Y17.9975
G01 X20.2242 Y17.9570
G01 X20.3062 Y17.9182
G01 X20.4295 Y17.8339
G01 X20.5291 Y17.7335
G01 X20.6082 Y17.6162
G01 X20.6441 Y17.5416
G01 X20.6831 Y17.4169
G01 X21.0109 Y16.5930
G01 X21.8254 Y15.7785
G01 X21.8712 Y15.7167
G01 X21.8930 Y15.6616
G01 X21.9021 Y15.5971
G01 X21.9022 Y13.9699
G01 X22.0062 Y13.9232
G01 X22.1235 Y13.8441
G01 X22.1844 Y13.7881
G01 X22.2737 Y13.6784
G01 X22.3157 Y13.6071
G01 X22.3693 Y13.4762
G01 X22.3888 Y13.3958
G01 X22.4021 Y13.2590
G01 X22.4019 Y12.6970
G01 X22.3888 Y12.5642
G01 X22.3693 Y12.4838
G01 X22.3121 Y12.3457
G01 X22.2291 Y12.2215
G01 X22.1235 Y12.1159
G01 X21.9993 Y12.0329
G01 X21.9242 Y11.9980
G01 X21.7964 Y11.9593
G01 X21.6400 Y11.9429
G01 X21.4836 Y11.9593
G01 X21.4112 Y11.9782
G01 X21.2879 Y12.0293
G01 X21.1565 Y12.1159
G01 X21.0460 Y12.2278
G01 X21.0021 Y12.2883
G01 X20.9391 Y12.4061
G01 X20.8925 Y12.5563
G01 X20.8779 Y12.7010
G01 X20.8779 Y13.2590
G01 X20.8912 Y13.3958
G01 X20.9132 Y13.4838
G01 X20.9391 Y13.5539
G01 X21.0021 Y13.6717
G01 X21.1011 Y13.7939
G01 X21.2166 Y13.8887
G01 X21.2807 Y13.9271
G01 X21.3778 Y13.9699
G01 X21.3778 Y15.4846
G01 X20.6437 Y16.2187
G01 X19.6558 Y16.5430
G00 Z2.0000
G00 X17.1294 Y16.6370
G01 F50.00
G01 Z-0.0700
G01 F100.00
G01 X17.0120 Y16.6993
G01 X16.9116 Y16.7816
G01 X16.8293 Y16.8820
G01 X16.7681 Y16.9965
G01 X16.7304 Y17.1208
G01 X16.7177 Y17.2500
G01 X16.7304 Y17.3792
G01 X16.7681 Y17.5035
G01 X16.8293 Y17.6180
G01 X16.9116 Y17.7184
G01 X17.0120 Y17.8007
G01 X17.1265 Y17.8619
G01 X17.2508 Y17.8996
G01 X17.3800 Y17.9123
G01 X17.5092 Y17.8996
G01 X17.6335 Y17.8619
G01 X17.7480 Y17.8007
G01 X17.8461 Y17.7205
G01 X17.8939 Y17.6678
G01 X17.9641 Y17.5622
G01 X18.3637 Y16.5348
G01 X19.7750 Y15.1191
G01 X19.7954 Y15.0760
G01 X19.8024 Y15.0304
G01 X19.8024 Y13.8964
G01 X19.8935 Y13.8669
G01 X20.0054 Y13.8074
G01 X20.0625 Y13.7650
G01 X20.1520 Y13.6752
G01 X20.1924 Y13.6204
G01 X20.2519 Y13.5085
G01 X20.2746 Y13.4443
G01 X20.2992 Y13.3199
G01 X20.3023 Y12.7035
G01 X20.2890 Y12.5728
G01 X20.2519 Y12.4515
G01 X20.1907 Y12.3370
G01 X20.1084 Y12.2366
G01 X20.0080 Y12.1543
G01 X19.9495 Y12.1195
G01 X19.8352 Y12.0721
G01 X19.7049 Y12.0458
G01 X19.6369 Y12.0427
G01 X19.5138 Y12.0549
G01 X19.3865 Y12.0931
G01 X19.2695 Y12.1560
G01 X19.1739 Y12.2345
G01 X19.1280 Y12.2848
G01 X19.0545 Y12.3955
G01 X19.0071 Y12.5098
G01 X18.9904 Y12.5758
G01 X18.9777 Y12.7035
G01 X18.9777 Y13.2581
G01 X18.9904 Y13.3842
G01 X19.0270 Y13.5056
G01 X19.0910 Y13.6255
G01 X19.1300 Y13.6775
G01 X19.2175 Y13.7650
G01 X19.3278 Y13.8391
G01 X19.4776 Y13.8964
G01 X19.4776 Y14.9616
G01 X18.1353 Y16.3039
G01 X17.1294 Y16.6370
G00 Z2.0000
G00 X17.0884 Y16.5459
G01 F50.00
G01 Z-0.0700
G01 F100.00
G01 X16.9566 Y16.6163
G01 X16.8411 Y16.7111
G01 X16.7463 Y16.8266
G01 X16.6759 Y16.9584
G01 X16.6325 Y17.1013
G01 X16.6179 Y17.2500
G01 X16.6325 Y17.3987
G01 X16.6759 Y17.5416
G01 X16.7463 Y17.6734
G01 X16.8411 Y17.7889
G01 X16.9566 Y17.8837
G01 X17.0884 Y17.9541
G01 X17.2313 Y17.9975
G01 X17.3800 Y18.0121
G01 X17.5287 Y17.9975
G01 X17.6716 Y17.9541
G01 X17.7967 Y17.8879
G01 X17.8695 Y17.8339
G01 X17.9691 Y17.7335
G01 X18.0482 Y17.6162
G01 X18.0841 Y17.5416
G01 X18.1232 Y17.4167
G01 X18.4489 Y16.5907
G01 X19.8580 Y15.1745
G01 X19.8909 Y15.1049
G01 X19.9021 Y15.0328
G01 X19.9022 Y13.9699
G01 X19.9993 Y13.9271
G01 X20.0699 Y13.8841
G01 X20.1731 Y13.7994
G01 X20.2340 Y13.7322
G01 X20.3082 Y13.6212
G01 X20.3441 Y13.5466
G01 X20.3857 Y13.4114
G01 X20.3990 Y13.3218
G01 X20.4021 Y12.7010
G01 X20.3975 Y12.6224
G01 X20.3714 Y12.4914
G01 X20.3157 Y12.3529
G01 X20.2691 Y12.2751
G01 X20.1789 Y12.1661
G01 X20.0634 Y12.0713
G01 X19.9921 Y12.0293
G01 X19.8688 Y11.9782
G01 X19.7147 Y11.9466
G01 X19.6320 Y11.9431
G01 X19.4992 Y11.9562
G01 X19.3484 Y12.0009
G01 X19.2101 Y12.0759
G01 X19.1069 Y12.1606
G01 X19.0509 Y12.2215
G01 X18.9643 Y12.3529
G01 X18.9330 Y12.4208
G01 X18.8943 Y12.5486
G01 X18.8779 Y12.7010
G01 X18.8779 Y13.2590
G01 X18.8912 Y13.3958
G01 X18.9132 Y13.4838
G01 X18.9391 Y13.5539
G01 X19.0021 Y13.6717
G01 X19.1011 Y13.7939
G01 X19.2166 Y13.8887
G01 X19.2807 Y13.9271
G01 X19.3778 Y13.9699
G01 X19.3778 Y14.9202
G01 X18.0813 Y16.2167
G01 X17.0884 Y16.5459
G00 Z2.0000
G00 X14.6065 Y16.6381
G01 F50.00
G01 Z-0.0700
G01 F100.00
G01 X14.4920 Y16.6993
G01 X14.3916 Y16.7816
G01 X14.3093 Y16.8820
G01 X14.2481 Y16.9965
G01 X14.2104 Y17.1208
G01 X14.1977 Y17.2500
G01 X14.2104 Y17.3792
G01 X14.2481 Y17.5035
G01 X14.3093 Y17.6180
G01 X14.3916 Y17.7184
G01 X14.4920 Y17.8007
G01 X14.6065 Y17.8619
G01 X14.7308 Y17.8996
G01 X14.8600 Y17.9123
G01 X14.9892 Y17.8996
G01 X15.1135 Y17.8619
G01 X15.2280 Y17.8007
G01 X15.3261 Y17.7205
G01 X15.3739 Y17.6678
G01 X15.4441 Y17.5622
G01 X15.4730 Y17.5006
G01 X15.5088 Y17.3830
G01 X15.8223 Y16.5119
G01 X17.7548 Y14.5794
G01 X17.7832 Y14.5411
G01 X17.8024 Y14.4661
G01 X17.8024 Y13.8964
G01 X17.8935 Y13.8669
G01 X18.0054 Y13.8074
G01 X18.0625 Y13.7650
G01 X18.1520 Y13.6752
G01 X18.1924 Y13.6204
G01 X18.2519 Y13.5085
G01 X18.2746 Y13.4443
G01 X18.2992 Y13.3199
G01 X18.3023 Y12.7035
G01 X18.2896 Y12.5758
G01 X18.2519 Y12.4515
G01 X18.1924 Y12.3396
G01 X18.1105 Y12.2389
G01 X18.0578 Y12.1911
G01 X17.9549 Y12.1224
G01 X17.8963 Y12.0943
G01 X17.7692 Y12.0554
G01 X17.6369 Y12.0427
G01 X17.5138 Y12.0549
G01 X17.4477 Y12.0712
G01 X17.3837 Y12.0943
G01 X17.2746 Y12.1526
G01 X17.1716 Y12.2366
G01 X17.1261 Y12.2872
G01 X17.0574 Y12.3901
G01 X17.0054 Y12.5157
G01 X16.9812 Y12.6370
G01 X16.9777 Y12.7050
G01 X16.9777 Y13.2581
G01 X16.9812 Y13.3230
G01 X17.0054 Y13.4443
G01 X17.0574 Y13.5699
G01 X17.1261 Y13.6728
G01 X17.1716 Y13.7234
G01 X17.2695 Y13.8040
G01 X17.3278 Y13.8391
G01 X17.4776 Y13.8964
G01 X17.4776 Y14.3973
G01 X15.5924 Y16.2824
G01 X14.7266 Y16.6014
G01 X14.6065 Y16.6381
G00 Z2.0000
G00 X14.5684 Y16.5459
G01 F50.00
G01 Z-0.0700
G01 F100.00
G01 X14.4366 Y16.6163
G01 X14.3211 Y16.7111
G01 X14.2263 Y16.8266
G01 X14.1559 Y16.9584
G01 X14.1125 Y17.1013
G01 X14.0979 Y17.2500
G01 X14.1125 Y17.3987
G01 X14.1559 Y17.5416
G01 X14.2263 Y17.6734
G01 X14.3211 Y17.7889
G01 X14.4366 Y17.8837
G01 X14.5684 Y17.9541
G01 X14.7113 Y17.9975
G01 X14.8600 Y18.0121
G01 X15.0087 Y17.9975
G01 X15.1516 Y17.9541
G01 X15.2834 Y17.8837
G01 X15.3931 Y17.7944
G01 X15.4540 Y17.7272
G01 X15.5321 Y17.6093
G01 X15.5670 Y17.5342
G01 X15.6039 Y17.4139
G01 X15.9086 Y16.5667
G01 X17.8254 Y14.6499
G01 X17.8712 Y14.5881
G01 X17.8909 Y14.5406
G01 X17.9015 Y14.4823
G01 X17.9022 Y13.9699
G01 X17.9993 Y13.9271
G01 X18.0699 Y13.8841
G01 X18.1731 Y13.7994
G01 X18.2340 Y13.7322
G01 X18.3082 Y13.6212
G01 X18.3441 Y13.5466
G01 X18.3714 Y13.4686
G01 X18.3984 Y13.3297
G01 X18.4021 Y12.7010
G01 X18.3857 Y12.5486
G01 X18.3441 Y12.4134
G01 X18.2779 Y12.2883
G01 X18.2239 Y12.2155
G01 X18.1235 Y12.1159
G01 X18.0567 Y12.0671
G01 X17.9389 Y12.0041
G01 X17.7887 Y11.9575
G01 X17.6320 Y11.9431
G01 X17.4992 Y11.9562
G01 X17.4188 Y11.9757
G01 X17.3411 Y12.0041
G01 X17.2233 Y12.0671
G01 X17.1011 Y12.1661
G01 X17.0021 Y12.2883
G01 X16.9391 Y12.4061
G01 X16.9132 Y12.4762
G01 X16.8912 Y12.5642
G01 X16.8779 Y12.7010
G01 X16.8779 Y13.2590
G01 X16.8943 Y13.4114
G01 X16.9330 Y13.5392
G01 X16.9643 Y13.6071
G01 X17.0561 Y13.7445
G01 X17.1505 Y13.8389
G01 X17.2166 Y13.8887
G01 X17.2807 Y13.9271
G01 X17.3778 Y13.9699
G01 X17.3778 Y14.3559
G01 X15.5374 Y16.1964
G01 X14.6954 Y16.5063
G01 X14.5684 Y16.5459
G00 Z2.0000
G00 X15.7480 Y22.1806
G01 F50.00
G01 Z-0.0700
G01 F100.00
G01 X15.7131 Y22.0052
G01 X15.6446 Y21.8399
G01 X15.5453 Y21.6912
G01 X15.4188 Y21.5647
G01 X15.2701 Y21.4654
G01 X15.1048 Y21.3969
G01 X14.9294 Y21.3620
G01 X14.7506 Y21.3620
G01 X14.5752 Y21.3969
G01 X14.4099 Y21.4654
G01 X14.2612 Y21.5647
G01 X14.1347 Y21.6912
G01 X14.0354 Y21.8399
G01 X13.9669 Y22.0052
G01 X13.9320 Y22.1806
G01 X13.9320 Y22.3594
G01 X13.9669 Y22.5348
G01 X14.0354 Y22.7001
G01 X14.1347 Y22.8488
G01 X14.2612 Y22.9753
G01 X14.4099 Y23.0746
G01 X14.5752 Y23.1431
G01 X14.7506 Y23.1780
G01 X14.9294 Y23.1780
G01 X15.1048 Y23.1431
G01 X15.2701 Y23.0746
G01 X15.4188 Y22.9753
G01 X15.5453 Y22.8488
G01 X15.6446 Y22.7001
G01 X15.7131 Y22.5348
G01 X15.7480 Y22.3594
G01 X15.7480 Y22.1806
G00 Z2.0000
G00 X15.8472 Y22.1708
G01 F50.00
G01 Z-0.0700
G01 F100.00
G01 X15.8085 Y21.9762
G01 X15.7326 Y21.7929
G01 X15.6224 Y21.6279
G01 X15.4821 Y21.4876
G01 X15.3171 Y21.3774
G01 X15.1338 Y21.3015
G01 X14.9392 Y21.2628
G01 X14.7408 Y21.2628
G01 X14.5462 Y21.3015
G01 X14.3629 Y21.3774
G01 X14.1979 Y21.4876
G01 X14.0576 Y21.6279
G01 X13.9474 Y21.7929
G01 X13.8715 Y21.9762
G01 X13.8328 Y22.1708
G01 X13.8328 Y22.3692
G01 X13.8715 Y22.5638
G01 X13.9474 Y22.7471
G01 X14.0576 Y22.9121
G01 X14.1979 Y23.0524
G01 X14.3629 Y23.1626
G01 X14.5462 Y23.2385
G01 X14.7408 Y23.2772
G01 X14.9392 Y23.2772
G01 X15.1338 Y23.2385
G01 X15.3171 Y23.1626
G01 X15.4821 Y23.0524
G01 X15.6224 Y22.9121
G01 X15.7326 Y22.7471
G01 X15.8085 Y22.5638
G01 X15.8472 Y22.3692
G01 X15.8472 Y22.1708
G00 Z2.0000
G00 X8.7758 Y15.5894
G01 F50.00
G01 Z-0.0700
G01 F100.00
G01 X8.7523 Y15.4977
G01 X8.7247 Y15.4465
G01 X8.6880 Y15.4014
G01 X8.6122 Y15.3445
G01 X8.5229 Y15.3131
G01 X8.4650 Y15.3077
G01 X7.2135 Y15.3077
G01 X7.1541 Y15.3137
G01 X7.0927 Y15.3327
G01 X7.0193 Y15.3767
G01 X6.9736 Y15.4218
G01 X6.9277 Y15.4977
G01 X6.9081 Y15.5621
G01 X6.9027 Y15.6200
G01 X6.9027 Y16.3215
G01 X6.9087 Y16.3809
G01 X6.9277 Y16.4423
G01 X6.9736 Y16.5182
G01 X7.0390 Y16.5779
G01 X7.0983 Y16.6097
G01 X7.1844 Y16.6308
G01 X8.4956 Y16.6308
G01 X8.5817 Y16.6097
G01 X8.6385 Y16.5797
G01 X8.7045 Y16.5205
G01 X8.7405 Y16.4672
G01 X8.7639 Y16.4107
G01 X8.7758 Y16.3506
G01 X8.7774 Y16.1324
G01 X10.3215 Y16.1324
G01 X10.3642 Y16.1262
G01 X10.3992 Y16.1117
G01 X10.4348 Y16.0848
G01 X12.9777 Y13.5420
G01 X12.9837 Y13.6659
G01 X13.0014 Y13.7245
G01 X13.0303 Y13.7785
G01 X13.0691 Y13.8259
G01 X13.1165 Y13.8647
G01 X13.1705 Y13.8936
G01 X13.2261 Y13.9107
G01 X13.2900 Y13.9173
G01 X14.0206 Y13.9158
G01 X14.1123 Y13.8923
G01 X14.1635 Y13.8647
G01 X14.2109 Y13.8259
G01 X14.2497 Y13.7785
G01 X14.2786 Y13.7245
G01 X14.2963 Y13.6659
G01 X14.3023 Y13.6065
G01 X14.3023 Y12.3535
G01 X14.2889 Y12.2643
G01 X14.2513 Y12.1841
G01 X14.2109 Y12.1341
G01 X14.1609 Y12.0937
G01 X14.0836 Y12.0571
G01 X14.0176 Y12.0439
G01 X13.2594 Y12.0442
G01 X13.1705 Y12.0664
G01 X13.0895 Y12.1155
G01 X13.0486 Y12.1568
G01 X13.0145 Y12.2078
G01 X12.9911 Y12.2643
G01 X12.9792 Y12.3244
G01 X12.9777 Y13.0827
G01 X10.2527 Y15.8076
G01 X8.7773 Y15.8076
G01 X8.7758 Y15.5894
G00 Z2.0000
G00 X6.3357 Y14.1664
G01 F50.00
G01 Z-0.0700
G01 F100.00
G01 X6.3519 Y14.0020
G01 X6.3475 Y13.9274
G01 X6.3220 Y13.7987
G01 X6.5349 Y14.0116
G01 X6.3209 Y14.2256
G01 X6.3357 Y14.1664
G00 Z2.0000
G00 X7.5570 Y12.7319
G01 F50.00
G01 Z-0.0700
G01 F100.00
G01 X8.1976 Y12.7275
G01 X8.3286 Y12.7014
G01 X8.4743 Y12.6421
G01 X8.6045 Y12.5539
G01 X8.6989 Y12.4595
G01 X8.7487 Y12.3934
G01 X8.8220 Y12.2542
G01 X8.8464 Y12.1836
G01 X8.8725 Y12.0526
G01 X8.8734 Y11.8953
G01 X8.8607 Y11.8136
G01 X8.8328 Y11.7162
G01 X14.3754 Y11.7162
G01 X14.9816 Y12.3224
G01 X14.9359 Y12.4134
G01 X14.9107 Y12.4838
G01 X14.8816 Y12.6303
G01 X14.8816 Y13.3297
G01 X14.9107 Y13.4762
G01 X14.9679 Y13.6143
G01 X15.0509 Y13.7385
G01 X15.1565 Y13.8441
G01 X15.2233 Y13.8929
G01 X15.3411 Y13.9559
G01 X15.4992 Y14.0038
G01 X15.6320 Y14.0169
G01 X15.7147 Y14.0134
G01 X15.8536 Y13.9864
G01 X15.9316 Y13.9591
G01 X16.0062 Y13.9232
G01 X16.1235 Y13.8441
G01 X16.1844 Y13.7881
G01 X16.2691 Y13.6849
G01 X16.3470 Y13.5392
G01 X16.3857 Y13.4114
G01 X16.3990 Y13.3218
G01 X16.4021 Y12.7010
G01 X16.3888 Y12.5642
G01 X16.3409 Y12.4061
G01 X16.2779 Y12.2883
G01 X16.2239 Y12.2155
G01 X16.1295 Y12.1211
G01 X16.0634 Y12.0713
G01 X15.9389 Y12.0041
G01 X15.8536 Y11.9736
G01 X15.7226 Y11.9475
G01 X15.6320 Y11.9431
G01 X15.4913 Y11.9575
G01 X15.3875 Y11.9867
G01 X14.6563 Y11.2565
G01 X14.5843 Y11.2118
G01 X14.5018 Y11.1925
G01 X8.3520 Y11.1919
G01 X8.2971 Y11.1986
G01 X8.2403 Y11.2189
G01 X8.1150 Y11.2079
G01 X7.4903 Y11.2116
G01 X7.4086 Y11.2243
G01 X7.2808 Y11.2630
G01 X7.1351 Y11.3409
G01 X7.0261 Y11.4311
G01 X6.9313 Y11.5466
G01 X6.8609 Y11.6784
G01 X6.8175 Y11.8213
G01 X6.8029 Y11.9700
G01 X6.8175 Y12.1187
G01 X6.8609 Y12.2616
G01 X6.9359 Y12.3999
G01 X7.0261 Y12.5089
G01 X7.1351 Y12.5991
G01 X7.2129 Y12.6457
G01 X7.3438 Y12.6993
G01 X7.4242 Y12.7188
G01 X7.5570 Y12.7319
G00 Z2.0000
G00 X8.1181 Y12.6323
G01 F50.00
G01 Z-0.0700
G01 F100.00
G01 X8.2412 Y12.6201
G01 X8.3073 Y12.6038
G01 X8.3713 Y12.5807
G01 X8.4804 Y12.5224
G01 X8.5855 Y12.4361
G01 X8.6640 Y12.3405
G01 X8.6991 Y12.2822
G01 X8.7280 Y12.2206
G01 X8.7640 Y12.1022
G01 X8.7773 Y11.9669
G01 X8.7651 Y11.8438
G01 X8.7488 Y11.7777
G01 X8.7257 Y11.7137
G01 X8.6744 Y11.6164
G01 X14.4167 Y11.6164
G01 X15.1097 Y12.3094
G01 X15.0574 Y12.3901
G01 X15.0281 Y12.4515
G01 X15.0054 Y12.5157
G01 X14.9812 Y12.6370
G01 X14.9808 Y13.3199
G01 X15.0062 Y13.4473
G01 X15.0559 Y13.5672
G01 X15.1280 Y13.6752
G01 X15.2175 Y13.7650
G01 X15.2746 Y13.8074
G01 X15.3837 Y13.8657
G01 X15.5138 Y13.9051
G01 X15.6369 Y13.9173
G01 X15.7049 Y13.9142
G01 X15.8293 Y13.8896
G01 X15.8935 Y13.8669
G01 X15.9549 Y13.8376
G01 X16.0578 Y13.7689
G01 X16.1539 Y13.6728
G01 X16.2226 Y13.5699
G01 X16.2519 Y13.5085
G01 X16.2746 Y13.4443
G01 X16.2992 Y13.3199
G01 X16.2988 Y12.6370
G01 X16.2746 Y12.5157
G01 X16.2519 Y12.4515
G01 X16.1924 Y12.3396
G01 X16.1500 Y12.2825
G01 X16.0602 Y12.1930
G01 X15.9549 Y12.1224
G01 X15.8906 Y12.0920
G01 X15.7722 Y12.0560
G01 X15.7019 Y12.0456
G01 X15.5751 Y12.0458
G01 X15.4507 Y12.0704
G01 X15.3635 Y12.1039
G01 X14.5977 Y11.3381
G01 X14.5489 Y11.3052
G01 X14.4999 Y11.2924
G01 X8.3560 Y11.2916
G01 X8.3060 Y11.2996
G01 X8.2589 Y11.3240
G01 X8.1165 Y11.3077
G01 X7.5635 Y11.3077
G01 X7.4358 Y11.3204
G01 X7.3144 Y11.3570
G01 X7.2501 Y11.3874
G01 X7.1448 Y11.4580
G01 X7.0530 Y11.5498
G01 X6.9809 Y11.6578
G01 X6.9312 Y11.7777
G01 X6.9058 Y11.9051
G01 X6.9058 Y12.0349
G01 X6.9312 Y12.1623
G01 X6.9809 Y12.2822
G01 X7.0530 Y12.3902
G01 X7.1425 Y12.4800
G01 X7.1996 Y12.5224
G01 X7.3115 Y12.5819
G01 X7.4328 Y12.6190
G01 X7.5635 Y12.6323
G01 X8.1181 Y12.6323
G00 Z2.0000
G00 X7.5570 Y10.7319
G01 F50.00
G01 Z-0.0700
G01 F100.00
G01 X8.1976 Y10.7275
G01 X8.3286 Y10.7014
G01 X8.4066 Y10.6741
G01 X8.4909 Y10.6324
G01 X11.4231 Y10.6324
G01 X11.5264 Y10.6714
G01 X11.6653 Y10.6984
G01 X11.7480 Y10.7019
G01 X11.8887 Y10.6875
G01 X12.0316 Y10.6441
G01 X12.1634 Y10.5737
G01 X12.2789 Y10.4789
G01 X12.3737 Y10.3634
G01 X12.4441 Y10.2316
G01 X12.4875 Y10.0887
G01 X12.5021 Y9.9400
G01 X12.4875 Y9.7913
G01 X12.4668 Y9.7112
G01 X12.4121 Y9.5807
G01 X12.3340 Y9.4628
G01 X12.2731 Y9.3956
G01 X12.1634 Y9.3063
G01 X12.0389 Y9.2391
G01 X11.9536 Y9.2086
G01 X11.8147 Y9.1816
G01 X11.6653 Y9.1816
G01 X11.5264 Y9.2086
G01 X11.4411 Y9.2391
G01 X11.3147 Y9.3076
G01 X8.4909 Y9.3076
G01 X8.3362 Y9.2407
G01 X8.1897 Y9.2116
G01 X7.5610 Y9.2079
G01 X7.4242 Y9.2212
G01 X7.3438 Y9.2407
G01 X7.2129 Y9.2943
G01 X7.1351 Y9.3409
G01 X7.0261 Y9.4311
G01 X6.9313 Y9.5466
G01 X6.8609 Y9.6784
G01 X6.8175 Y9.8213
G01 X6.8029 Y9.9700
G01 X6.8175 Y10.1187
G01 X6.8609 Y10.2616
G01 X6.9359 Y10.3999
G01 X7.0261 Y10.5089
G01 X7.1351 Y10.5991
G01 X7.2129 Y10.6457
G01 X7.3438 Y10.6993
G01 X7.4242 Y10.7188
G01 X7.5570 Y10.7319
G00 Z2.0000
G00 X8.1181 Y10.6323
G01 F50.00
G01 Z-0.0700
G01 F100.00
G01 X8.2412 Y10.6201
G01 X8.3073 Y10.6038
G01 X8.3713 Y10.5807
G01 X8.4633 Y10.5326
G01 X11.4455 Y10.5326
G01 X11.5477 Y10.5738
G01 X11.6720 Y10.5988
G01 X11.7431 Y10.6023
G01 X11.8692 Y10.5896
G01 X11.9935 Y10.5519
G01 X12.1080 Y10.4907
G01 X12.2084 Y10.4084
G01 X12.2907 Y10.3080
G01 X12.3519 Y10.1935
G01 X12.3896 Y10.0692
G01 X12.4023 Y9.9400
G01 X12.3896 Y9.8108
G01 X12.3530 Y9.6894
G01 X12.3226 Y9.6251
G01 X12.2520 Y9.5198
G01 X12.1625 Y9.4300
G01 X12.1054 Y9.3876
G01 X11.9935 Y9.3281
G01 X11.8722 Y9.2910
G01 X11.8019 Y9.2806
G01 X11.6751 Y9.2808
G01 X11.5477 Y9.3062
G01 X11.4278 Y9.3559
G01 X11.3475 Y9.4074
G01 X8.4633 Y9.4074
G01 X8.3713 Y9.3593
G01 X8.3102 Y9.3371
G01 X8.1799 Y9.3108
G01 X7.5619 Y9.3077
G01 X7.4358 Y9.3204
G01 X7.3144 Y9.3570
G01 X7.2501 Y9.3874
G01 X7.1448 Y9.4580
G01 X7.0530 Y9.5498
G01 X6.9809 Y9.6578
G01 X6.9312 Y9.7777
G01 X6.9058 Y9.9051
G01 X6.9058 Y10.0349
G01 X6.9312 Y10.1623
G01 X6.9809 Y10.2822
G01 X7.0530 Y10.3902
G01 X7.1425 Y10.4800
G01 X7.1996 Y10.5224
G01 X7.3115 Y10.5819
G01 X7.4328 Y10.6190
G01 X7.5635 Y10.6323
G01 X8.1181 Y10.6323
G00 Z2.0000
G00 X11.9734 Y7.0642
G01 F50.00
G01 Z-0.0700
G01 F100.00
G01 X16.5356 Y11.6264
G01 X16.5753 Y11.6590
G01 X16.6207 Y11.6832
G01 X16.7170 Y11.7031
G01 X21.7582 Y11.7032
G01 X21.8511 Y11.6861
G01 X21.9039 Y11.6590
G01 X21.9436 Y11.6264
G01 X26.0088 Y7.5612
G01 X28.2063 Y7.5612
G01 X28.0479 Y7.6676
G01 X27.9076 Y7.8079
G01 X27.7974 Y7.9729
G01 X27.7215 Y8.1562
G01 X27.6828 Y8.3508
G01 X27.6828 Y8.5492
G01 X27.7215 Y8.7438
G01 X27.7916 Y8.9154
G01 X24.6685 Y12.0385
G01 X24.6004 Y12.1288
G01 X24.5634 Y12.2180
G01 X24.5478 Y12.3300
G01 X24.5478 Y24.9292
G01 X23.4492 Y26.0278
G01 X18.5108 Y26.0278
G01 X17.8681 Y25.3851
G01 X17.9691 Y25.2835
G01 X18.0482 Y25.1662
G01 X18.1068 Y25.0288
G01 X18.1288 Y24.9408
G01 X18.1419 Y24.8080
G01 X18.1384 Y24.7253
G01 X18.1257 Y24.6436
G01 X18.0924 Y24.5309
G01 X18.0924 Y22.9888
G01 X18.1624 Y22.9121
G01 X18.2258 Y22.8256
G01 X18.3118 Y22.6646
G01 X18.3485 Y22.5638
G01 X18.3727 Y22.4675
G01 X18.3878 Y22.3613
G01 X18.3878 Y22.1787
G01 X18.3727 Y22.0725
G01 X18.3460 Y21.9686
G01 X18.2726 Y21.7929
G01 X18.1673 Y21.6342
G01 X18.0899 Y21.5488
G01 X17.9488 Y21.4330
G01 X17.8500 Y21.3738
G01 X17.6738 Y21.3015
G01 X17.4871 Y21.2637
G01 X17.3800 Y21.2579
G01 X17.2808 Y21.2628
G01 X17.0939 Y21.2993
G01 X16.9854 Y21.3382
G01 X16.9029 Y21.3774
G01 X16.8112 Y21.4330
G01 X16.6643 Y21.5543
G01 X16.5385 Y21.7077
G01 X16.4449 Y21.8827
G01 X16.3891 Y22.0648
G01 X16.3722 Y22.1787
G01 X16.3728 Y22.3692
G01 X16.3891 Y22.4752
G01 X16.4421 Y22.6499
G01 X16.4913 Y22.7540
G01 X16.5927 Y22.9058
G01 X16.6643 Y22.9857
G01 X16.7676 Y23.0747
G01 X16.7676 Y24.3475
G01 X16.7079 Y24.4407
G01 X16.6507 Y24.5788
G01 X16.6216 Y24.7253
G01 X16.6210 Y24.8668
G01 X16.6507 Y25.0212
G01 X16.7079 Y25.1593
G01 X16.7909 Y25.2835
G01 X16.9029 Y25.3941
G01 X16.3092 Y25.9878
G01 X8.8408 Y25.9878
G01 X6.6922 Y23.8392
G01 X6.6922 Y20.4971
G01 X7.1545 Y20.0329
G01 X7.2046 Y19.9597
G01 X7.2330 Y19.8926
G01 X7.2532 Y19.7693
G01 X7.2532 Y18.8907
G01 X7.2330 Y18.7674
G01 X7.2046 Y18.7003
G01 X7.1646 Y18.6394
G01 X6.6922 Y18.1629
G01 X6.6903 Y16.3896
G01 X6.6720 Y16.3028
G01 X6.6270 Y16.2077
G01 X6.5770 Y16.1443
G01 X6.4879 Y16.0549
G01 X6.4924 Y15.9275
G01 X6.8029 Y15.6169
G01 X6.8029 Y16.3240
G01 X6.8231 Y16.4472
G01 X6.8723 Y16.5490
G01 X6.9536 Y16.6386
G01 X7.0573 Y16.7007
G01 X7.1746 Y16.7301
G01 X8.4650 Y16.7321
G01 X8.5846 Y16.7144
G01 X8.6593 Y16.6834
G01 X8.7202 Y16.6435
G01 X8.7784 Y16.5875
G01 X8.8119 Y16.5422
G01 X8.8457 Y16.4777
G01 X8.8692 Y16.4004
G01 X8.8771 Y16.2322
G01 X10.3200 Y16.2322
G01 X10.3961 Y16.2209
G01 X10.4505 Y16.1973
G01 X10.5054 Y16.1554
G01 X12.9062 Y13.7546
G01 X12.9519 Y13.8405
G01 X13.0286 Y13.9236
G01 X13.1028 Y13.9720
G01 X13.2018 Y14.0074
G01 X13.2900 Y14.0171
G01 X14.0304 Y14.0151
G01 X14.1096 Y13.9994
G01 X14.1772 Y13.9720
G01 X14.2255 Y13.9431
G01 X14.2869 Y13.8906
G01 X14.3327 Y13.8340
G01 X14.3707 Y13.7627
G01 X14.3942 Y13.6854
G01 X14.4021 Y13.6090
G01 X14.4007 Y12.3225
G01 X14.3736 Y12.2047
G01 X14.3281 Y12.1195
G01 X14.2814 Y12.0636
G01 X14.2190 Y12.0123
G01 X14.1477 Y11.9743
G01 X14.0626 Y11.9494
G01 X13.9900 Y11.9429
G01 X13.2900 Y11.9429
G01 X13.2096 Y11.9508
G01 X13.1028 Y11.9880
G01 X13.0225 Y12.0416
G01 X12.9473 Y12.1260
G01 X12.8956 Y12.2354
G01 X12.8779 Y12.3510
G01 X12.8779 Y13.0414
G01 X10.2114 Y15.7078
G01 X8.8771 Y15.7078
G01 X8.8692 Y15.5396
G01 X8.8457 Y15.4623
G01 X8.8119 Y15.3978
G01 X8.7784 Y15.3525
G01 X8.7202 Y15.2965
G01 X8.6593 Y15.2566
G01 X8.5846 Y15.2256
G01 X8.4690 Y15.2079
G01 X7.2119 Y15.2079
G01 X7.6878 Y14.7321
G01 X8.1190 Y14.7321
G01 X8.2637 Y14.7175
G01 X8.4139 Y14.6709
G01 X8.5317 Y14.6079
G01 X8.5985 Y14.5591
G01 X8.7090 Y14.4472
G01 X8.7832 Y14.3362
G01 X8.8191 Y14.2616
G01 X8.8638 Y14.1108
G01 X8.8769 Y13.9780
G01 X8.8734 Y13.8953
G01 X8.8443 Y13.7488
G01 X8.7832 Y13.6038
G01 X8.7441 Y13.5401
G01 X8.6594 Y13.4369
G01 X8.5449 Y13.3409
G01 X8.3992 Y13.2630
G01 X8.2714 Y13.2243
G01 X8.1976 Y13.2125
G01 X7.6046 Y13.2079
G01 X6.7224 Y12.3256
G01 X6.7224 Y9.5544
G01 X7.5454 Y8.7313
G01 X8.1976 Y8.7275
G01 X8.2714 Y8.7157
G01 X8.3992 Y8.6770
G01 X8.5449 Y8.5991
G01 X8.6045 Y8.5539
G01 X8.6989 Y8.4595
G01 X8.7871 Y8.3293
G01 X8.8464 Y8.1836
G01 X8.8757 Y8.0426
G01 X8.8820 Y7.9620
G01 X8.8625 Y7.8213
G01 X8.8220 Y7.6858
G01 X8.7832 Y7.6038
G01 X8.7090 Y7.4928
G01 X8.6481 Y7.4256
G01 X8.5384 Y7.3363
G01 X8.4139 Y7.2691
G01 X8.3286 Y7.2386
G01 X8.1976 Y7.2125
G01 X8.1190 Y7.2079
G01 X7.5610 Y7.2079
G01 X7.4242 Y7.2212
G01 X7.3362 Y7.2432
G01 X7.2129 Y7.2943
G01 X6.9622 Y7.4486
G01 X7.3466 Y7.0642
G01 X11.9734 Y7.0642
G00 Z2.0000
G00 X21.7508 Y8.0703
G01 F50.00
G01 Z-0.0700
G01 F100.00
G01 X21.7179 Y7.8489
G01 X21.6636 Y7.6317
G01 X21.5874 Y7.4180
G01 X21.4893 Y7.2100
G01 X21.3726 Y7.0153
G01 X21.2355 Y6.8307
G01 X21.0851 Y6.6649
G01 X20.9193 Y6.5145
G01 X20.7347 Y6.3774
G01 X20.5400 Y6.2607
G01 X20.3320 Y6.1626
G01 X20.1212 Y6.0872
G01 X19.9041 Y6.0328
G01 X19.6767 Y5.9988
G01 X19.4500 Y5.9876
G01 X19.2233 Y5.9988
G01 X18.9959 Y6.0328
G01 X18.7788 Y6.0872
G01 X18.5680 Y6.1626
G01 X18.3600 Y6.2607
G01 X18.1653 Y6.3774
G01 X17.9855 Y6.5106
G01 X17.8149 Y6.6649
G01 X17.6625 Y6.8331
G01 X17.5291 Y7.0128
G01 X17.4093 Y7.2127
G01 X17.3137 Y7.4151
G01 X17.2372 Y7.6288
G01 X17.1821 Y7.8489
G01 X17.1492 Y8.0703
G01 X17.1377 Y8.3031
G01 X17.1488 Y8.5266
G01 X17.1816 Y8.7481
G01 X17.2382 Y8.9741
G01 X17.3137 Y9.1849
G01 X17.4107 Y9.3900
G01 X17.5291 Y9.5872
G01 X17.6625 Y9.7669
G01 X17.8149 Y9.9351
G01 X17.9855 Y10.0894
G01 X18.1653 Y10.2226
G01 X18.3600 Y10.3393
G01 X18.5651 Y10.4363
G01 X18.7759 Y10.5118
G01 X19.0631 Y10.5775
G01 X17.0787 Y10.5775
G01 X12.5312 Y6.0300
G01 X12.4575 Y5.9754
G01 X12.3682 Y5.9440
G01 X12.3102 Y5.9385
G01 X4.0590 Y5.9385
G01 X3.9980 Y5.9445
G01 X3.9117 Y5.9754
G01 X3.8391 Y6.0290
G01 X2.5504 Y7.3177
G01 X2.0535 Y7.3177
G01 X1.9288 Y7.3299
G01 X1.7987 Y7.3693
G01 X1.6896 Y7.4276
G01 X1.6348 Y7.4680
G01 X1.5430 Y7.5598
G01 X1.4695 Y7.6705
G01 X1.4420 Y7.7294
G01 X1.4060 Y7.8478
G01 X1.3927 Y7.9800
G01 X1.4049 Y8.1062
G01 X1.4212 Y8.1723
G01 X1.4695 Y8.2895
G01 X1.5043 Y8.3480
G01 X1.5845 Y8.4461
G01 X1.6348 Y8.4920
G01 X1.7401 Y8.5626
G01 X1.8044 Y8.5930
G01 X1.9228 Y8.6290
G01 X1.9931 Y8.6394
G01 X2.6065 Y8.6423
G01 X2.6730 Y8.6388
G01 X2.7943 Y8.6146
G01 X2.9172 Y8.5641
G01 X3.0252 Y8.4920
G01 X3.1189 Y8.3978
G01 X3.1905 Y8.2895
G01 X3.2180 Y8.2306
G01 X3.2540 Y8.1122
G01 X3.2673 Y7.9800
G01 X3.2546 Y7.8508
G01 X3.2169 Y7.7265
G01 X3.1490 Y7.6029
G01 X4.1884 Y6.5635
G01 X12.1808 Y6.5635
G01 X16.7283 Y11.1110
G01 X16.8047 Y11.1670
G01 X16.8853 Y11.1958
G01 X16.9492 Y11.2025
G01 X21.5315 Y11.2025
G01 X21.5910 Y11.1965
G01 X21.6496 Y11.1787
G01 X21.7036 Y11.1498
G01 X21.7499 Y11.1120
G01 X25.8014 Y7.0605
G01 X29.5656 Y7.0605
G01 X30.3795 Y7.8744
G01 X30.3795 Y9.7478
G01 X30.0495 Y10.0800
G01 X30.0140 Y10.1337
G01 X29.9845 Y10.2173
G01 X29.9785 Y10.2782
G01 X29.9785 Y11.7179
G01 X29.6789 Y12.0175
G01 X27.3900 Y12.0175
G01 X27.2993 Y12.0310
G01 X27.2400 Y12.0559
G01 X27.1701 Y12.1080
G01 X26.4075 Y12.8728
G01 X26.3592 Y12.9543
G01 X26.3425 Y13.0100
G01 X26.3365 Y13.0695
G01 X26.3365 Y15.9910
G01 X26.3500 Y16.0817
G01 X26.3749 Y16.1410
G01 X26.4270 Y16.2109
G01 X27.3007 Y17.0825
G01 X27.3766 Y17.1284
G01 X27.4410 Y17.1480
G01 X27.7648 Y17.1535
G01 X28.8744 Y18.2630
G01 X28.9206 Y18.3008
G01 X28.9719 Y18.3284
G01 X29.0333 Y18.3475
G01 X29.0942 Y18.3535
G01 X31.3967 Y18.3535
G01 X33.4725 Y20.4293
G01 X33.4725 Y22.5928
G01 X33.3702 Y22.6169
G01 X33.2859 Y22.6471
G01 X33.1256 Y22.7332
G01 X32.9921 Y22.8428
G01 X32.9317 Y22.9089
G01 X32.8290 Y23.0627
G01 X32.7629 Y23.2223
G01 X32.7409 Y23.3090
G01 X32.7227 Y23.4900
G01 X32.7274 Y23.5825
G01 X32.7611 Y23.7519
G01 X32.8304 Y23.9201
G01 X32.9317 Y24.0711
G01 X32.9921 Y24.1372
G01 X33.1256 Y24.2468
G01 X33.2859 Y24.3329
G01 X33.4600 Y24.3853
G01 X33.6335 Y24.4023
G01 X33.9350 Y24.4023
G01 X34.1130 Y24.3848
G01 X34.2869 Y24.3317
G01 X34.4393 Y24.2502
G01 X34.5138 Y24.1953
G01 X34.5822 Y24.1329
G01 X34.6918 Y23.9994
G01 X34.7779 Y23.8391
G01 X34.8089 Y23.7519
G01 X34.8426 Y23.5825
G01 X34.8430 Y23.4006
G01 X34.8089 Y23.2281
G01 X34.7767 Y23.1381
G01 X34.6936 Y22.9831
G01 X34.5822 Y22.8471
G01 X34.5114 Y22.7829
G01 X34.3651 Y22.6854
G01 X34.2027 Y22.6179
G01 X34.0975 Y22.5928
G01 X34.0975 Y20.2984
G01 X34.0915 Y20.2390
G01 X34.0748 Y20.1832
G01 X34.0245 Y20.0994
G01 X31.7470 Y17.8200
G01 X31.6971 Y17.7795
G01 X31.6168 Y17.7420
G01 X31.5276 Y17.7285
G01 X29.2237 Y17.7285
G01 X28.0925 Y16.5995
G01 X28.0166 Y16.5536
G01 X27.9522 Y16.5340
G01 X27.6284 Y16.5285
G01 X26.9615 Y15.8616
G01 X26.9615 Y13.2004
G01 X27.5194 Y12.6425
G01 X29.8083 Y12.6425
G01 X29.9019 Y12.6281
G01 X29.9793 Y12.5915
G01 X30.0282 Y12.5520
G01 X30.5130 Y12.0671
G01 X30.5680 Y11.9919
G01 X30.5968 Y11.9112
G01 X30.6035 Y11.8488
G01 X30.6035 Y10.4077
G01 X30.9335 Y10.0755
G01 X30.9807 Y9.9968
G01 X31.0030 Y9.9079
G01 X31.0045 Y7.7435
G01 X30.9985 Y7.6840
G01 X30.9818 Y7.6283
G01 X30.9335 Y7.5468
G01 X29.9148 Y6.5260
G01 X29.8423 Y6.4724
G01 X29.7560 Y6.4415
G01 X29.6950 Y6.4355
G01 X25.6720 Y6.4355
G01 X25.5842 Y6.4482
G01 X25.5220 Y6.4739
G01 X25.4510 Y6.5270
G01 X21.4006 Y10.5775
G01 X19.8369 Y10.5775
G01 X20.1241 Y10.5118
G01 X20.3349 Y10.4363
G01 X20.5427 Y10.3378
G01 X20.7347 Y10.2226
G01 X20.9169 Y10.0875
G01 X21.0851 Y9.9351
G01 X21.2394 Y9.7645
G01 X21.3726 Y9.5847
G01 X21.4893 Y9.3900
G01 X21.5863 Y9.1849
G01 X21.6628 Y8.9712
G01 X21.7179 Y8.7511
G01 X21.7512 Y8.5266
G01 X21.7624 Y8.3000
G01 X21.7508 Y8.0703
G00 Z2.0000
G00 X27.5608 Y12.7422
G01 F50.00
G01 Z-0.0700
G01 F100.00
G01 X28.2470 Y12.7422
G01 X28.1158 Y12.8464
G01 X27.5432 Y13.4190
G01 X27.4499 Y13.5318
G01 X27.4056 Y13.6046
G01 X27.3465 Y13.7472
G01 X27.3164 Y13.8986
G01 X27.3126 Y14.5369
G01 X27.1968 Y14.6590
G01 X27.1337 Y14.7444
G01 X27.0612 Y14.8711
G01 X27.0612 Y13.2418
G01 X27.5608 Y12.7422
G00 Z2.0000
G00 X29.4814 Y9.9379
G01 F50.00
G01 Z-0.0700
G01 F100.00
G01 X28.0820 Y9.9381
G01 X27.9704 Y9.9556
G01 X27.8731 Y9.9999
G01 X28.4426 Y9.4304
G01 X28.5987 Y9.4578
G01 X28.9940 Y9.4621
G01 X29.1796 Y9.4440
G01 X29.2914 Y9.4160
G01 X29.4671 Y9.3426
G01 X29.6321 Y9.2324
G01 X29.7724 Y9.0921
G01 X29.8788 Y8.9337
G01 X29.8788 Y9.5404
G01 X29.4814 Y9.9379
G00 Z2.0000
G00 X29.5789 Y16.1676
G01 F50.00
G01 Z-0.0700
G01 F100.00
G01 X29.6027 Y16.2623
G01 X29.6303 Y16.3135
G01 X29.6691 Y16.3609
G01 X29.7455 Y16.4168
G01 X29.7993 Y16.4389
G01 X29.8594 Y16.4508
G01 X34.0831 Y16.4529
G01 X34.2635 Y16.5679
G01 X34.4021 Y16.6334
G01 X34.5465 Y16.6851
G01 X34.6952 Y16.7223
G01 X34.8469 Y16.7448
G01 X35.0000 Y16.7523
G01 X35.1531 Y16.7448
G01 X35.3048 Y16.7223
G01 X35.4535 Y16.6851
G01 X35.5979 Y16.6334
G01 X35.7365 Y16.5679
G01 X35.8680 Y16.4890
G01 X35.9911 Y16.3977
G01 X36.1047 Y16.2947
G01 X36.2077 Y16.1811
G01 X36.2990 Y16.0580
G01 X36.3779 Y15.9265
G01 X36.4434 Y15.7879
G01 X36.4951 Y15.6435
G01 X36.5323 Y15.4948
G01 X36.5548 Y15.3431
G01 X36.5623 Y15.1900
G01 X36.5548 Y15.0369
G01 X36.5323 Y14.8852
G01 X36.4951 Y14.7365
G01 X36.4445 Y14.5950
G01 X36.3764 Y14.4509
G01 X36.2990 Y14.3220
G01 X36.2077 Y14.1989
G01 X36.1047 Y14.0853
G01 X35.9935 Y13.9843
G01 X35.8654 Y13.8893
G01 X35.7365 Y13.8121
G01 X35.5979 Y13.7466
G01 X35.4535 Y13.6949
G01 X35.3078 Y13.6583
G01 X35.1531 Y13.6352
G01 X35.0000 Y13.6277
G01 X34.8499 Y13.6349
G01 X34.6952 Y13.6577
G01 X34.5436 Y13.6959
G01 X34.4021 Y13.7466
G01 X34.2662 Y13.8108
G01 X34.1295 Y13.8927
G01 X34.0089 Y13.9823
G01 X33.8975 Y14.0831
G01 X33.7923 Y14.1989
G01 X33.6978 Y14.3271
G01 X29.8900 Y14.3277
G01 X29.8291 Y14.3337
G01 X29.7428 Y14.3645
G01 X29.6670 Y14.4214
G01 X29.6303 Y14.4665
G01 X29.6027 Y14.5177
G01 X29.5795 Y14.6063
G01 X29.5789 Y16.1676
G00 Z2.0000
G00 X29.9653 Y20.8231
G01 F50.00
G01 Z-0.0700
G01 F100.00
G01 X29.9415 Y20.6635
G01 X29.9003 Y20.4994
G01 X29.8433 Y20.3400
G01 X29.7710 Y20.1870
G01 X29.6840 Y20.0419
G01 X29.5831 Y19.9059
G01 X29.4695 Y19.7805
G01 X29.3441 Y19.6669
G01 X29.2081 Y19.5660
G01 X29.0630 Y19.4790
G01 X28.9100 Y19.4067
G01 X28.7506 Y19.3497
G01 X28.5865 Y19.3085
G01 X28.4190 Y19.2837
G01 X28.2500 Y19.2754
G01 X28.0810 Y19.2837
G01 X27.9135 Y19.3085
G01 X27.7494 Y19.3497
G01 X27.5900 Y19.4067
G01 X27.4370 Y19.4790
G01 X27.2919 Y19.5660
G01 X27.1559 Y19.6669
G01 X27.0305 Y19.7805
G01 X26.9169 Y19.9059
G01 X26.8160 Y20.0419
G01 X26.7290 Y20.1870
G01 X26.6567 Y20.3400
G01 X26.5997 Y20.4994
G01 X26.5585 Y20.6635
G01 X26.5337 Y20.8310
G01 X26.5254 Y21.0000
G01 X26.5337 Y21.1690
G01 X26.5585 Y21.3365
G01 X26.5997 Y21.5006
G01 X26.6567 Y21.6600
G01 X26.7290 Y21.8130
G01 X26.8160 Y21.9581
G01 X26.9169 Y22.0941
G01 X27.0305 Y22.2195
G01 X27.1559 Y22.3331
G01 X27.2919 Y22.4340
G01 X27.4370 Y22.5210
G01 X27.5900 Y22.5933
G01 X27.7494 Y22.6503
G01 X27.9135 Y22.6915
G01 X28.0810 Y22.7163
G01 X28.2500 Y22.7246
G01 X28.4190 Y22.7163
G01 X28.5865 Y22.6915
G01 X28.7506 Y22.6503
G01 X28.9100 Y22.5933
G01 X29.0630 Y22.5210
G01 X29.2081 Y22.4340
G01 X29.3441 Y22.3331
G01 X29.4695 Y22.2195
G01 X29.5831 Y22.0941
G01 X29.6840 Y21.9581
G01 X29.7710 Y21.8130
G01 X29.8433 Y21.6600
G01 X29.9003 Y21.5006
G01 X29.9415 Y21.3365
G01 X29.9663 Y21.1690
G01 X29.9746 Y21.0000
G01 X29.9653 Y20.8231
G00 Z2.0000
G00 X29.8667 Y20.8377
G01 F50.00
G01 Z-0.0700
G01 F100.00
G01 X29.8436 Y20.6830
G01 X29.8049 Y20.5283
G01 X29.7512 Y20.3782
G01 X29.6830 Y20.2341
G01 X29.6010 Y20.0973
G01 X29.5060 Y19.9692
G01 X29.3989 Y19.8511
G01 X29.2808 Y19.7440
G01 X29.1527 Y19.6490
G01 X29.0159 Y19.5670
G01 X28.8718 Y19.4988
G01 X28.7217 Y19.4451
G01 X28.5670 Y19.4064
G01 X28.4093 Y19.3830
G01 X28.2500 Y19.3751
G01 X28.0907 Y19.3830
G01 X27.9330 Y19.4064
G01 X27.7783 Y19.4451
G01 X27.6282 Y19.4988
G01 X27.4841 Y19.5670
G01 X27.3473 Y19.6490
G01 X27.2192 Y19.7440
G01 X27.1011 Y19.8511
G01 X26.9940 Y19.9692
G01 X26.8990 Y20.0973
G01 X26.8170 Y20.2341
G01 X26.7488 Y20.3782
G01 X26.6951 Y20.5283
G01 X26.6564 Y20.6830
G01 X26.6330 Y20.8407
G01 X26.6251 Y21.0000
G01 X26.6330 Y21.1593
G01 X26.6564 Y21.3170
G01 X26.6951 Y21.4717
G01 X26.7488 Y21.6218
G01 X26.8170 Y21.7659
G01 X26.8990 Y21.9027
G01 X26.9940 Y22.0308
G01 X27.1011 Y22.1489
G01 X27.2192 Y22.2560
G01 X27.3473 Y22.3510
G01 X27.4841 Y22.4330
G01 X27.6282 Y22.5012
G01 X27.7783 Y22.5549
G01 X27.9330 Y22.5936
G01 X28.0907 Y22.6170
G01 X28.2500 Y22.6249
G01 X28.4093 Y22.6170
G01 X28.5670 Y22.5936
G01 X28.7217 Y22.5549
G01 X28.8718 Y22.5012
G01 X29.0159 Y22.4330
G01 X29.1527 Y22.3510
G01 X29.2808 Y22.2560
G01 X29.3989 Y22.1489
G01 X29.5060 Y22.0308
G01 X29.6010 Y21.9027
G01 X29.6830 Y21.7659
G01 X29.7512 Y21.6218
G01 X29.8049 Y21.4717
G01 X29.8436 Y21.3170
G01 X29.8670 Y21.1593
G01 X29.8749 Y21.0000
G01 X29.8667 Y20.8377
G00 Z2.0000
M05
G00 Z2.0000
G00 Z2.00


