(G-code generated by FlatCAM Evo vUnstable - Version Date: 2023/6/31)

(Name: Toolhead PCB-PTH.drl_cnc)
(Type: G-code from Excellon)
(Units: MM)

(Created on Wednesday, 24 September 2025 at 14:53)

(This preprocessor is the default preprocessor.)
(It is made to work with MACH3 compatible motion controllers.)


(TOOLS DIAMETER: )
(Tool: 2 -> Dia: 0.75)

(FEEDRATE Z: )
(Tool: 2 -> Feedrate: 100.0)

(FEEDRATE RAPIDS: )
(Tool: 2 -> Feedrate Rapids: 1500)

(Z_CUT: )
(Tool: 2 -> Z_Cut: -2.0)

(Tools Offset: )
(Tool: 2 -> Offset Z: 0.0)

(Z_MOVE: )
(Tool: 2 -> Z_Move: 2.0)

(Z Start: None mm)
(Z End: 2.0 mm)
(X,Y End: None mm)
(Steps per circle: 16)
(Preprocessor Excellon: default)

(X range:    1.9550 ...   35.9000  mm)
(Y range:    0.9000 ...   21.4900  mm)

(Spindle Speed: 0 RPM)
G21
G90
G94

G01 F100.00
G00 Z2.0000

M03
G00 X5.7900 Y14.3300
G01 Z-2.0000
G01 Z0
G00 Z2.0000
G00 X7.8400 Y10.9700
G01 Z-2.0000
G01 Z0
G00 Z2.0000
G00 X17.4300 Y19.4600
G01 Z-2.0000
G01 Z0
G00 Z2.0000
G00 X23.6400 Y7.9800
G01 Z-2.0000
G01 Z0
G00 Z2.0000
G00 X21.6400 Y7.9800
G01 Z-2.0000
G01 Z0
G00 Z2.0000
G00 X19.6400 Y7.9800
G01 Z-2.0000
G01 Z0
G00 Z2.0000
G00 X17.6400 Y7.9800
G01 Z-2.0000
G01 Z0
G00 Z2.0000
G00 X15.6400 Y7.9800
G01 Z-2.0000
G01 Z0
G00 Z2.0000
G00 X13.6400 Y7.9800
G01 Z-2.0000
G01 Z0
G00 Z2.0000
G00 X11.7400 Y4.9400
G01 Z-2.0000
G01 Z0
G00 Z2.0000
G00 X7.8400 Y8.9700
G01 Z-2.0000
G01 Z0
G00 Z2.0000
G00 X7.8400 Y6.9700
G01 Z-2.0000
G01 Z0
G00 Z2.0000
G00 X7.8400 Y4.9700
G01 Z-2.0000
G01 Z0
G00 Z2.0000
G00 X7.8400 Y2.9700
G01 Z-2.0000
G01 Z0
G00 Z2.0000
G00 X2.3300 Y2.9800
G01 Z-2.0000
G01 Z0
G00 Z2.0000
G00 X2.3300 Y4.9800
G01 Z-2.0000
G01 Z0
G00 Z2.0000
G00 X2.3300 Y6.9800
G01 Z-2.0000
G01 Z0
G00 Z2.0000
G00 X2.3300 Y8.9800
G01 Z-2.0000
G01 Z0
G00 Z2.0000
G00 X2.3300 Y10.9800
G01 Z-2.0000
G01 Z0
G00 Z2.0000
G00 X2.3300 Y12.9800
G01 Z-2.0000
G01 Z0
G00 Z2.0000
M05
G00 Z2.00


