(G-code generated by FlatCAM Evo vUnstable - Version Date: 2023/6/31)

(Name: Toolhead PCB-PTH.drl_cnc)
(Type: G-code from Excellon)
(Units: MM)

(Created on Thursday, 25 September 2025 at 14:56)

(This preprocessor is the default preprocessor.)
(It is made to work with MACH3 compatible motion controllers.)


(TOOLS DIAMETER: )
(Tool: 5 -> Dia: 1.8)

(FEEDRATE Z: )
(Tool: 5 -> Feedrate: 100.0)

(FEEDRATE RAPIDS: )
(Tool: 5 -> Feedrate Rapids: 1500)

(Z_CUT: )
(Tool: 5 -> Z_Cut: -2.0)

(Tools Offset: )
(Tool: 5 -> Offset Z: 0.0)

(Z_MOVE: )
(Tool: 5 -> Z_Move: 2.0)

(Z Start: None mm)
(Z End: 2.0 mm)
(X,Y End: None mm)
(Steps per circle: 16)
(Preprocessor Excellon: default)

(X range:    1.9550 ...   35.9000  mm)
(Y range:    5.9000 ...   26.4900  mm)

(Spindle Speed: 0 RPM)
G21
G90
G94

G01 F100.00
G00 Z2.0000

M03
G00 X35.0000 Y10.1900
G01 Z-2.0000
G01 Z0
G00 Z2.0000
G00 X35.0000 Y15.1900
G01 Z-2.0000
G01 Z0
G00 Z2.0000
M05
G00 Z2.00


