(G-code generated by FlatCAM Evo vUnstable - Version Date: 2023/6/31)

(Name: Toolhead PCB-PTH.drl_exc_cnc_cnc)
(Type: G-code from Geometry)
(Units: MM)

(Created on Friday, 26 September 2025 at 12:23)

(This preprocessor is the default preprocessor.)
(It is made to work with MACH3 compatible motion controllers.)

(TOOL DIAMETER: 2.0 mm)
(Feedrate_XY: 100.0 mm/min)
(Feedrate_Z: 50.0 mm/min)
(Feedrate rapids 1500.0 mm/min)

(Z_Cut: -2.4 mm)
(DepthPerCut: 0.8 mm <=>3 passes)
(Z_Move: 2.0 mm)
(Z Start: None mm)
(Z End: 2.0 mm)
(X,Y End: None mm)
(Steps per circle: 16)
(Preprocessor Geometry: default)

(X range:    1.9550 ...   35.9000  mm)
(Y range:    6.0500 ...   26.4900  mm)

(Spindle Speed: 0.0 RPM)
G21
G90
G94

G01 F100.00
G00 Z2.0000

M03
G4 P1.0
G01 F100.00
G00 X10.3113 Y21.0000
G01 F50.00
G01 Z-0.8000
G01 F100.00
G01 X10.3005 Y20.8905
G01 X10.2686 Y20.7852
G01 X10.2167 Y20.6882
G01 X10.1469 Y20.6031
G01 X10.0618 Y20.5333
G01 X9.9648 Y20.4814
G01 X9.8595 Y20.4495
G01 X9.7500 Y20.4387
G01 X9.6405 Y20.4495
G01 X9.5352 Y20.4814
G01 X9.4382 Y20.5333
G01 X9.3531 Y20.6031
G01 X9.2833 Y20.6882
G01 X9.2314 Y20.7852
G01 X9.1995 Y20.8905
G01 X9.1887 Y21.0000
G01 X9.1995 Y21.1095
G01 X9.2314 Y21.2148
G01 X9.2833 Y21.3118
G01 X9.3531 Y21.3969
G01 X9.4382 Y21.4667
G01 X9.5352 Y21.5186
G01 X9.6405 Y21.5505
G01 X9.7500 Y21.5613
G01 X9.8595 Y21.5505
G01 X9.9648 Y21.5186
G01 X10.0618 Y21.4667
G01 X10.1469 Y21.3969
G01 X10.2167 Y21.3118
G01 X10.2686 Y21.2148
G01 X10.3005 Y21.1095
G01 X10.3113 Y21.0000
G00 X10.3113 Y21.0000
G01 F50.00
G01 Z-1.6000
G01 F100.00
G01 X10.3005 Y21.1095
G01 X10.2686 Y21.2148
G01 X10.2167 Y21.3118
G01 X10.1469 Y21.3969
G01 X10.0618 Y21.4667
G01 X9.9648 Y21.5186
G01 X9.8595 Y21.5505
G01 X9.7500 Y21.5613
G01 X9.6405 Y21.5505
G01 X9.5352 Y21.5186
G01 X9.4382 Y21.4667
G01 X9.3531 Y21.3969
G01 X9.2833 Y21.3118
G01 X9.2314 Y21.2148
G01 X9.1995 Y21.1095
G01 X9.1887 Y21.0000
G01 X9.1995 Y20.8905
G01 X9.2314 Y20.7852
G01 X9.2833 Y20.6882
G01 X9.3531 Y20.6031
G01 X9.4382 Y20.5333
G01 X9.5352 Y20.4814
G01 X9.6405 Y20.4495
G01 X9.7500 Y20.4387
G01 X9.8595 Y20.4495
G01 X9.9648 Y20.4814
G01 X10.0618 Y20.5333
G01 X10.1469 Y20.6031
G01 X10.2167 Y20.6882
G01 X10.2686 Y20.7852
G01 X10.3005 Y20.8905
G01 X10.3113 Y21.0000
G00 X10.3113 Y21.0000
G01 F50.00
G01 Z-2.4000
G01 F100.00
G01 X10.3005 Y20.8905
G01 X10.2686 Y20.7852
G01 X10.2167 Y20.6882
G01 X10.1469 Y20.6031
G01 X10.0618 Y20.5333
G01 X9.9648 Y20.4814
G01 X9.8595 Y20.4495
G01 X9.7500 Y20.4387
G01 X9.6405 Y20.4495
G01 X9.5352 Y20.4814
G01 X9.4382 Y20.5333
G01 X9.3531 Y20.6031
G01 X9.2833 Y20.6882
G01 X9.2314 Y20.7852
G01 X9.1995 Y20.8905
G01 X9.1887 Y21.0000
G01 X9.1995 Y21.1095
G01 X9.2314 Y21.2148
G01 X9.2833 Y21.3118
G01 X9.3531 Y21.3969
G01 X9.4382 Y21.4667
G01 X9.5352 Y21.5186
G01 X9.6405 Y21.5505
G01 X9.7500 Y21.5613
G01 X9.8595 Y21.5505
G01 X9.9648 Y21.5186
G01 X10.0618 Y21.4667
G01 X10.1469 Y21.3969
G01 X10.2167 Y21.3118
G01 X10.2686 Y21.2148
G01 X10.3005 Y21.1095
G01 X10.3113 Y21.0000
G00 Z2.0000
G00 X28.8113 Y21.0000
G01 F50.00
G01 Z-0.8000
G01 F100.00
G01 X28.8005 Y20.8905
G01 X28.7686 Y20.7852
G01 X28.7167 Y20.6882
G01 X28.6469 Y20.6031
G01 X28.5618 Y20.5333
G01 X28.4648 Y20.4814
G01 X28.3595 Y20.4495
G01 X28.2500 Y20.4387
G01 X28.1405 Y20.4495
G01 X28.0352 Y20.4814
G01 X27.9382 Y20.5333
G01 X27.8531 Y20.6031
G01 X27.7833 Y20.6882
G01 X27.7314 Y20.7852
G01 X27.6995 Y20.8905
G01 X27.6887 Y21.0000
G01 X27.6995 Y21.1095
G01 X27.7314 Y21.2148
G01 X27.7833 Y21.3118
G01 X27.8531 Y21.3969
G01 X27.9382 Y21.4667
G01 X28.0352 Y21.5186
G01 X28.1405 Y21.5505
G01 X28.2500 Y21.5613
G01 X28.3595 Y21.5505
G01 X28.4648 Y21.5186
G01 X28.5618 Y21.4667
G01 X28.6469 Y21.3969
G01 X28.7167 Y21.3118
G01 X28.7686 Y21.2148
G01 X28.8005 Y21.1095
G01 X28.8113 Y21.0000
G00 X28.8113 Y21.0000
G01 F50.00
G01 Z-1.6000
G01 F100.00
G01 X28.8005 Y21.1095
G01 X28.7686 Y21.2148
G01 X28.7167 Y21.3118
G01 X28.6469 Y21.3969
G01 X28.5618 Y21.4667
G01 X28.4648 Y21.5186
G01 X28.3595 Y21.5505
G01 X28.2500 Y21.5613
G01 X28.1405 Y21.5505
G01 X28.0352 Y21.5186
G01 X27.9382 Y21.4667
G01 X27.8531 Y21.3969
G01 X27.7833 Y21.3118
G01 X27.7314 Y21.2148
G01 X27.6995 Y21.1095
G01 X27.6887 Y21.0000
G01 X27.6995 Y20.8905
G01 X27.7314 Y20.7852
G01 X27.7833 Y20.6882
G01 X27.8531 Y20.6031
G01 X27.9382 Y20.5333
G01 X28.0352 Y20.4814
G01 X28.1405 Y20.4495
G01 X28.2500 Y20.4387
G01 X28.3595 Y20.4495
G01 X28.4648 Y20.4814
G01 X28.5618 Y20.5333
G01 X28.6469 Y20.6031
G01 X28.7167 Y20.6882
G01 X28.7686 Y20.7852
G01 X28.8005 Y20.8905
G01 X28.8113 Y21.0000
G00 X28.8113 Y21.0000
G01 F50.00
G01 Z-2.4000
G01 F100.00
G01 X28.8005 Y20.8905
G01 X28.7686 Y20.7852
G01 X28.7167 Y20.6882
G01 X28.6469 Y20.6031
G01 X28.5618 Y20.5333
G01 X28.4648 Y20.4814
G01 X28.3595 Y20.4495
G01 X28.2500 Y20.4387
G01 X28.1405 Y20.4495
G01 X28.0352 Y20.4814
G01 X27.9382 Y20.5333
G01 X27.8531 Y20.6031
G01 X27.7833 Y20.6882
G01 X27.7314 Y20.7852
G01 X27.6995 Y20.8905
G01 X27.6887 Y21.0000
G01 X27.6995 Y21.1095
G01 X27.7314 Y21.2148
G01 X27.7833 Y21.3118
G01 X27.8531 Y21.3969
G01 X27.9382 Y21.4667
G01 X28.0352 Y21.5186
G01 X28.1405 Y21.5505
G01 X28.2500 Y21.5613
G01 X28.3595 Y21.5505
G01 X28.4648 Y21.5186
G01 X28.5618 Y21.4667
G01 X28.6469 Y21.3969
G01 X28.7167 Y21.3118
G01 X28.7686 Y21.2148
G01 X28.8005 Y21.1095
G01 X28.8113 Y21.0000
G00 Z2.0000
G01 F100.00
G00 Z2.0000

M03
G4 P1.0
G01 F100.00
G00 X20.2500 Y8.3000
G01 F50.00
G01 Z-0.8000
G01 F100.00
G01 X20.2346 Y8.1439
G01 X20.2156 Y8.0678
G01 X20.1732 Y7.9580
G01 X20.1152 Y7.8555
G01 X20.0684 Y7.7925
G01 X19.9872 Y7.7072
G01 X19.9266 Y7.6574
G01 X19.8271 Y7.5945
G01 X19.7561 Y7.5609
G01 X19.6444 Y7.5240
G01 X19.5674 Y7.5087
G01 X19.4107 Y7.5010
G01 X19.3326 Y7.5087
G01 X19.2178 Y7.5344
G01 X19.0729 Y7.5945
G01 X19.0055 Y7.6348
G01 X18.9128 Y7.7072
G01 X18.8316 Y7.7925
G01 X18.7848 Y7.8555
G01 X18.7268 Y7.9580
G01 X18.6968 Y8.0305
G01 X18.6654 Y8.1439
G01 X18.6539 Y8.2216
G01 X18.6539 Y8.3784
G01 X18.6654 Y8.4561
G01 X18.6968 Y8.5695
G01 X18.7268 Y8.6420
G01 X18.7848 Y8.7445
G01 X18.8572 Y8.8372
G01 X18.9425 Y8.9184
G01 X19.0729 Y9.0055
G01 X19.1805 Y9.0532
G01 X19.2939 Y9.0846
G01 X19.4107 Y9.0990
G01 X19.5284 Y9.0961
G01 X19.6444 Y9.0760
G01 X19.7920 Y9.0232
G01 X19.8945 Y8.9652
G01 X19.9872 Y8.8928
G01 X20.0684 Y8.8075
G01 X20.1362 Y8.7113
G01 X20.2032 Y8.5695
G01 X20.2413 Y8.4174
G01 X20.2500 Y8.3000
G01 X20.6988 Y8.3000
G01 X20.6928 Y8.1776
G01 X20.6748 Y8.0564
G01 X20.6450 Y7.9375
G01 X20.6037 Y7.8221
G01 X20.5513 Y7.7113
G01 X20.4883 Y7.6062
G01 X20.4153 Y7.5078
G01 X20.3330 Y7.4170
G01 X20.2422 Y7.3347
G01 X20.1438 Y7.2617
G01 X20.0387 Y7.1987
G01 X19.9279 Y7.1463
G01 X19.8125 Y7.1050
G01 X19.6936 Y7.0752
G01 X19.5724 Y7.0572
G01 X19.4500 Y7.0512
G01 X19.3276 Y7.0572
G01 X19.2064 Y7.0752
G01 X19.0875 Y7.1050
G01 X18.9721 Y7.1463
G01 X18.8613 Y7.1987
G01 X18.7562 Y7.2617
G01 X18.6578 Y7.3347
G01 X18.5670 Y7.4170
G01 X18.4847 Y7.5078
G01 X18.4117 Y7.6062
G01 X18.3487 Y7.7113
G01 X18.2963 Y7.8221
G01 X18.2550 Y7.9375
G01 X18.2252 Y8.0564
G01 X18.2072 Y8.1776
G01 X18.2012 Y8.3000
G01 X18.2072 Y8.4224
G01 X18.2252 Y8.5436
G01 X18.2550 Y8.6625
G01 X18.2963 Y8.7779
G01 X18.3487 Y8.8887
G01 X18.4117 Y8.9938
G01 X18.4847 Y9.0922
G01 X18.5670 Y9.1830
G01 X18.6578 Y9.2653
G01 X18.7562 Y9.3383
G01 X18.8613 Y9.4013
G01 X18.9721 Y9.4537
G01 X19.0875 Y9.4950
G01 X19.2064 Y9.5248
G01 X19.3276 Y9.5428
G01 X19.4500 Y9.5488
G01 X19.5724 Y9.5428
G01 X19.6936 Y9.5248
G01 X19.8125 Y9.4950
G01 X19.9279 Y9.4537
G01 X20.0387 Y9.4013
G01 X20.1438 Y9.3383
G01 X20.2422 Y9.2653
G01 X20.3330 Y9.1830
G01 X20.4153 Y9.0922
G01 X20.4883 Y8.9938
G01 X20.5513 Y8.8887
G01 X20.6037 Y8.7779
G01 X20.6450 Y8.6625
G01 X20.6748 Y8.5436
G01 X20.6928 Y8.4224
G01 X20.6988 Y8.3000
G00 X20.6988 Y8.3000
G01 F50.00
G01 Z-1.6000
G01 F100.00
G01 X20.6928 Y8.4224
G01 X20.6748 Y8.5436
G01 X20.6450 Y8.6625
G01 X20.6037 Y8.7779
G01 X20.5513 Y8.8887
G01 X20.4883 Y8.9938
G01 X20.4153 Y9.0922
G01 X20.3330 Y9.1830
G01 X20.2422 Y9.2653
G01 X20.1438 Y9.3383
G01 X20.0387 Y9.4013
G01 X19.9279 Y9.4537
G01 X19.8125 Y9.4950
G01 X19.6936 Y9.5248
G01 X19.5724 Y9.5428
G01 X19.4500 Y9.5488
G01 X19.3276 Y9.5428
G01 X19.2064 Y9.5248
G01 X19.0875 Y9.4950
G01 X18.9721 Y9.4537
G01 X18.8613 Y9.4013
G01 X18.7562 Y9.3383
G01 X18.6578 Y9.2653
G01 X18.5670 Y9.1830
G01 X18.4847 Y9.0922
G01 X18.4117 Y8.9938
G01 X18.3487 Y8.8887
G01 X18.2963 Y8.7779
G01 X18.2550 Y8.6625
G01 X18.2252 Y8.5436
G01 X18.2072 Y8.4224
G01 X18.2012 Y8.3000
G01 X18.2072 Y8.1776
G01 X18.2252 Y8.0564
G01 X18.2550 Y7.9375
G01 X18.2963 Y7.8221
G01 X18.3487 Y7.7113
G01 X18.4117 Y7.6062
G01 X18.4847 Y7.5078
G01 X18.5670 Y7.4170
G01 X18.6578 Y7.3347
G01 X18.7562 Y7.2617
G01 X18.8613 Y7.1987
G01 X18.9721 Y7.1463
G01 X19.0875 Y7.1050
G01 X19.2064 Y7.0752
G01 X19.3276 Y7.0572
G01 X19.4500 Y7.0512
G01 X19.5724 Y7.0572
G01 X19.6936 Y7.0752
G01 X19.8125 Y7.1050
G01 X19.9279 Y7.1463
G01 X20.0387 Y7.1987
G01 X20.1438 Y7.2617
G01 X20.2422 Y7.3347
G01 X20.3330 Y7.4170
G01 X20.4153 Y7.5078
G01 X20.4883 Y7.6062
G01 X20.5513 Y7.7113
G01 X20.6037 Y7.8221
G01 X20.6450 Y7.9375
G01 X20.6748 Y8.0564
G01 X20.6928 Y8.1776
G01 X20.6988 Y8.3000
G01 X20.2500 Y8.3000
G01 X20.2413 Y8.4174
G01 X20.2032 Y8.5695
G01 X20.1362 Y8.7113
G01 X20.0684 Y8.8075
G01 X19.9872 Y8.8928
G01 X19.8945 Y8.9652
G01 X19.7920 Y9.0232
G01 X19.6444 Y9.0760
G01 X19.5284 Y9.0961
G01 X19.4107 Y9.0990
G01 X19.2939 Y9.0846
G01 X19.1805 Y9.0532
G01 X19.0729 Y9.0055
G01 X18.9425 Y8.9184
G01 X18.8572 Y8.8372
G01 X18.7848 Y8.7445
G01 X18.7268 Y8.6420
G01 X18.6968 Y8.5695
G01 X18.6654 Y8.4561
G01 X18.6539 Y8.3784
G01 X18.6539 Y8.2216
G01 X18.6654 Y8.1439
G01 X18.6968 Y8.0305
G01 X18.7268 Y7.9580
G01 X18.7848 Y7.8555
G01 X18.8316 Y7.7925
G01 X18.9128 Y7.7072
G01 X19.0055 Y7.6348
G01 X19.0729 Y7.5945
G01 X19.2178 Y7.5344
G01 X19.3326 Y7.5087
G01 X19.4107 Y7.5010
G01 X19.5674 Y7.5087
G01 X19.6444 Y7.5240
G01 X19.7561 Y7.5609
G01 X19.8271 Y7.5945
G01 X19.9266 Y7.6574
G01 X19.9872 Y7.7072
G01 X20.0684 Y7.7925
G01 X20.1152 Y7.8555
G01 X20.1732 Y7.9580
G01 X20.2156 Y8.0678
G01 X20.2346 Y8.1439
G01 X20.2500 Y8.3000
G00 X20.2500 Y8.3000
G01 F50.00
G01 Z-2.4000
G01 F100.00
G01 X20.2346 Y8.1439
G01 X20.2156 Y8.0678
G01 X20.1732 Y7.9580
G01 X20.1152 Y7.8555
G01 X20.0684 Y7.7925
G01 X19.9872 Y7.7072
G01 X19.9266 Y7.6574
G01 X19.8271 Y7.5945
G01 X19.7561 Y7.5609
G01 X19.6444 Y7.5240
G01 X19.5674 Y7.5087
G01 X19.4107 Y7.5010
G01 X19.3326 Y7.5087
G01 X19.2178 Y7.5344
G01 X19.0729 Y7.5945
G01 X19.0055 Y7.6348
G01 X18.9128 Y7.7072
G01 X18.8316 Y7.7925
G01 X18.7848 Y7.8555
G01 X18.7268 Y7.9580
G01 X18.6968 Y8.0305
G01 X18.6654 Y8.1439
G01 X18.6539 Y8.2216
G01 X18.6539 Y8.3784
G01 X18.6654 Y8.4561
G01 X18.6968 Y8.5695
G01 X18.7268 Y8.6420
G01 X18.7848 Y8.7445
G01 X18.8572 Y8.8372
G01 X18.9425 Y8.9184
G01 X19.0729 Y9.0055
G01 X19.1805 Y9.0532
G01 X19.2939 Y9.0846
G01 X19.4107 Y9.0990
G01 X19.5284 Y9.0961
G01 X19.6444 Y9.0760
G01 X19.7920 Y9.0232
G01 X19.8945 Y8.9652
G01 X19.9872 Y8.8928
G01 X20.0684 Y8.8075
G01 X20.1362 Y8.7113
G01 X20.2032 Y8.5695
G01 X20.2413 Y8.4174
G01 X20.2500 Y8.3000
G01 X20.6988 Y8.3000
G01 X20.6928 Y8.1776
G01 X20.6748 Y8.0564
G01 X20.6450 Y7.9375
G01 X20.6037 Y7.8221
G01 X20.5513 Y7.7113
G01 X20.4883 Y7.6062
G01 X20.4153 Y7.5078
G01 X20.3330 Y7.4170
G01 X20.2422 Y7.3347
G01 X20.1438 Y7.2617
G01 X20.0387 Y7.1987
G01 X19.9279 Y7.1463
G01 X19.8125 Y7.1050
G01 X19.6936 Y7.0752
G01 X19.5724 Y7.0572
G01 X19.4500 Y7.0512
G01 X19.3276 Y7.0572
G01 X19.2064 Y7.0752
G01 X19.0875 Y7.1050
G01 X18.9721 Y7.1463
G01 X18.8613 Y7.1987
G01 X18.7562 Y7.2617
G01 X18.6578 Y7.3347
G01 X18.5670 Y7.4170
G01 X18.4847 Y7.5078
G01 X18.4117 Y7.6062
G01 X18.3487 Y7.7113
G01 X18.2963 Y7.8221
G01 X18.2550 Y7.9375
G01 X18.2252 Y8.0564
G01 X18.2072 Y8.1776
G01 X18.2012 Y8.3000
G01 X18.2072 Y8.4224
G01 X18.2252 Y8.5436
G01 X18.2550 Y8.6625
G01 X18.2963 Y8.7779
G01 X18.3487 Y8.8887
G01 X18.4117 Y8.9938
G01 X18.4847 Y9.0922
G01 X18.5670 Y9.1830
G01 X18.6578 Y9.2653
G01 X18.7562 Y9.3383
G01 X18.8613 Y9.4013
G01 X18.9721 Y9.4537
G01 X19.0875 Y9.4950
G01 X19.2064 Y9.5248
G01 X19.3276 Y9.5428
G01 X19.4500 Y9.5488
G01 X19.5724 Y9.5428
G01 X19.6936 Y9.5248
G01 X19.8125 Y9.4950
G01 X19.9279 Y9.4537
G01 X20.0387 Y9.4013
G01 X20.1438 Y9.3383
G01 X20.2422 Y9.2653
G01 X20.3330 Y9.1830
G01 X20.4153 Y9.0922
G01 X20.4883 Y8.9938
G01 X20.5513 Y8.8887
G01 X20.6037 Y8.7779
G01 X20.6450 Y8.6625
G01 X20.6748 Y8.5436
G01 X20.6928 Y8.4224
G01 X20.6988 Y8.3000
G00 Z2.0000
M05
G00 Z2.0000
G00 Z2.00


