(G-code generated by FlatCAM Evo vUnstable - Version Date: 2023/6/31)

(Name: Toolhead PCB-PTH.drl_exc_cnc_cnc)
(Type: G-code from Geometry)
(Units: MM)

(Created on Thursday, 25 September 2025 at 14:59)

(This preprocessor is the default preprocessor.)
(It is made to work with MACH3 compatible motion controllers.)

(TOOL DIAMETER: 2.4 mm)
(Feedrate_XY: 100.0 mm/min)
(Feedrate_Z: 50.0 mm/min)
(Feedrate rapids 1500.0 mm/min)

(Z_Cut: -2.0 mm)
(DepthPerCut: 0.8 mm <=>3 passes)
(Z_Move: 2.0 mm)
(Z Start: None mm)
(Z End: 2.0 mm)
(X,Y End: None mm)
(Steps per circle: 16)
(Preprocessor Geometry: default)

(X range:    1.9550 ...   35.9000  mm)
(Y range:    5.9000 ...   26.4900  mm)

(Spindle Speed: 0.0 RPM)
G21
G90
G94

G01 F100.00
G00 Z2.0000

M03
G4 P1.0
G01 F100.00
G00 X10.1111 Y21.0000
G01 F50.00
G01 Z-0.8000
G01 F100.00
G01 X10.1041 Y20.9296
G01 X10.0836 Y20.8618
G01 X10.0502 Y20.7994
G01 X10.0053 Y20.7447
G01 X9.9506 Y20.6998
G01 X9.8882 Y20.6664
G01 X9.8204 Y20.6459
G01 X9.7500 Y20.6389
G01 X9.6796 Y20.6459
G01 X9.6118 Y20.6664
G01 X9.5494 Y20.6998
G01 X9.4947 Y20.7447
G01 X9.4498 Y20.7994
G01 X9.4164 Y20.8618
G01 X9.3959 Y20.9296
G01 X9.3889 Y21.0000
G01 X9.3959 Y21.0704
G01 X9.4164 Y21.1382
G01 X9.4498 Y21.2006
G01 X9.4947 Y21.2553
G01 X9.5494 Y21.3002
G01 X9.6118 Y21.3336
G01 X9.6796 Y21.3541
G01 X9.7500 Y21.3611
G01 X9.8204 Y21.3541
G01 X9.8882 Y21.3336
G01 X9.9506 Y21.3002
G01 X10.0053 Y21.2553
G01 X10.0502 Y21.2006
G01 X10.0836 Y21.1382
G01 X10.1041 Y21.0704
G01 X10.1111 Y21.0000
G00 X10.1111 Y21.0000
G01 F50.00
G01 Z-1.6000
G01 F100.00
G01 X10.1041 Y21.0704
G01 X10.0836 Y21.1382
G01 X10.0502 Y21.2006
G01 X10.0053 Y21.2553
G01 X9.9506 Y21.3002
G01 X9.8882 Y21.3336
G01 X9.8204 Y21.3541
G01 X9.7500 Y21.3611
G01 X9.6796 Y21.3541
G01 X9.6118 Y21.3336
G01 X9.5494 Y21.3002
G01 X9.4947 Y21.2553
G01 X9.4498 Y21.2006
G01 X9.4164 Y21.1382
G01 X9.3959 Y21.0704
G01 X9.3889 Y21.0000
G01 X9.3959 Y20.9296
G01 X9.4164 Y20.8618
G01 X9.4498 Y20.7994
G01 X9.4947 Y20.7447
G01 X9.5494 Y20.6998
G01 X9.6118 Y20.6664
G01 X9.6796 Y20.6459
G01 X9.7500 Y20.6389
G01 X9.8204 Y20.6459
G01 X9.8882 Y20.6664
G01 X9.9506 Y20.6998
G01 X10.0053 Y20.7447
G01 X10.0502 Y20.7994
G01 X10.0836 Y20.8618
G01 X10.1041 Y20.9296
G01 X10.1111 Y21.0000
G00 X10.1111 Y21.0000
G01 F50.00
G01 Z-2.0000
G01 F100.00
G01 X10.1041 Y20.9296
G01 X10.0836 Y20.8618
G01 X10.0502 Y20.7994
G01 X10.0053 Y20.7447
G01 X9.9506 Y20.6998
G01 X9.8882 Y20.6664
G01 X9.8204 Y20.6459
G01 X9.7500 Y20.6389
G01 X9.6796 Y20.6459
G01 X9.6118 Y20.6664
G01 X9.5494 Y20.6998
G01 X9.4947 Y20.7447
G01 X9.4498 Y20.7994
G01 X9.4164 Y20.8618
G01 X9.3959 Y20.9296
G01 X9.3889 Y21.0000
G01 X9.3959 Y21.0704
G01 X9.4164 Y21.1382
G01 X9.4498 Y21.2006
G01 X9.4947 Y21.2553
G01 X9.5494 Y21.3002
G01 X9.6118 Y21.3336
G01 X9.6796 Y21.3541
G01 X9.7500 Y21.3611
G01 X9.8204 Y21.3541
G01 X9.8882 Y21.3336
G01 X9.9506 Y21.3002
G01 X10.0053 Y21.2553
G01 X10.0502 Y21.2006
G01 X10.0836 Y21.1382
G01 X10.1041 Y21.0704
G01 X10.1111 Y21.0000
G00 Z2.0000
G00 X28.6111 Y21.0000
G01 F50.00
G01 Z-0.8000
G01 F100.00
G01 X28.6041 Y20.9296
G01 X28.5836 Y20.8618
G01 X28.5502 Y20.7994
G01 X28.5053 Y20.7447
G01 X28.4506 Y20.6998
G01 X28.3882 Y20.6664
G01 X28.3204 Y20.6459
G01 X28.2500 Y20.6389
G01 X28.1796 Y20.6459
G01 X28.1118 Y20.6664
G01 X28.0494 Y20.6998
G01 X27.9947 Y20.7447
G01 X27.9498 Y20.7994
G01 X27.9164 Y20.8618
G01 X27.8959 Y20.9296
G01 X27.8889 Y21.0000
G01 X27.8959 Y21.0704
G01 X27.9164 Y21.1382
G01 X27.9498 Y21.2006
G01 X27.9947 Y21.2553
G01 X28.0494 Y21.3002
G01 X28.1118 Y21.3336
G01 X28.1796 Y21.3541
G01 X28.2500 Y21.3611
G01 X28.3204 Y21.3541
G01 X28.3882 Y21.3336
G01 X28.4506 Y21.3002
G01 X28.5053 Y21.2553
G01 X28.5502 Y21.2006
G01 X28.5836 Y21.1382
G01 X28.6041 Y21.0704
G01 X28.6111 Y21.0000
G00 X28.6111 Y21.0000
G01 F50.00
G01 Z-1.6000
G01 F100.00
G01 X28.6041 Y21.0704
G01 X28.5836 Y21.1382
G01 X28.5502 Y21.2006
G01 X28.5053 Y21.2553
G01 X28.4506 Y21.3002
G01 X28.3882 Y21.3336
G01 X28.3204 Y21.3541
G01 X28.2500 Y21.3611
G01 X28.1796 Y21.3541
G01 X28.1118 Y21.3336
G01 X28.0494 Y21.3002
G01 X27.9947 Y21.2553
G01 X27.9498 Y21.2006
G01 X27.9164 Y21.1382
G01 X27.8959 Y21.0704
G01 X27.8889 Y21.0000
G01 X27.8959 Y20.9296
G01 X27.9164 Y20.8618
G01 X27.9498 Y20.7994
G01 X27.9947 Y20.7447
G01 X28.0494 Y20.6998
G01 X28.1118 Y20.6664
G01 X28.1796 Y20.6459
G01 X28.2500 Y20.6389
G01 X28.3204 Y20.6459
G01 X28.3882 Y20.6664
G01 X28.4506 Y20.6998
G01 X28.5053 Y20.7447
G01 X28.5502 Y20.7994
G01 X28.5836 Y20.8618
G01 X28.6041 Y20.9296
G01 X28.6111 Y21.0000
G00 X28.6111 Y21.0000
G01 F50.00
G01 Z-2.0000
G01 F100.00
G01 X28.6041 Y20.9296
G01 X28.5836 Y20.8618
G01 X28.5502 Y20.7994
G01 X28.5053 Y20.7447
G01 X28.4506 Y20.6998
G01 X28.3882 Y20.6664
G01 X28.3204 Y20.6459
G01 X28.2500 Y20.6389
G01 X28.1796 Y20.6459
G01 X28.1118 Y20.6664
G01 X28.0494 Y20.6998
G01 X27.9947 Y20.7447
G01 X27.9498 Y20.7994
G01 X27.9164 Y20.8618
G01 X27.8959 Y20.9296
G01 X27.8889 Y21.0000
G01 X27.8959 Y21.0704
G01 X27.9164 Y21.1382
G01 X27.9498 Y21.2006
G01 X27.9947 Y21.2553
G01 X28.0494 Y21.3002
G01 X28.1118 Y21.3336
G01 X28.1796 Y21.3541
G01 X28.2500 Y21.3611
G01 X28.3204 Y21.3541
G01 X28.3882 Y21.3336
G01 X28.4506 Y21.3002
G01 X28.5053 Y21.2553
G01 X28.5502 Y21.2006
G01 X28.5836 Y21.1382
G01 X28.6041 Y21.0704
G01 X28.6111 Y21.0000
G00 Z2.0000
G01 F100.00
G00 Z2.0000

M03
G4 P1.0
G01 F100.00
G00 X20.2486 Y7.9000
G01 F50.00
G01 Z-0.8000
G01 F100.00
G01 X20.2332 Y7.7442
G01 X20.1878 Y7.5944
G01 X20.1140 Y7.4563
G01 X20.0147 Y7.3353
G01 X19.8937 Y7.2360
G01 X19.7556 Y7.1622
G01 X19.6058 Y7.1168
G01 X19.4500 Y7.1014
G01 X19.2942 Y7.1168
G01 X19.1444 Y7.1622
G01 X19.0063 Y7.2360
G01 X18.8853 Y7.3353
G01 X18.7860 Y7.4563
G01 X18.7122 Y7.5944
G01 X18.6668 Y7.7442
G01 X18.6514 Y7.9000
G01 X18.6668 Y8.0558
G01 X18.7122 Y8.2056
G01 X18.7860 Y8.3437
G01 X18.8853 Y8.4647
G01 X19.0063 Y8.5640
G01 X19.1444 Y8.6378
G01 X19.2942 Y8.6832
G01 X19.4500 Y8.6986
G01 X19.6058 Y8.6832
G01 X19.7556 Y8.6378
G01 X19.8937 Y8.5640
G01 X20.0147 Y8.4647
G01 X20.1140 Y8.3437
G01 X20.1878 Y8.2056
G01 X20.2332 Y8.0558
G01 X20.2486 Y7.9000
G00 X20.2486 Y7.9000
G01 F50.00
G01 Z-1.6000
G01 F100.00
G01 X20.2332 Y8.0558
G01 X20.1878 Y8.2056
G01 X20.1140 Y8.3437
G01 X20.0147 Y8.4647
G01 X19.8937 Y8.5640
G01 X19.7556 Y8.6378
G01 X19.6058 Y8.6832
G01 X19.4500 Y8.6986
G01 X19.2942 Y8.6832
G01 X19.1444 Y8.6378
G01 X19.0063 Y8.5640
G01 X18.8853 Y8.4647
G01 X18.7860 Y8.3437
G01 X18.7122 Y8.2056
G01 X18.6668 Y8.0558
G01 X18.6514 Y7.9000
G01 X18.6668 Y7.7442
G01 X18.7122 Y7.5944
G01 X18.7860 Y7.4563
G01 X18.8853 Y7.3353
G01 X19.0063 Y7.2360
G01 X19.1444 Y7.1622
G01 X19.2942 Y7.1168
G01 X19.4500 Y7.1014
G01 X19.6058 Y7.1168
G01 X19.7556 Y7.1622
G01 X19.8937 Y7.2360
G01 X20.0147 Y7.3353
G01 X20.1140 Y7.4563
G01 X20.1878 Y7.5944
G01 X20.2332 Y7.7442
G01 X20.2486 Y7.9000
G00 X20.2486 Y7.9000
G01 F50.00
G01 Z-2.0000
G01 F100.00
G01 X20.2332 Y7.7442
G01 X20.1878 Y7.5944
G01 X20.1140 Y7.4563
G01 X20.0147 Y7.3353
G01 X19.8937 Y7.2360
G01 X19.7556 Y7.1622
G01 X19.6058 Y7.1168
G01 X19.4500 Y7.1014
G01 X19.2942 Y7.1168
G01 X19.1444 Y7.1622
G01 X19.0063 Y7.2360
G01 X18.8853 Y7.3353
G01 X18.7860 Y7.4563
G01 X18.7122 Y7.5944
G01 X18.6668 Y7.7442
G01 X18.6514 Y7.9000
G01 X18.6668 Y8.0558
G01 X18.7122 Y8.2056
G01 X18.7860 Y8.3437
G01 X18.8853 Y8.4647
G01 X19.0063 Y8.5640
G01 X19.1444 Y8.6378
G01 X19.2942 Y8.6832
G01 X19.4500 Y8.6986
G01 X19.6058 Y8.6832
G01 X19.7556 Y8.6378
G01 X19.8937 Y8.5640
G01 X20.0147 Y8.4647
G01 X20.1140 Y8.3437
G01 X20.1878 Y8.2056
G01 X20.2332 Y8.0558
G01 X20.2486 Y7.9000
G00 Z2.0000
M05
G00 Z2.0000
G00 Z2.00


