(G-code generated by FlatCAM Evo vUnstable - Version Date: 2023/6/31)

(Name: Toolhead PCB-PTH.drl_exc_cnc_cnc)
(Type: G-code from Geometry)
(Units: MM)

(Created on Thursday, 25 September 2025 at 23:45)

(This preprocessor is the default preprocessor.)
(It is made to work with MACH3 compatible motion controllers.)

(TOOL DIAMETER: 2.4 mm)
(Feedrate_XY: 100.0 mm/min)
(Feedrate_Z: 50.0 mm/min)
(Feedrate rapids 1500.0 mm/min)

(Z_Cut: -2.4 mm)
(DepthPerCut: 0.8 mm <=>3 passes)
(Z_Move: 2.0 mm)
(Z Start: None mm)
(Z End: 2.0 mm)
(X,Y End: None mm)
(Steps per circle: 16)
(Preprocessor Geometry: default)

(X range:    1.9550 ...   35.9000  mm)
(Y range:    6.0500 ...   26.4900  mm)

(Spindle Speed: 0.0 RPM)
G21
G90
G94

G01 F100.00
G00 Z2.0000

M03
G4 P1.0
G01 F100.00
G00 X10.1111 Y21.0000
G01 F50.00
G01 Z-0.8000
G01 F100.00
G01 X10.1041 Y20.9296
G01 X10.0836 Y20.8618
G01 X10.0502 Y20.7994
G01 X10.0053 Y20.7447
G01 X9.9506 Y20.6998
G01 X9.8882 Y20.6664
G01 X9.8204 Y20.6459
G01 X9.7500 Y20.6389
G01 X9.6796 Y20.6459
G01 X9.6118 Y20.6664
G01 X9.5494 Y20.6998
G01 X9.4947 Y20.7447
G01 X9.4498 Y20.7994
G01 X9.4164 Y20.8618
G01 X9.3959 Y20.9296
G01 X9.3889 Y21.0000
G01 X9.3959 Y21.0704
G01 X9.4164 Y21.1382
G01 X9.4498 Y21.2006
G01 X9.4947 Y21.2553
G01 X9.5494 Y21.3002
G01 X9.6118 Y21.3336
G01 X9.6796 Y21.3541
G01 X9.7500 Y21.3611
G01 X9.8204 Y21.3541
G01 X9.8882 Y21.3336
G01 X9.9506 Y21.3002
G01 X10.0053 Y21.2553
G01 X10.0502 Y21.2006
G01 X10.0836 Y21.1382
G01 X10.1041 Y21.0704
G01 X10.1111 Y21.0000
G00 X10.1111 Y21.0000
G01 F50.00
G01 Z-1.6000
G01 F100.00
G01 X10.1041 Y21.0704
G01 X10.0836 Y21.1382
G01 X10.0502 Y21.2006
G01 X10.0053 Y21.2553
G01 X9.9506 Y21.3002
G01 X9.8882 Y21.3336
G01 X9.8204 Y21.3541
G01 X9.7500 Y21.3611
G01 X9.6796 Y21.3541
G01 X9.6118 Y21.3336
G01 X9.5494 Y21.3002
G01 X9.4947 Y21.2553
G01 X9.4498 Y21.2006
G01 X9.4164 Y21.1382
G01 X9.3959 Y21.0704
G01 X9.3889 Y21.0000
G01 X9.3959 Y20.9296
G01 X9.4164 Y20.8618
G01 X9.4498 Y20.7994
G01 X9.4947 Y20.7447
G01 X9.5494 Y20.6998
G01 X9.6118 Y20.6664
G01 X9.6796 Y20.6459
G01 X9.7500 Y20.6389
G01 X9.8204 Y20.6459
G01 X9.8882 Y20.6664
G01 X9.9506 Y20.6998
G01 X10.0053 Y20.7447
G01 X10.0502 Y20.7994
G01 X10.0836 Y20.8618
G01 X10.1041 Y20.9296
G01 X10.1111 Y21.0000
G00 X10.1111 Y21.0000
G01 F50.00
G01 Z-2.4000
G01 F100.00
G01 X10.1041 Y20.9296
G01 X10.0836 Y20.8618
G01 X10.0502 Y20.7994
G01 X10.0053 Y20.7447
G01 X9.9506 Y20.6998
G01 X9.8882 Y20.6664
G01 X9.8204 Y20.6459
G01 X9.7500 Y20.6389
G01 X9.6796 Y20.6459
G01 X9.6118 Y20.6664
G01 X9.5494 Y20.6998
G01 X9.4947 Y20.7447
G01 X9.4498 Y20.7994
G01 X9.4164 Y20.8618
G01 X9.3959 Y20.9296
G01 X9.3889 Y21.0000
G01 X9.3959 Y21.0704
G01 X9.4164 Y21.1382
G01 X9.4498 Y21.2006
G01 X9.4947 Y21.2553
G01 X9.5494 Y21.3002
G01 X9.6118 Y21.3336
G01 X9.6796 Y21.3541
G01 X9.7500 Y21.3611
G01 X9.8204 Y21.3541
G01 X9.8882 Y21.3336
G01 X9.9506 Y21.3002
G01 X10.0053 Y21.2553
G01 X10.0502 Y21.2006
G01 X10.0836 Y21.1382
G01 X10.1041 Y21.0704
G01 X10.1111 Y21.0000
G00 Z2.0000
G00 X28.6111 Y21.0000
G01 F50.00
G01 Z-0.8000
G01 F100.00
G01 X28.6041 Y20.9296
G01 X28.5836 Y20.8618
G01 X28.5502 Y20.7994
G01 X28.5053 Y20.7447
G01 X28.4506 Y20.6998
G01 X28.3882 Y20.6664
G01 X28.3204 Y20.6459
G01 X28.2500 Y20.6389
G01 X28.1796 Y20.6459
G01 X28.1118 Y20.6664
G01 X28.0494 Y20.6998
G01 X27.9947 Y20.7447
G01 X27.9498 Y20.7994
G01 X27.9164 Y20.8618
G01 X27.8959 Y20.9296
G01 X27.8889 Y21.0000
G01 X27.8959 Y21.0704
G01 X27.9164 Y21.1382
G01 X27.9498 Y21.2006
G01 X27.9947 Y21.2553
G01 X28.0494 Y21.3002
G01 X28.1118 Y21.3336
G01 X28.1796 Y21.3541
G01 X28.2500 Y21.3611
G01 X28.3204 Y21.3541
G01 X28.3882 Y21.3336
G01 X28.4506 Y21.3002
G01 X28.5053 Y21.2553
G01 X28.5502 Y21.2006
G01 X28.5836 Y21.1382
G01 X28.6041 Y21.0704
G01 X28.6111 Y21.0000
G00 X28.6111 Y21.0000
G01 F50.00
G01 Z-1.6000
G01 F100.00
G01 X28.6041 Y21.0704
G01 X28.5836 Y21.1382
G01 X28.5502 Y21.2006
G01 X28.5053 Y21.2553
G01 X28.4506 Y21.3002
G01 X28.3882 Y21.3336
G01 X28.3204 Y21.3541
G01 X28.2500 Y21.3611
G01 X28.1796 Y21.3541
G01 X28.1118 Y21.3336
G01 X28.0494 Y21.3002
G01 X27.9947 Y21.2553
G01 X27.9498 Y21.2006
G01 X27.9164 Y21.1382
G01 X27.8959 Y21.0704
G01 X27.8889 Y21.0000
G01 X27.8959 Y20.9296
G01 X27.9164 Y20.8618
G01 X27.9498 Y20.7994
G01 X27.9947 Y20.7447
G01 X28.0494 Y20.6998
G01 X28.1118 Y20.6664
G01 X28.1796 Y20.6459
G01 X28.2500 Y20.6389
G01 X28.3204 Y20.6459
G01 X28.3882 Y20.6664
G01 X28.4506 Y20.6998
G01 X28.5053 Y20.7447
G01 X28.5502 Y20.7994
G01 X28.5836 Y20.8618
G01 X28.6041 Y20.9296
G01 X28.6111 Y21.0000
G00 X28.6111 Y21.0000
G01 F50.00
G01 Z-2.4000
G01 F100.00
G01 X28.6041 Y20.9296
G01 X28.5836 Y20.8618
G01 X28.5502 Y20.7994
G01 X28.5053 Y20.7447
G01 X28.4506 Y20.6998
G01 X28.3882 Y20.6664
G01 X28.3204 Y20.6459
G01 X28.2500 Y20.6389
G01 X28.1796 Y20.6459
G01 X28.1118 Y20.6664
G01 X28.0494 Y20.6998
G01 X27.9947 Y20.7447
G01 X27.9498 Y20.7994
G01 X27.9164 Y20.8618
G01 X27.8959 Y20.9296
G01 X27.8889 Y21.0000
G01 X27.8959 Y21.0704
G01 X27.9164 Y21.1382
G01 X27.9498 Y21.2006
G01 X27.9947 Y21.2553
G01 X28.0494 Y21.3002
G01 X28.1118 Y21.3336
G01 X28.1796 Y21.3541
G01 X28.2500 Y21.3611
G01 X28.3204 Y21.3541
G01 X28.3882 Y21.3336
G01 X28.4506 Y21.3002
G01 X28.5053 Y21.2553
G01 X28.5502 Y21.2006
G01 X28.5836 Y21.1382
G01 X28.6041 Y21.0704
G01 X28.6111 Y21.0000
G00 Z2.0000
G01 F100.00
G00 Z2.0000

M03
G4 P1.0
G01 F100.00
G00 X20.4100 Y8.3000
G01 F50.00
G01 Z-0.8000
G01 F100.00
G01 X20.3916 Y8.1127
G01 X20.3369 Y7.9326
G01 X20.2482 Y7.7667
G01 X20.1288 Y7.6212
G01 X19.9833 Y7.5018
G01 X19.8174 Y7.4131
G01 X19.6373 Y7.3584
G01 X19.4500 Y7.3400
G01 X19.2627 Y7.3584
G01 X19.0826 Y7.4131
G01 X18.9167 Y7.5018
G01 X18.7712 Y7.6212
G01 X18.6518 Y7.7667
G01 X18.5631 Y7.9326
G01 X18.5084 Y8.1127
G01 X18.4900 Y8.3000
G01 X18.5084 Y8.4873
G01 X18.5631 Y8.6674
G01 X18.6518 Y8.8333
G01 X18.7712 Y8.9788
G01 X18.9167 Y9.0982
G01 X19.0826 Y9.1869
G01 X19.2627 Y9.2416
G01 X19.4500 Y9.2600
G01 X19.6373 Y9.2416
G01 X19.8174 Y9.1869
G01 X19.9833 Y9.0982
G01 X20.1288 Y8.9788
G01 X20.2482 Y8.8333
G01 X20.3369 Y8.6674
G01 X20.3916 Y8.4873
G01 X20.4100 Y8.3000
G00 X20.4100 Y8.3000
G01 F50.00
G01 Z-1.6000
G01 F100.00
G01 X20.3916 Y8.4873
G01 X20.3369 Y8.6674
G01 X20.2482 Y8.8333
G01 X20.1288 Y8.9788
G01 X19.9833 Y9.0982
G01 X19.8174 Y9.1869
G01 X19.6373 Y9.2416
G01 X19.4500 Y9.2600
G01 X19.2627 Y9.2416
G01 X19.0826 Y9.1869
G01 X18.9167 Y9.0982
G01 X18.7712 Y8.9788
G01 X18.6518 Y8.8333
G01 X18.5631 Y8.6674
G01 X18.5084 Y8.4873
G01 X18.4900 Y8.3000
G01 X18.5084 Y8.1127
G01 X18.5631 Y7.9326
G01 X18.6518 Y7.7667
G01 X18.7712 Y7.6212
G01 X18.9167 Y7.5018
G01 X19.0826 Y7.4131
G01 X19.2627 Y7.3584
G01 X19.4500 Y7.3400
G01 X19.6373 Y7.3584
G01 X19.8174 Y7.4131
G01 X19.9833 Y7.5018
G01 X20.1288 Y7.6212
G01 X20.2482 Y7.7667
G01 X20.3369 Y7.9326
G01 X20.3916 Y8.1127
G01 X20.4100 Y8.3000
G00 X20.4100 Y8.3000
G01 F50.00
G01 Z-2.4000
G01 F100.00
G01 X20.3916 Y8.1127
G01 X20.3369 Y7.9326
G01 X20.2482 Y7.7667
G01 X20.1288 Y7.6212
G01 X19.9833 Y7.5018
G01 X19.8174 Y7.4131
G01 X19.6373 Y7.3584
G01 X19.4500 Y7.3400
G01 X19.2627 Y7.3584
G01 X19.0826 Y7.4131
G01 X18.9167 Y7.5018
G01 X18.7712 Y7.6212
G01 X18.6518 Y7.7667
G01 X18.5631 Y7.9326
G01 X18.5084 Y8.1127
G01 X18.4900 Y8.3000
G01 X18.5084 Y8.4873
G01 X18.5631 Y8.6674
G01 X18.6518 Y8.8333
G01 X18.7712 Y8.9788
G01 X18.9167 Y9.0982
G01 X19.0826 Y9.1869
G01 X19.2627 Y9.2416
G01 X19.4500 Y9.2600
G01 X19.6373 Y9.2416
G01 X19.8174 Y9.1869
G01 X19.9833 Y9.0982
G01 X20.1288 Y8.9788
G01 X20.2482 Y8.8333
G01 X20.3369 Y8.6674
G01 X20.3916 Y8.4873
G01 X20.4100 Y8.3000
G00 Z2.0000
G00 X20.4986 Y8.3000
G01 F50.00
G01 Z-0.8000
G01 F100.00
G01 X20.4935 Y8.1972
G01 X20.4784 Y8.0954
G01 X20.4534 Y7.9956
G01 X20.4187 Y7.8987
G01 X20.3747 Y7.8057
G01 X20.3218 Y7.7175
G01 X20.2605 Y7.6348
G01 X20.1914 Y7.5586
G01 X20.1152 Y7.4895
G01 X20.0325 Y7.4282
G01 X19.9443 Y7.3753
G01 X19.8513 Y7.3313
G01 X19.7544 Y7.2966
G01 X19.6546 Y7.2716
G01 X19.5528 Y7.2565
G01 X19.4500 Y7.2514
G01 X19.3472 Y7.2565
G01 X19.2454 Y7.2716
G01 X19.1456 Y7.2966
G01 X19.0487 Y7.3313
G01 X18.9557 Y7.3753
G01 X18.8675 Y7.4282
G01 X18.7848 Y7.4895
G01 X18.7086 Y7.5586
G01 X18.6395 Y7.6348
G01 X18.5782 Y7.7175
G01 X18.5253 Y7.8057
G01 X18.4813 Y7.8987
G01 X18.4466 Y7.9956
G01 X18.4216 Y8.0954
G01 X18.4065 Y8.1972
G01 X18.4014 Y8.3000
G01 X18.4065 Y8.4028
G01 X18.4216 Y8.5046
G01 X18.4466 Y8.6044
G01 X18.4813 Y8.7013
G01 X18.5253 Y8.7943
G01 X18.5782 Y8.8825
G01 X18.6395 Y8.9652
G01 X18.7086 Y9.0414
G01 X18.7848 Y9.1105
G01 X18.8675 Y9.1718
G01 X18.9557 Y9.2247
G01 X19.0487 Y9.2687
G01 X19.1456 Y9.3034
G01 X19.2454 Y9.3284
G01 X19.3472 Y9.3435
G01 X19.4500 Y9.3486
G01 X19.5528 Y9.3435
G01 X19.6546 Y9.3284
G01 X19.7544 Y9.3034
G01 X19.8513 Y9.2687
G01 X19.9443 Y9.2247
G01 X20.0325 Y9.1718
G01 X20.1152 Y9.1105
G01 X20.1914 Y9.0414
G01 X20.2605 Y8.9652
G01 X20.3218 Y8.8825
G01 X20.3747 Y8.7943
G01 X20.4187 Y8.7013
G01 X20.4534 Y8.6044
G01 X20.4784 Y8.5046
G01 X20.4935 Y8.4028
G01 X20.4986 Y8.3000
G00 X20.4986 Y8.3000
G01 F50.00
G01 Z-1.6000
G01 F100.00
G01 X20.4935 Y8.4028
G01 X20.4784 Y8.5046
G01 X20.4534 Y8.6044
G01 X20.4187 Y8.7013
G01 X20.3747 Y8.7943
G01 X20.3218 Y8.8825
G01 X20.2605 Y8.9652
G01 X20.1914 Y9.0414
G01 X20.1152 Y9.1105
G01 X20.0325 Y9.1718
G01 X19.9443 Y9.2247
G01 X19.8513 Y9.2687
G01 X19.7544 Y9.3034
G01 X19.6546 Y9.3284
G01 X19.5528 Y9.3435
G01 X19.4500 Y9.3486
G01 X19.3472 Y9.3435
G01 X19.2454 Y9.3284
G01 X19.1456 Y9.3034
G01 X19.0487 Y9.2687
G01 X18.9557 Y9.2247
G01 X18.8675 Y9.1718
G01 X18.7848 Y9.1105
G01 X18.7086 Y9.0414
G01 X18.6395 Y8.9652
G01 X18.5782 Y8.8825
G01 X18.5253 Y8.7943
G01 X18.4813 Y8.7013
G01 X18.4466 Y8.6044
G01 X18.4216 Y8.5046
G01 X18.4065 Y8.4028
G01 X18.4014 Y8.3000
G01 X18.4065 Y8.1972
G01 X18.4216 Y8.0954
G01 X18.4466 Y7.9956
G01 X18.4813 Y7.8987
G01 X18.5253 Y7.8057
G01 X18.5782 Y7.7175
G01 X18.6395 Y7.6348
G01 X18.7086 Y7.5586
G01 X18.7848 Y7.4895
G01 X18.8675 Y7.4282
G01 X18.9557 Y7.3753
G01 X19.0487 Y7.3313
G01 X19.1456 Y7.2966
G01 X19.2454 Y7.2716
G01 X19.3472 Y7.2565
G01 X19.4500 Y7.2514
G01 X19.5528 Y7.2565
G01 X19.6546 Y7.2716
G01 X19.7544 Y7.2966
G01 X19.8513 Y7.3313
G01 X19.9443 Y7.3753
G01 X20.0325 Y7.4282
G01 X20.1152 Y7.4895
G01 X20.1914 Y7.5586
G01 X20.2605 Y7.6348
G01 X20.3218 Y7.7175
G01 X20.3747 Y7.8057
G01 X20.4187 Y7.8987
G01 X20.4534 Y7.9956
G01 X20.4784 Y8.0954
G01 X20.4935 Y8.1972
G01 X20.4986 Y8.3000
G00 X20.4986 Y8.3000
G01 F50.00
G01 Z-2.4000
G01 F100.00
G01 X20.4935 Y8.1972
G01 X20.4784 Y8.0954
G01 X20.4534 Y7.9956
G01 X20.4187 Y7.8987
G01 X20.3747 Y7.8057
G01 X20.3218 Y7.7175
G01 X20.2605 Y7.6348
G01 X20.1914 Y7.5586
G01 X20.1152 Y7.4895
G01 X20.0325 Y7.4282
G01 X19.9443 Y7.3753
G01 X19.8513 Y7.3313
G01 X19.7544 Y7.2966
G01 X19.6546 Y7.2716
G01 X19.5528 Y7.2565
G01 X19.4500 Y7.2514
G01 X19.3472 Y7.2565
G01 X19.2454 Y7.2716
G01 X19.1456 Y7.2966
G01 X19.0487 Y7.3313
G01 X18.9557 Y7.3753
G01 X18.8675 Y7.4282
G01 X18.7848 Y7.4895
G01 X18.7086 Y7.5586
G01 X18.6395 Y7.6348
G01 X18.5782 Y7.7175
G01 X18.5253 Y7.8057
G01 X18.4813 Y7.8987
G01 X18.4466 Y7.9956
G01 X18.4216 Y8.0954
G01 X18.4065 Y8.1972
G01 X18.4014 Y8.3000
G01 X18.4065 Y8.4028
G01 X18.4216 Y8.5046
G01 X18.4466 Y8.6044
G01 X18.4813 Y8.7013
G01 X18.5253 Y8.7943
G01 X18.5782 Y8.8825
G01 X18.6395 Y8.9652
G01 X18.7086 Y9.0414
G01 X18.7848 Y9.1105
G01 X18.8675 Y9.1718
G01 X18.9557 Y9.2247
G01 X19.0487 Y9.2687
G01 X19.1456 Y9.3034
G01 X19.2454 Y9.3284
G01 X19.3472 Y9.3435
G01 X19.4500 Y9.3486
G01 X19.5528 Y9.3435
G01 X19.6546 Y9.3284
G01 X19.7544 Y9.3034
G01 X19.8513 Y9.2687
G01 X19.9443 Y9.2247
G01 X20.0325 Y9.1718
G01 X20.1152 Y9.1105
G01 X20.1914 Y9.0414
G01 X20.2605 Y8.9652
G01 X20.3218 Y8.8825
G01 X20.3747 Y8.7943
G01 X20.4187 Y8.7013
G01 X20.4534 Y8.6044
G01 X20.4784 Y8.5046
G01 X20.4935 Y8.4028
G01 X20.4986 Y8.3000
G00 Z2.0000
M05
G00 Z2.0000
G00 Z2.00


