(G-code generated by FlatCAM Evo vUnstable - Version Date: 2023/6/31)

(Name: Toolhead PCB-Edge_Cuts_cutout_cnc)
(Type: G-code from Geometry)
(Units: MM)

(Created on Friday, 26 September 2025 at 12:28)

(This preprocessor is the default preprocessor.)
(It is made to work with MACH3 compatible motion controllers.)

(TOOL DIAMETER: 2.0 mm)
(Feedrate_XY: 100.0 mm/min)
(Feedrate_Z: 50.0 mm/min)
(Feedrate rapids 1500.0 mm/min)

(Z_Cut: -2.0 mm)
(DepthPerCut: 0.6 mm <=>4 passes)
(Z_Move: 2.0 mm)
(Z Start: None mm)
(Z End: 2.0 mm)
(X,Y End: None mm)
(Steps per circle: 16)
(Preprocessor Geometry: default)

(X range:   -1.0550 ...   38.8250  mm)
(Y range:    4.3750 ...   30.1250  mm)

(Spindle Speed: 0.0 RPM)
G21
G90
G94

G01 F100.00
G00 Z2.0000

M03
G4 P1.0
G01 F100.00
G00 X-1.0550 Y15.7500
G01 F50.00
G01 Z-0.6000
G01 F100.00
G01 X-1.0550 Y5.4750
G01 X-1.0497 Y5.3672
G01 X-1.0339 Y5.2604
G01 X-1.0076 Y5.1557
G01 X-0.9713 Y5.0540
G01 X-0.9251 Y4.9565
G01 X-0.8696 Y4.8639
G01 X-0.8053 Y4.7772
G01 X-0.7328 Y4.6972
G01 X-0.6528 Y4.6247
G01 X-0.5661 Y4.5604
G01 X-0.4735 Y4.5049
G01 X-0.3760 Y4.4587
G01 X-0.2743 Y4.4224
G01 X-0.1696 Y4.3961
G01 X-0.0628 Y4.3803
G01 X0.0450 Y4.3750
G01 X37.7250 Y4.3750
G01 X37.8328 Y4.3803
G01 X37.9396 Y4.3961
G01 X38.0443 Y4.4224
G01 X38.1460 Y4.4587
G01 X38.2435 Y4.5049
G01 X38.3361 Y4.5604
G01 X38.4228 Y4.6247
G01 X38.5028 Y4.6972
G01 X38.5753 Y4.7772
G01 X38.6396 Y4.8639
G01 X38.6951 Y4.9565
G01 X38.7413 Y5.0540
G01 X38.7776 Y5.1557
G01 X38.8039 Y5.2604
G01 X38.8197 Y5.3672
G01 X38.8250 Y5.4750
G01 X38.8250 Y15.7500
G00 X38.8250 Y15.7500
G01 F50.00
G01 Z-1.2000
G01 F100.00
G01 X38.8250 Y5.4750
G01 X38.8197 Y5.3672
G01 X38.8039 Y5.2604
G01 X38.7776 Y5.1557
G01 X38.7413 Y5.0540
G01 X38.6951 Y4.9565
G01 X38.6396 Y4.8639
G01 X38.5753 Y4.7772
G01 X38.5028 Y4.6972
G01 X38.4228 Y4.6247
G01 X38.3361 Y4.5604
G01 X38.2435 Y4.5049
G01 X38.1460 Y4.4587
G01 X38.0443 Y4.4224
G01 X37.9396 Y4.3961
G01 X37.8328 Y4.3803
G01 X37.7250 Y4.3750
G01 X0.0450 Y4.3750
G01 X-0.0628 Y4.3803
G01 X-0.1696 Y4.3961
G01 X-0.2743 Y4.4224
G01 X-0.3760 Y4.4587
G01 X-0.4735 Y4.5049
G01 X-0.5661 Y4.5604
G01 X-0.6528 Y4.6247
G01 X-0.7328 Y4.6972
G01 X-0.8053 Y4.7772
G01 X-0.8696 Y4.8639
G01 X-0.9251 Y4.9565
G01 X-0.9713 Y5.0540
G01 X-1.0076 Y5.1557
G01 X-1.0339 Y5.2604
G01 X-1.0497 Y5.3672
G01 X-1.0550 Y5.4750
G01 X-1.0550 Y15.7500
G00 X-1.0550 Y15.7500
G01 F50.00
G01 Z-1.8000
G01 F100.00
G01 X-1.0550 Y5.4750
G01 X-1.0497 Y5.3672
G01 X-1.0339 Y5.2604
G01 X-1.0076 Y5.1557
G01 X-0.9713 Y5.0540
G01 X-0.9251 Y4.9565
G01 X-0.8696 Y4.8639
G01 X-0.8053 Y4.7772
G01 X-0.7328 Y4.6972
G01 X-0.6528 Y4.6247
G01 X-0.5661 Y4.5604
G01 X-0.4735 Y4.5049
G01 X-0.3760 Y4.4587
G01 X-0.2743 Y4.4224
G01 X-0.1696 Y4.3961
G01 X-0.0628 Y4.3803
G01 X0.0450 Y4.3750
G01 X37.7250 Y4.3750
G01 X37.8328 Y4.3803
G01 X37.9396 Y4.3961
G01 X38.0443 Y4.4224
G01 X38.1460 Y4.4587
G01 X38.2435 Y4.5049
G01 X38.3361 Y4.5604
G01 X38.4228 Y4.6247
G01 X38.5028 Y4.6972
G01 X38.5753 Y4.7772
G01 X38.6396 Y4.8639
G01 X38.6951 Y4.9565
G01 X38.7413 Y5.0540
G01 X38.7776 Y5.1557
G01 X38.8039 Y5.2604
G01 X38.8197 Y5.3672
G01 X38.8250 Y5.4750
G01 X38.8250 Y15.7500
G00 X38.8250 Y15.7500
G01 F50.00
G01 Z-2.0000
G01 F100.00
G01 X38.8250 Y5.4750
G01 X38.8197 Y5.3672
G01 X38.8039 Y5.2604
G01 X38.7776 Y5.1557
G01 X38.7413 Y5.0540
G01 X38.6951 Y4.9565
G01 X38.6396 Y4.8639
G01 X38.5753 Y4.7772
G01 X38.5028 Y4.6972
G01 X38.4228 Y4.6247
G01 X38.3361 Y4.5604
G01 X38.2435 Y4.5049
G01 X38.1460 Y4.4587
G01 X38.0443 Y4.4224
G01 X37.9396 Y4.3961
G01 X37.8328 Y4.3803
G01 X37.7250 Y4.3750
G01 X0.0450 Y4.3750
G01 X-0.0628 Y4.3803
G01 X-0.1696 Y4.3961
G01 X-0.2743 Y4.4224
G01 X-0.3760 Y4.4587
G01 X-0.4735 Y4.5049
G01 X-0.5661 Y4.5604
G01 X-0.6528 Y4.6247
G01 X-0.7328 Y4.6972
G01 X-0.8053 Y4.7772
G01 X-0.8696 Y4.8639
G01 X-0.9251 Y4.9565
G01 X-0.9713 Y5.0540
G01 X-1.0076 Y5.1557
G01 X-1.0339 Y5.2604
G01 X-1.0497 Y5.3672
G01 X-1.0550 Y5.4750
G01 X-1.0550 Y15.7500
G00 Z2.0000
G00 X-1.0550 Y18.7500
G01 F50.00
G01 Z-0.6000
G01 F100.00
G01 X-1.0550 Y29.0250
G01 X-1.0497 Y29.1328
G01 X-1.0339 Y29.2396
G01 X-1.0076 Y29.3443
G01 X-0.9713 Y29.4460
G01 X-0.9251 Y29.5435
G01 X-0.8696 Y29.6361
G01 X-0.8053 Y29.7228
G01 X-0.7328 Y29.8028
G01 X-0.6528 Y29.8753
G01 X-0.5661 Y29.9396
G01 X-0.4735 Y29.9951
G01 X-0.3760 Y30.0413
G01 X-0.2743 Y30.0776
G01 X-0.1696 Y30.1039
G01 X-0.0628 Y30.1197
G01 X0.0450 Y30.1250
G01 X37.7250 Y30.1250
G01 X37.8328 Y30.1197
G01 X37.9396 Y30.1039
G01 X38.0443 Y30.0776
G01 X38.1460 Y30.0413
G01 X38.2435 Y29.9951
G01 X38.3361 Y29.9396
G01 X38.4228 Y29.8753
G01 X38.5028 Y29.8028
G01 X38.5753 Y29.7228
G01 X38.6396 Y29.6361
G01 X38.6951 Y29.5435
G01 X38.7413 Y29.4460
G01 X38.7776 Y29.3443
G01 X38.8039 Y29.2396
G01 X38.8197 Y29.1328
G01 X38.8250 Y29.0250
G01 X38.8250 Y18.7500
G00 X38.8250 Y18.7500
G01 F50.00
G01 Z-1.2000
G01 F100.00
G01 X38.8250 Y29.0250
G01 X38.8197 Y29.1328
G01 X38.8039 Y29.2396
G01 X38.7776 Y29.3443
G01 X38.7413 Y29.4460
G01 X38.6951 Y29.5435
G01 X38.6396 Y29.6361
G01 X38.5753 Y29.7228
G01 X38.5028 Y29.8028
G01 X38.4228 Y29.8753
G01 X38.3361 Y29.9396
G01 X38.2435 Y29.9951
G01 X38.1460 Y30.0413
G01 X38.0443 Y30.0776
G01 X37.9396 Y30.1039
G01 X37.8328 Y30.1197
G01 X37.7250 Y30.1250
G01 X0.0450 Y30.1250
G01 X-0.0628 Y30.1197
G01 X-0.1696 Y30.1039
G01 X-0.2743 Y30.0776
G01 X-0.3760 Y30.0413
G01 X-0.4735 Y29.9951
G01 X-0.5661 Y29.9396
G01 X-0.6528 Y29.8753
G01 X-0.7328 Y29.8028
G01 X-0.8053 Y29.7228
G01 X-0.8696 Y29.6361
G01 X-0.9251 Y29.5435
G01 X-0.9713 Y29.4460
G01 X-1.0076 Y29.3443
G01 X-1.0339 Y29.2396
G01 X-1.0497 Y29.1328
G01 X-1.0550 Y29.0250
G01 X-1.0550 Y18.7500
G00 X-1.0550 Y18.7500
G01 F50.00
G01 Z-1.8000
G01 F100.00
G01 X-1.0550 Y29.0250
G01 X-1.0497 Y29.1328
G01 X-1.0339 Y29.2396
G01 X-1.0076 Y29.3443
G01 X-0.9713 Y29.4460
G01 X-0.9251 Y29.5435
G01 X-0.8696 Y29.6361
G01 X-0.8053 Y29.7228
G01 X-0.7328 Y29.8028
G01 X-0.6528 Y29.8753
G01 X-0.5661 Y29.9396
G01 X-0.4735 Y29.9951
G01 X-0.3760 Y30.0413
G01 X-0.2743 Y30.0776
G01 X-0.1696 Y30.1039
G01 X-0.0628 Y30.1197
G01 X0.0450 Y30.1250
G01 X37.7250 Y30.1250
G01 X37.8328 Y30.1197
G01 X37.9396 Y30.1039
G01 X38.0443 Y30.0776
G01 X38.1460 Y30.0413
G01 X38.2435 Y29.9951
G01 X38.3361 Y29.9396
G01 X38.4228 Y29.8753
G01 X38.5028 Y29.8028
G01 X38.5753 Y29.7228
G01 X38.6396 Y29.6361
G01 X38.6951 Y29.5435
G01 X38.7413 Y29.4460
G01 X38.7776 Y29.3443
G01 X38.8039 Y29.2396
G01 X38.8197 Y29.1328
G01 X38.8250 Y29.0250
G01 X38.8250 Y18.7500
G00 X38.8250 Y18.7500
G01 F50.00
G01 Z-2.0000
G01 F100.00
G01 X38.8250 Y29.0250
G01 X38.8197 Y29.1328
G01 X38.8039 Y29.2396
G01 X38.7776 Y29.3443
G01 X38.7413 Y29.4460
G01 X38.6951 Y29.5435
G01 X38.6396 Y29.6361
G01 X38.5753 Y29.7228
G01 X38.5028 Y29.8028
G01 X38.4228 Y29.8753
G01 X38.3361 Y29.9396
G01 X38.2435 Y29.9951
G01 X38.1460 Y30.0413
G01 X38.0443 Y30.0776
G01 X37.9396 Y30.1039
G01 X37.8328 Y30.1197
G01 X37.7250 Y30.1250
G01 X0.0450 Y30.1250
G01 X-0.0628 Y30.1197
G01 X-0.1696 Y30.1039
G01 X-0.2743 Y30.0776
G01 X-0.3760 Y30.0413
G01 X-0.4735 Y29.9951
G01 X-0.5661 Y29.9396
G01 X-0.6528 Y29.8753
G01 X-0.7328 Y29.8028
G01 X-0.8053 Y29.7228
G01 X-0.8696 Y29.6361
G01 X-0.9251 Y29.5435
G01 X-0.9713 Y29.4460
G01 X-1.0076 Y29.3443
G01 X-1.0339 Y29.2396
G01 X-1.0497 Y29.1328
G01 X-1.0550 Y29.0250
G01 X-1.0550 Y18.7500
G00 Z2.0000
M05
G00 Z2.0000
G00 Z2.00


