(G-code generated by FlatCAM Evo vUnstable - Version Date: 2023/6/31)

(Name: Toolhead PCB-Edge_Cuts_cutout_cnc)
(Type: G-code from Geometry)
(Units: MM)

(Created on Thursday, 25 September 2025 at 15:03)

(This preprocessor is the default preprocessor.)
(It is made to work with MACH3 compatible motion controllers.)

(TOOL DIAMETER: 2.4 mm)
(Feedrate_XY: 100.0 mm/min)
(Feedrate_Z: 50.0 mm/min)
(Feedrate rapids 1500.0 mm/min)

(Z_Cut: -2.0 mm)
(DepthPerCut: 0.6 mm <=>4 passes)
(Z_Move: 2.0 mm)
(Z Start: None mm)
(Z End: 2.0 mm)
(X,Y End: None mm)
(Steps per circle: 16)
(Preprocessor Geometry: default)

(X range:   -1.1550 ...   38.9250  mm)
(Y range:    4.2750 ...   30.2250  mm)

(Spindle Speed: 0.0 RPM)
G21
G90
G94

G01 F100.00
G00 Z2.0000

M03
G4 P1.0
G01 F100.00
G00 X-1.1550 Y15.0500
G01 F50.00
G01 Z-0.6000
G01 F100.00
G01 X-1.1550 Y5.4750
G01 X-1.1492 Y5.3574
G01 X-1.1320 Y5.2409
G01 X-1.1033 Y5.1266
G01 X-1.0637 Y5.0158
G01 X-1.0133 Y4.9093
G01 X-0.9528 Y4.8083
G01 X-0.8826 Y4.7137
G01 X-0.8035 Y4.6265
G01 X-0.7163 Y4.5474
G01 X-0.6217 Y4.4772
G01 X-0.5207 Y4.4167
G01 X-0.4142 Y4.3663
G01 X-0.3034 Y4.3267
G01 X-0.1891 Y4.2980
G01 X-0.0726 Y4.2808
G01 X0.0450 Y4.2750
G01 X37.7250 Y4.2750
G01 X37.8426 Y4.2808
G01 X37.9591 Y4.2980
G01 X38.0734 Y4.3267
G01 X38.1842 Y4.3663
G01 X38.2907 Y4.4167
G01 X38.3917 Y4.4772
G01 X38.4863 Y4.5474
G01 X38.5735 Y4.6265
G01 X38.6526 Y4.7137
G01 X38.7228 Y4.8083
G01 X38.7833 Y4.9093
G01 X38.8337 Y5.0158
G01 X38.8733 Y5.1266
G01 X38.9020 Y5.2409
G01 X38.9192 Y5.3574
G01 X38.9250 Y5.4750
G01 X38.9250 Y15.0500
G00 X38.9250 Y15.0500
G01 F50.00
G01 Z-1.2000
G01 F100.00
G01 X38.9250 Y5.4750
G01 X38.9192 Y5.3574
G01 X38.9020 Y5.2409
G01 X38.8733 Y5.1266
G01 X38.8337 Y5.0158
G01 X38.7833 Y4.9093
G01 X38.7228 Y4.8083
G01 X38.6526 Y4.7137
G01 X38.5735 Y4.6265
G01 X38.4863 Y4.5474
G01 X38.3917 Y4.4772
G01 X38.2907 Y4.4167
G01 X38.1842 Y4.3663
G01 X38.0734 Y4.3267
G01 X37.9591 Y4.2980
G01 X37.8426 Y4.2808
G01 X37.7250 Y4.2750
G01 X0.0450 Y4.2750
G01 X-0.0726 Y4.2808
G01 X-0.1891 Y4.2980
G01 X-0.3034 Y4.3267
G01 X-0.4142 Y4.3663
G01 X-0.5207 Y4.4167
G01 X-0.6217 Y4.4772
G01 X-0.7163 Y4.5474
G01 X-0.8035 Y4.6265
G01 X-0.8826 Y4.7137
G01 X-0.9528 Y4.8083
G01 X-1.0133 Y4.9093
G01 X-1.0637 Y5.0158
G01 X-1.1033 Y5.1266
G01 X-1.1320 Y5.2409
G01 X-1.1492 Y5.3574
G01 X-1.1550 Y5.4750
G01 X-1.1550 Y15.0500
G00 X-1.1550 Y15.0500
G01 F50.00
G01 Z-1.8000
G01 F100.00
G01 X-1.1550 Y5.4750
G01 X-1.1492 Y5.3574
G01 X-1.1320 Y5.2409
G01 X-1.1033 Y5.1266
G01 X-1.0637 Y5.0158
G01 X-1.0133 Y4.9093
G01 X-0.9528 Y4.8083
G01 X-0.8826 Y4.7137
G01 X-0.8035 Y4.6265
G01 X-0.7163 Y4.5474
G01 X-0.6217 Y4.4772
G01 X-0.5207 Y4.4167
G01 X-0.4142 Y4.3663
G01 X-0.3034 Y4.3267
G01 X-0.1891 Y4.2980
G01 X-0.0726 Y4.2808
G01 X0.0450 Y4.2750
G01 X37.7250 Y4.2750
G01 X37.8426 Y4.2808
G01 X37.9591 Y4.2980
G01 X38.0734 Y4.3267
G01 X38.1842 Y4.3663
G01 X38.2907 Y4.4167
G01 X38.3917 Y4.4772
G01 X38.4863 Y4.5474
G01 X38.5735 Y4.6265
G01 X38.6526 Y4.7137
G01 X38.7228 Y4.8083
G01 X38.7833 Y4.9093
G01 X38.8337 Y5.0158
G01 X38.8733 Y5.1266
G01 X38.9020 Y5.2409
G01 X38.9192 Y5.3574
G01 X38.9250 Y5.4750
G01 X38.9250 Y15.0500
G00 X38.9250 Y15.0500
G01 F50.00
G01 Z-2.0000
G01 F100.00
G01 X38.9250 Y5.4750
G01 X38.9192 Y5.3574
G01 X38.9020 Y5.2409
G01 X38.8733 Y5.1266
G01 X38.8337 Y5.0158
G01 X38.7833 Y4.9093
G01 X38.7228 Y4.8083
G01 X38.6526 Y4.7137
G01 X38.5735 Y4.6265
G01 X38.4863 Y4.5474
G01 X38.3917 Y4.4772
G01 X38.2907 Y4.4167
G01 X38.1842 Y4.3663
G01 X38.0734 Y4.3267
G01 X37.9591 Y4.2980
G01 X37.8426 Y4.2808
G01 X37.7250 Y4.2750
G01 X0.0450 Y4.2750
G01 X-0.0726 Y4.2808
G01 X-0.1891 Y4.2980
G01 X-0.3034 Y4.3267
G01 X-0.4142 Y4.3663
G01 X-0.5207 Y4.4167
G01 X-0.6217 Y4.4772
G01 X-0.7163 Y4.5474
G01 X-0.8035 Y4.6265
G01 X-0.8826 Y4.7137
G01 X-0.9528 Y4.8083
G01 X-1.0133 Y4.9093
G01 X-1.0637 Y5.0158
G01 X-1.1033 Y5.1266
G01 X-1.1320 Y5.2409
G01 X-1.1492 Y5.3574
G01 X-1.1550 Y5.4750
G01 X-1.1550 Y15.0500
G00 Z2.0000
G00 X-1.1550 Y19.4500
G01 F50.00
G01 Z-0.6000
G01 F100.00
G01 X-1.1550 Y29.0250
G01 X-1.1492 Y29.1426
G01 X-1.1320 Y29.2591
G01 X-1.1033 Y29.3734
G01 X-1.0637 Y29.4842
G01 X-1.0133 Y29.5907
G01 X-0.9528 Y29.6917
G01 X-0.8826 Y29.7863
G01 X-0.8035 Y29.8735
G01 X-0.7163 Y29.9526
G01 X-0.6217 Y30.0228
G01 X-0.5207 Y30.0833
G01 X-0.4142 Y30.1337
G01 X-0.3034 Y30.1733
G01 X-0.1891 Y30.2020
G01 X-0.0726 Y30.2192
G01 X0.0450 Y30.2250
G01 X37.7250 Y30.2250
G01 X37.8426 Y30.2192
G01 X37.9591 Y30.2020
G01 X38.0734 Y30.1733
G01 X38.1842 Y30.1337
G01 X38.2907 Y30.0833
G01 X38.3917 Y30.0228
G01 X38.4863 Y29.9526
G01 X38.5735 Y29.8735
G01 X38.6526 Y29.7863
G01 X38.7228 Y29.6917
G01 X38.7833 Y29.5907
G01 X38.8337 Y29.4842
G01 X38.8733 Y29.3734
G01 X38.9020 Y29.2591
G01 X38.9192 Y29.1426
G01 X38.9250 Y29.0250
G01 X38.9250 Y19.4500
G00 X38.9250 Y19.4500
G01 F50.00
G01 Z-1.2000
G01 F100.00
G01 X38.9250 Y29.0250
G01 X38.9192 Y29.1426
G01 X38.9020 Y29.2591
G01 X38.8733 Y29.3734
G01 X38.8337 Y29.4842
G01 X38.7833 Y29.5907
G01 X38.7228 Y29.6917
G01 X38.6526 Y29.7863
G01 X38.5735 Y29.8735
G01 X38.4863 Y29.9526
G01 X38.3917 Y30.0228
G01 X38.2907 Y30.0833
G01 X38.1842 Y30.1337
G01 X38.0734 Y30.1733
G01 X37.9591 Y30.2020
G01 X37.8426 Y30.2192
G01 X37.7250 Y30.2250
G01 X0.0450 Y30.2250
G01 X-0.0726 Y30.2192
G01 X-0.1891 Y30.2020
G01 X-0.3034 Y30.1733
G01 X-0.4142 Y30.1337
G01 X-0.5207 Y30.0833
G01 X-0.6217 Y30.0228
G01 X-0.7163 Y29.9526
G01 X-0.8035 Y29.8735
G01 X-0.8826 Y29.7863
G01 X-0.9528 Y29.6917
G01 X-1.0133 Y29.5907
G01 X-1.0637 Y29.4842
G01 X-1.1033 Y29.3734
G01 X-1.1320 Y29.2591
G01 X-1.1492 Y29.1426
G01 X-1.1550 Y29.0250
G01 X-1.1550 Y19.4500
G00 X-1.1550 Y19.4500
G01 F50.00
G01 Z-1.8000
G01 F100.00
G01 X-1.1550 Y29.0250
G01 X-1.1492 Y29.1426
G01 X-1.1320 Y29.2591
G01 X-1.1033 Y29.3734
G01 X-1.0637 Y29.4842
G01 X-1.0133 Y29.5907
G01 X-0.9528 Y29.6917
G01 X-0.8826 Y29.7863
G01 X-0.8035 Y29.8735
G01 X-0.7163 Y29.9526
G01 X-0.6217 Y30.0228
G01 X-0.5207 Y30.0833
G01 X-0.4142 Y30.1337
G01 X-0.3034 Y30.1733
G01 X-0.1891 Y30.2020
G01 X-0.0726 Y30.2192
G01 X0.0450 Y30.2250
G01 X37.7250 Y30.2250
G01 X37.8426 Y30.2192
G01 X37.9591 Y30.2020
G01 X38.0734 Y30.1733
G01 X38.1842 Y30.1337
G01 X38.2907 Y30.0833
G01 X38.3917 Y30.0228
G01 X38.4863 Y29.9526
G01 X38.5735 Y29.8735
G01 X38.6526 Y29.7863
G01 X38.7228 Y29.6917
G01 X38.7833 Y29.5907
G01 X38.8337 Y29.4842
G01 X38.8733 Y29.3734
G01 X38.9020 Y29.2591
G01 X38.9192 Y29.1426
G01 X38.9250 Y29.0250
G01 X38.9250 Y19.4500
G00 X38.9250 Y19.4500
G01 F50.00
G01 Z-2.0000
G01 F100.00
G01 X38.9250 Y29.0250
G01 X38.9192 Y29.1426
G01 X38.9020 Y29.2591
G01 X38.8733 Y29.3734
G01 X38.8337 Y29.4842
G01 X38.7833 Y29.5907
G01 X38.7228 Y29.6917
G01 X38.6526 Y29.7863
G01 X38.5735 Y29.8735
G01 X38.4863 Y29.9526
G01 X38.3917 Y30.0228
G01 X38.2907 Y30.0833
G01 X38.1842 Y30.1337
G01 X38.0734 Y30.1733
G01 X37.9591 Y30.2020
G01 X37.8426 Y30.2192
G01 X37.7250 Y30.2250
G01 X0.0450 Y30.2250
G01 X-0.0726 Y30.2192
G01 X-0.1891 Y30.2020
G01 X-0.3034 Y30.1733
G01 X-0.4142 Y30.1337
G01 X-0.5207 Y30.0833
G01 X-0.6217 Y30.0228
G01 X-0.7163 Y29.9526
G01 X-0.8035 Y29.8735
G01 X-0.8826 Y29.7863
G01 X-0.9528 Y29.6917
G01 X-1.0133 Y29.5907
G01 X-1.0637 Y29.4842
G01 X-1.1033 Y29.3734
G01 X-1.1320 Y29.2591
G01 X-1.1492 Y29.1426
G01 X-1.1550 Y29.0250
G01 X-1.1550 Y19.4500
G00 Z2.0000
M05
G00 Z2.0000
G00 Z2.00


