(G-code generated by FlatCAM Evo vUnstable - Version Date: 2023/6/31)

(Name: Toolhead PCB-Edge_Cuts_cutout_cnc)
(Type: G-code from Geometry)
(Units: MM)

(Created on Thursday, 25 September 2025 at 23:47)

(This preprocessor is the default preprocessor.)
(It is made to work with MACH3 compatible motion controllers.)

(TOOL DIAMETER: 2.4 mm)
(Feedrate_XY: 100.0 mm/min)
(Feedrate_Z: 50.0 mm/min)
(Feedrate rapids 1500.0 mm/min)

(Z_Cut: -1.8 mm)
(DepthPerCut: 0.6 mm <=>3 passes)
(Z_Move: 2.0 mm)
(Z Start: None mm)
(Z End: 2.0 mm)
(X,Y End: None mm)
(Steps per circle: 16)
(Preprocessor Geometry: default)

(X range:   -1.2550 ...   39.0250  mm)
(Y range:    4.1750 ...   30.3250  mm)

(Spindle Speed: 0.0 RPM)
G21
G90
G94

G01 F100.00
G00 Z2.0000

M03
G01 F100.00
G00 X-1.2550 Y15.5500
G01 F50.00
G01 Z-0.6000
G01 F100.00
G01 X-1.2550 Y5.4750
G01 X-1.2488 Y5.3476
G01 X-1.2300 Y5.2214
G01 X-1.1990 Y5.0976
G01 X-1.1561 Y4.9775
G01 X-1.1015 Y4.8622
G01 X-1.0359 Y4.7527
G01 X-0.9599 Y4.6503
G01 X-0.8743 Y4.5557
G01 X-0.7797 Y4.4701
G01 X-0.6773 Y4.3941
G01 X-0.5678 Y4.3285
G01 X-0.4525 Y4.2739
G01 X-0.3324 Y4.2310
G01 X-0.2086 Y4.2000
G01 X-0.0824 Y4.1812
G01 X0.0450 Y4.1750
G01 X37.7250 Y4.1750
G01 X37.8524 Y4.1812
G01 X37.9786 Y4.2000
G01 X38.1024 Y4.2310
G01 X38.2225 Y4.2739
G01 X38.3378 Y4.3285
G01 X38.4473 Y4.3941
G01 X38.5497 Y4.4701
G01 X38.6443 Y4.5557
G01 X38.7299 Y4.6503
G01 X38.8059 Y4.7527
G01 X38.8715 Y4.8622
G01 X38.9261 Y4.9775
G01 X38.9690 Y5.0976
G01 X39.0000 Y5.2214
G01 X39.0188 Y5.3476
G01 X39.0250 Y5.4750
G01 X39.0250 Y15.5500
G00 X39.0250 Y15.5500
G01 F50.00
G01 Z-1.2000
G01 F100.00
G01 X39.0250 Y5.4750
G01 X39.0188 Y5.3476
G01 X39.0000 Y5.2214
G01 X38.9690 Y5.0976
G01 X38.9261 Y4.9775
G01 X38.8715 Y4.8622
G01 X38.8059 Y4.7527
G01 X38.7299 Y4.6503
G01 X38.6443 Y4.5557
G01 X38.5497 Y4.4701
G01 X38.4473 Y4.3941
G01 X38.3378 Y4.3285
G01 X38.2225 Y4.2739
G01 X38.1024 Y4.2310
G01 X37.9786 Y4.2000
G01 X37.8524 Y4.1812
G01 X37.7250 Y4.1750
G01 X0.0450 Y4.1750
G01 X-0.0824 Y4.1812
G01 X-0.2086 Y4.2000
G01 X-0.3324 Y4.2310
G01 X-0.4525 Y4.2739
G01 X-0.5678 Y4.3285
G01 X-0.6773 Y4.3941
G01 X-0.7797 Y4.4701
G01 X-0.8743 Y4.5557
G01 X-0.9599 Y4.6503
G01 X-1.0359 Y4.7527
G01 X-1.1015 Y4.8622
G01 X-1.1561 Y4.9775
G01 X-1.1990 Y5.0976
G01 X-1.2300 Y5.2214
G01 X-1.2488 Y5.3476
G01 X-1.2550 Y5.4750
G01 X-1.2550 Y15.5500
G00 X-1.2550 Y15.5500
G01 F50.00
G01 Z-1.8000
G01 F100.00
G01 X-1.2550 Y5.4750
G01 X-1.2488 Y5.3476
G01 X-1.2300 Y5.2214
G01 X-1.1990 Y5.0976
G01 X-1.1561 Y4.9775
G01 X-1.1015 Y4.8622
G01 X-1.0359 Y4.7527
G01 X-0.9599 Y4.6503
G01 X-0.8743 Y4.5557
G01 X-0.7797 Y4.4701
G01 X-0.6773 Y4.3941
G01 X-0.5678 Y4.3285
G01 X-0.4525 Y4.2739
G01 X-0.3324 Y4.2310
G01 X-0.2086 Y4.2000
G01 X-0.0824 Y4.1812
G01 X0.0450 Y4.1750
G01 X37.7250 Y4.1750
G01 X37.8524 Y4.1812
G01 X37.9786 Y4.2000
G01 X38.1024 Y4.2310
G01 X38.2225 Y4.2739
G01 X38.3378 Y4.3285
G01 X38.4473 Y4.3941
G01 X38.5497 Y4.4701
G01 X38.6443 Y4.5557
G01 X38.7299 Y4.6503
G01 X38.8059 Y4.7527
G01 X38.8715 Y4.8622
G01 X38.9261 Y4.9775
G01 X38.9690 Y5.0976
G01 X39.0000 Y5.2214
G01 X39.0188 Y5.3476
G01 X39.0250 Y5.4750
G01 X39.0250 Y15.5500
G00 Z2.0000
G00 X-1.2550 Y18.9500
G01 F50.00
G01 Z-0.6000
G01 F100.00
G01 X-1.2550 Y29.0250
G01 X-1.2488 Y29.1524
G01 X-1.2300 Y29.2786
G01 X-1.1990 Y29.4024
G01 X-1.1561 Y29.5225
G01 X-1.1015 Y29.6378
G01 X-1.0359 Y29.7473
G01 X-0.9599 Y29.8497
G01 X-0.8743 Y29.9443
G01 X-0.7797 Y30.0299
G01 X-0.6773 Y30.1059
G01 X-0.5678 Y30.1715
G01 X-0.4525 Y30.2261
G01 X-0.3324 Y30.2690
G01 X-0.2086 Y30.3000
G01 X-0.0824 Y30.3188
G01 X0.0450 Y30.3250
G01 X37.7250 Y30.3250
G01 X37.8524 Y30.3188
G01 X37.9786 Y30.3000
G01 X38.1024 Y30.2690
G01 X38.2225 Y30.2261
G01 X38.3378 Y30.1715
G01 X38.4473 Y30.1059
G01 X38.5497 Y30.0299
G01 X38.6443 Y29.9443
G01 X38.7299 Y29.8497
G01 X38.8059 Y29.7473
G01 X38.8715 Y29.6378
G01 X38.9261 Y29.5225
G01 X38.9690 Y29.4024
G01 X39.0000 Y29.2786
G01 X39.0188 Y29.1524
G01 X39.0250 Y29.0250
G01 X39.0250 Y18.9500
G00 X39.0250 Y18.9500
G01 F50.00
G01 Z-1.2000
G01 F100.00
G01 X39.0250 Y29.0250
G01 X39.0188 Y29.1524
G01 X39.0000 Y29.2786
G01 X38.9690 Y29.4024
G01 X38.9261 Y29.5225
G01 X38.8715 Y29.6378
G01 X38.8059 Y29.7473
G01 X38.7299 Y29.8497
G01 X38.6443 Y29.9443
G01 X38.5497 Y30.0299
G01 X38.4473 Y30.1059
G01 X38.3378 Y30.1715
G01 X38.2225 Y30.2261
G01 X38.1024 Y30.2690
G01 X37.9786 Y30.3000
G01 X37.8524 Y30.3188
G01 X37.7250 Y30.3250
G01 X0.0450 Y30.3250
G01 X-0.0824 Y30.3188
G01 X-0.2086 Y30.3000
G01 X-0.3324 Y30.2690
G01 X-0.4525 Y30.2261
G01 X-0.5678 Y30.1715
G01 X-0.6773 Y30.1059
G01 X-0.7797 Y30.0299
G01 X-0.8743 Y29.9443
G01 X-0.9599 Y29.8497
G01 X-1.0359 Y29.7473
G01 X-1.1015 Y29.6378
G01 X-1.1561 Y29.5225
G01 X-1.1990 Y29.4024
G01 X-1.2300 Y29.2786
G01 X-1.2488 Y29.1524
G01 X-1.2550 Y29.0250
G01 X-1.2550 Y18.9500
G00 X-1.2550 Y18.9500
G01 F50.00
G01 Z-1.8000
G01 F100.00
G01 X-1.2550 Y29.0250
G01 X-1.2488 Y29.1524
G01 X-1.2300 Y29.2786
G01 X-1.1990 Y29.4024
G01 X-1.1561 Y29.5225
G01 X-1.1015 Y29.6378
G01 X-1.0359 Y29.7473
G01 X-0.9599 Y29.8497
G01 X-0.8743 Y29.9443
G01 X-0.7797 Y30.0299
G01 X-0.6773 Y30.1059
G01 X-0.5678 Y30.1715
G01 X-0.4525 Y30.2261
G01 X-0.3324 Y30.2690
G01 X-0.2086 Y30.3000
G01 X-0.0824 Y30.3188
G01 X0.0450 Y30.3250
G01 X37.7250 Y30.3250
G01 X37.8524 Y30.3188
G01 X37.9786 Y30.3000
G01 X38.1024 Y30.2690
G01 X38.2225 Y30.2261
G01 X38.3378 Y30.1715
G01 X38.4473 Y30.1059
G01 X38.5497 Y30.0299
G01 X38.6443 Y29.9443
G01 X38.7299 Y29.8497
G01 X38.8059 Y29.7473
G01 X38.8715 Y29.6378
G01 X38.9261 Y29.5225
G01 X38.9690 Y29.4024
G01 X39.0000 Y29.2786
G01 X39.0188 Y29.1524
G01 X39.0250 Y29.0250
G01 X39.0250 Y18.9500
G00 Z2.0000
M05
G00 Z2.0000
G00 Z2.00


