(G-code generated by FlatCAM Evo vUnstable - Version Date: 2023/6/31)

(Name: Toolhead PCB-PTH.drl_exc_cnc_cnc)
(Type: G-code from Geometry)
(Units: MM)

(Created on Wednesday, 24 September 2025 at 14:58)

(This preprocessor is the default preprocessor.)
(It is made to work with MACH3 compatible motion controllers.)

(TOOL DIAMETER: 3.0 mm)
(Feedrate_XY: 100.0 mm/min)
(Feedrate_Z: 50.0 mm/min)
(Feedrate rapids 1500.0 mm/min)

(Z_Cut: -2.0 mm)
(Z_Move: 2.0 mm)
(Z Start: None mm)
(Z End: 2.0 mm)
(X,Y End: None mm)
(Steps per circle: 16)
(Preprocessor Geometry: default)

(X range:    1.9550 ...   35.9000  mm)
(Y range:    0.9000 ...   21.4900  mm)

(Spindle Speed: 0.0 RPM)
G21
G90
G94

G01 F100.00
G00 Z2.0000

M03
G4 P1.0
G01 F100.00
G00 X9.8107 Y16.0000
G01 F50.00
G01 Z-2.0000
G01 F100.00
G01 X9.7929 Y15.9571
G01 X9.7500 Y15.9393
G01 X9.7071 Y15.9571
G01 X9.6893 Y16.0000
G01 X9.7071 Y16.0429
G01 X9.7500 Y16.0607
G01 X9.7929 Y16.0429
G01 X9.8107 Y16.0000
G00 Z2.0000
G00 X28.3107 Y16.0000
G01 F50.00
G01 Z-2.0000
G01 F100.00
G01 X28.2929 Y15.9571
G01 X28.2500 Y15.9393
G01 X28.2071 Y15.9571
G01 X28.1893 Y16.0000
G01 X28.2071 Y16.0429
G01 X28.2500 Y16.0607
G01 X28.2929 Y16.0429
G01 X28.3107 Y16.0000
G00 Z2.0000
G01 F100.00
G00 Z2.0000

M03
G4 P1.0
G01 F100.00
G00 X19.9482 Y2.9000
G01 F50.00
G01 Z-2.0000
G01 F100.00
G01 X19.9386 Y2.8028
G01 X19.9103 Y2.7094
G01 X19.8642 Y2.6232
G01 X19.8023 Y2.5477
G01 X19.7268 Y2.4858
G01 X19.6406 Y2.4397
G01 X19.5472 Y2.4114
G01 X19.4500 Y2.4018
G01 X19.3528 Y2.4114
G01 X19.2594 Y2.4397
G01 X19.1732 Y2.4858
G01 X19.0977 Y2.5477
G01 X19.0358 Y2.6232
G01 X18.9897 Y2.7094
G01 X18.9614 Y2.8028
G01 X18.9518 Y2.9000
G01 X18.9614 Y2.9972
G01 X18.9897 Y3.0906
G01 X19.0358 Y3.1768
G01 X19.0977 Y3.2523
G01 X19.1732 Y3.3142
G01 X19.2594 Y3.3603
G01 X19.3528 Y3.3886
G01 X19.4500 Y3.3982
G01 X19.5472 Y3.3886
G01 X19.6406 Y3.3603
G01 X19.7268 Y3.3142
G01 X19.8023 Y3.2523
G01 X19.8642 Y3.1768
G01 X19.9103 Y3.0906
G01 X19.9386 Y2.9972
G01 X19.9482 Y2.9000
G00 Z2.0000
M05
G00 Z2.0000
G00 Z2.00


