(G-code generated by FlatCAM Evo vUnstable - Version Date: 2023/6/31)

(Name: Toolhead PCB-Edge_Cuts_cutout_cnc)
(Type: G-code from Geometry)
(Units: MM)

(Created on Wednesday, 24 September 2025 at 15:02)

(This preprocessor is the default preprocessor.)
(It is made to work with MACH3 compatible motion controllers.)

(TOOL DIAMETER: 3.0 mm)
(Feedrate_XY: 100.0 mm/min)
(Feedrate_Z: 50.0 mm/min)
(Feedrate rapids 1500.0 mm/min)

(Z_Cut: -2.0 mm)
(DepthPerCut: 0.6 mm <=>4 passes)
(Z_Move: 2.0 mm)
(Z Start: None mm)
(Z End: 2.0 mm)
(X,Y End: None mm)
(Steps per circle: 16)
(Preprocessor Geometry: default)

(X range:   -1.4550 ...   39.2250  mm)
(Y range:   -1.0250 ...   25.5250  mm)

(Spindle Speed: 0.0 RPM)
G21
G90
G94

G01 F100.00
G00 Z2.0000

M03
G4 P1.0
G01 F100.00
G00 X-1.4550 Y9.7500
G01 F50.00
G01 Z-0.6000
G01 F100.00
G01 X-1.4550 Y0.4750
G01 X-1.4478 Y0.3280
G01 X-1.4262 Y0.1824
G01 X-1.3904 Y0.0396
G01 X-1.3408 Y-0.0990
G01 X-1.2779 Y-0.2321
G01 X-1.2022 Y-0.3584
G01 X-1.1145 Y-0.4766
G01 X-1.0157 Y-0.5857
G01 X-0.9066 Y-0.6845
G01 X-0.7884 Y-0.7722
G01 X-0.6621 Y-0.8479
G01 X-0.5290 Y-0.9108
G01 X-0.3904 Y-0.9604
G01 X-0.2476 Y-0.9962
G01 X-0.1020 Y-1.0178
G01 X0.0450 Y-1.0250
G01 X16.3850 Y-1.0250
G00 X16.3850 Y-1.0250
G01 F50.00
G01 Z-1.2000
G01 F100.00
G01 X0.0450 Y-1.0250
G01 X-0.1020 Y-1.0178
G01 X-0.2476 Y-0.9962
G01 X-0.3904 Y-0.9604
G01 X-0.5290 Y-0.9108
G01 X-0.6621 Y-0.8479
G01 X-0.7884 Y-0.7722
G01 X-0.9066 Y-0.6845
G01 X-1.0157 Y-0.5857
G01 X-1.1145 Y-0.4766
G01 X-1.2022 Y-0.3584
G01 X-1.2779 Y-0.2321
G01 X-1.3408 Y-0.0990
G01 X-1.3904 Y0.0396
G01 X-1.4262 Y0.1824
G01 X-1.4478 Y0.3280
G01 X-1.4550 Y0.4750
G01 X-1.4550 Y9.7500
G00 X-1.4550 Y9.7500
G01 F50.00
G01 Z-1.8000
G01 F100.00
G01 X-1.4550 Y0.4750
G01 X-1.4478 Y0.3280
G01 X-1.4262 Y0.1824
G01 X-1.3904 Y0.0396
G01 X-1.3408 Y-0.0990
G01 X-1.2779 Y-0.2321
G01 X-1.2022 Y-0.3584
G01 X-1.1145 Y-0.4766
G01 X-1.0157 Y-0.5857
G01 X-0.9066 Y-0.6845
G01 X-0.7884 Y-0.7722
G01 X-0.6621 Y-0.8479
G01 X-0.5290 Y-0.9108
G01 X-0.3904 Y-0.9604
G01 X-0.2476 Y-0.9962
G01 X-0.1020 Y-1.0178
G01 X0.0450 Y-1.0250
G01 X16.3850 Y-1.0250
G00 X16.3850 Y-1.0250
G01 F50.00
G01 Z-2.0000
G01 F100.00
G01 X0.0450 Y-1.0250
G01 X-0.1020 Y-1.0178
G01 X-0.2476 Y-0.9962
G01 X-0.3904 Y-0.9604
G01 X-0.5290 Y-0.9108
G01 X-0.6621 Y-0.8479
G01 X-0.7884 Y-0.7722
G01 X-0.9066 Y-0.6845
G01 X-1.0157 Y-0.5857
G01 X-1.1145 Y-0.4766
G01 X-1.2022 Y-0.3584
G01 X-1.2779 Y-0.2321
G01 X-1.3408 Y-0.0990
G01 X-1.3904 Y0.0396
G01 X-1.4262 Y0.1824
G01 X-1.4478 Y0.3280
G01 X-1.4550 Y0.4750
G01 X-1.4550 Y9.7500
G00 Z2.0000
G00 X-1.4550 Y14.7500
G01 F50.00
G01 Z-0.6000
G01 F100.00
G01 X-1.4550 Y24.0250
G01 X-1.4478 Y24.1720
G01 X-1.4262 Y24.3176
G01 X-1.3904 Y24.4604
G01 X-1.3408 Y24.5990
G01 X-1.2779 Y24.7321
G01 X-1.2022 Y24.8584
G01 X-1.1145 Y24.9766
G01 X-1.0157 Y25.0857
G01 X-0.9066 Y25.1845
G01 X-0.7884 Y25.2722
G01 X-0.6621 Y25.3479
G01 X-0.5290 Y25.4108
G01 X-0.3904 Y25.4604
G01 X-0.2476 Y25.4962
G01 X-0.1020 Y25.5178
G01 X0.0450 Y25.5250
G01 X16.3850 Y25.5250
G00 X16.3850 Y25.5250
G01 F50.00
G01 Z-1.2000
G01 F100.00
G01 X0.0450 Y25.5250
G01 X-0.1020 Y25.5178
G01 X-0.2476 Y25.4962
G01 X-0.3904 Y25.4604
G01 X-0.5290 Y25.4108
G01 X-0.6621 Y25.3479
G01 X-0.7884 Y25.2722
G01 X-0.9066 Y25.1845
G01 X-1.0157 Y25.0857
G01 X-1.1145 Y24.9766
G01 X-1.2022 Y24.8584
G01 X-1.2779 Y24.7321
G01 X-1.3408 Y24.5990
G01 X-1.3904 Y24.4604
G01 X-1.4262 Y24.3176
G01 X-1.4478 Y24.1720
G01 X-1.4550 Y24.0250
G01 X-1.4550 Y14.7500
G00 X-1.4550 Y14.7500
G01 F50.00
G01 Z-1.8000
G01 F100.00
G01 X-1.4550 Y24.0250
G01 X-1.4478 Y24.1720
G01 X-1.4262 Y24.3176
G01 X-1.3904 Y24.4604
G01 X-1.3408 Y24.5990
G01 X-1.2779 Y24.7321
G01 X-1.2022 Y24.8584
G01 X-1.1145 Y24.9766
G01 X-1.0157 Y25.0857
G01 X-0.9066 Y25.1845
G01 X-0.7884 Y25.2722
G01 X-0.6621 Y25.3479
G01 X-0.5290 Y25.4108
G01 X-0.3904 Y25.4604
G01 X-0.2476 Y25.4962
G01 X-0.1020 Y25.5178
G01 X0.0450 Y25.5250
G01 X16.3850 Y25.5250
G00 X16.3850 Y25.5250
G01 F50.00
G01 Z-2.0000
G01 F100.00
G01 X0.0450 Y25.5250
G01 X-0.1020 Y25.5178
G01 X-0.2476 Y25.4962
G01 X-0.3904 Y25.4604
G01 X-0.5290 Y25.4108
G01 X-0.6621 Y25.3479
G01 X-0.7884 Y25.2722
G01 X-0.9066 Y25.1845
G01 X-1.0157 Y25.0857
G01 X-1.1145 Y24.9766
G01 X-1.2022 Y24.8584
G01 X-1.2779 Y24.7321
G01 X-1.3408 Y24.5990
G01 X-1.3904 Y24.4604
G01 X-1.4262 Y24.3176
G01 X-1.4478 Y24.1720
G01 X-1.4550 Y24.0250
G01 X-1.4550 Y14.7500
G00 Z2.0000
G00 X21.3850 Y25.5250
G01 F50.00
G01 Z-0.6000
G01 F100.00
G01 X37.7250 Y25.5250
G01 X37.8720 Y25.5178
G01 X38.0176 Y25.4962
G01 X38.1604 Y25.4604
G01 X38.2990 Y25.4108
G01 X38.4321 Y25.3479
G01 X38.5584 Y25.2722
G01 X38.6766 Y25.1845
G01 X38.7857 Y25.0857
G01 X38.8845 Y24.9766
G01 X38.9722 Y24.8584
G01 X39.0479 Y24.7321
G01 X39.1108 Y24.5990
G01 X39.1604 Y24.4604
G01 X39.1962 Y24.3176
G01 X39.2178 Y24.1720
G01 X39.2250 Y24.0250
G01 X39.2250 Y14.7500
G00 X39.2250 Y14.7500
G01 F50.00
G01 Z-1.2000
G01 F100.00
G01 X39.2250 Y24.0250
G01 X39.2178 Y24.1720
G01 X39.1962 Y24.3176
G01 X39.1604 Y24.4604
G01 X39.1108 Y24.5990
G01 X39.0479 Y24.7321
G01 X38.9722 Y24.8584
G01 X38.8845 Y24.9766
G01 X38.7857 Y25.0857
G01 X38.6766 Y25.1845
G01 X38.5584 Y25.2722
G01 X38.4321 Y25.3479
G01 X38.2990 Y25.4108
G01 X38.1604 Y25.4604
G01 X38.0176 Y25.4962
G01 X37.8720 Y25.5178
G01 X37.7250 Y25.5250
G01 X21.3850 Y25.5250
G00 X21.3850 Y25.5250
G01 F50.00
G01 Z-1.8000
G01 F100.00
G01 X37.7250 Y25.5250
G01 X37.8720 Y25.5178
G01 X38.0176 Y25.4962
G01 X38.1604 Y25.4604
G01 X38.2990 Y25.4108
G01 X38.4321 Y25.3479
G01 X38.5584 Y25.2722
G01 X38.6766 Y25.1845
G01 X38.7857 Y25.0857
G01 X38.8845 Y24.9766
G01 X38.9722 Y24.8584
G01 X39.0479 Y24.7321
G01 X39.1108 Y24.5990
G01 X39.1604 Y24.4604
G01 X39.1962 Y24.3176
G01 X39.2178 Y24.1720
G01 X39.2250 Y24.0250
G01 X39.2250 Y14.7500
G00 X39.2250 Y14.7500
G01 F50.00
G01 Z-2.0000
G01 F100.00
G01 X39.2250 Y24.0250
G01 X39.2178 Y24.1720
G01 X39.1962 Y24.3176
G01 X39.1604 Y24.4604
G01 X39.1108 Y24.5990
G01 X39.0479 Y24.7321
G01 X38.9722 Y24.8584
G01 X38.8845 Y24.9766
G01 X38.7857 Y25.0857
G01 X38.6766 Y25.1845
G01 X38.5584 Y25.2722
G01 X38.4321 Y25.3479
G01 X38.2990 Y25.4108
G01 X38.1604 Y25.4604
G01 X38.0176 Y25.4962
G01 X37.8720 Y25.5178
G01 X37.7250 Y25.5250
G01 X21.3850 Y25.5250
G00 Z2.0000
G00 X39.2250 Y9.7500
G01 F50.00
G01 Z-0.6000
G01 F100.00
G01 X39.2250 Y0.4750
G01 X39.2178 Y0.3280
G01 X39.1962 Y0.1824
G01 X39.1604 Y0.0396
G01 X39.1108 Y-0.0990
G01 X39.0479 Y-0.2321
G01 X38.9722 Y-0.3584
G01 X38.8845 Y-0.4766
G01 X38.7857 Y-0.5857
G01 X38.6766 Y-0.6845
G01 X38.5584 Y-0.7722
G01 X38.4321 Y-0.8479
G01 X38.2990 Y-0.9108
G01 X38.1604 Y-0.9604
G01 X38.0176 Y-0.9962
G01 X37.8720 Y-1.0178
G01 X37.7250 Y-1.0250
G01 X21.3850 Y-1.0250
G00 X21.3850 Y-1.0250
G01 F50.00
G01 Z-1.2000
G01 F100.00
G01 X37.7250 Y-1.0250
G01 X37.8720 Y-1.0178
G01 X38.0176 Y-0.9962
G01 X38.1604 Y-0.9604
G01 X38.2990 Y-0.9108
G01 X38.4321 Y-0.8479
G01 X38.5584 Y-0.7722
G01 X38.6766 Y-0.6845
G01 X38.7857 Y-0.5857
G01 X38.8845 Y-0.4766
G01 X38.9722 Y-0.3584
G01 X39.0479 Y-0.2321
G01 X39.1108 Y-0.0990
G01 X39.1604 Y0.0396
G01 X39.1962 Y0.1824
G01 X39.2178 Y0.3280
G01 X39.2250 Y0.4750
G01 X39.2250 Y9.7500
G00 X39.2250 Y9.7500
G01 F50.00
G01 Z-1.8000
G01 F100.00
G01 X39.2250 Y0.4750
G01 X39.2178 Y0.3280
G01 X39.1962 Y0.1824
G01 X39.1604 Y0.0396
G01 X39.1108 Y-0.0990
G01 X39.0479 Y-0.2321
G01 X38.9722 Y-0.3584
G01 X38.8845 Y-0.4766
G01 X38.7857 Y-0.5857
G01 X38.6766 Y-0.6845
G01 X38.5584 Y-0.7722
G01 X38.4321 Y-0.8479
G01 X38.2990 Y-0.9108
G01 X38.1604 Y-0.9604
G01 X38.0176 Y-0.9962
G01 X37.8720 Y-1.0178
G01 X37.7250 Y-1.0250
G01 X21.3850 Y-1.0250
G00 X21.3850 Y-1.0250
G01 F50.00
G01 Z-2.0000
G01 F100.00
G01 X37.7250 Y-1.0250
G01 X37.8720 Y-1.0178
G01 X38.0176 Y-0.9962
G01 X38.1604 Y-0.9604
G01 X38.2990 Y-0.9108
G01 X38.4321 Y-0.8479
G01 X38.5584 Y-0.7722
G01 X38.6766 Y-0.6845
G01 X38.7857 Y-0.5857
G01 X38.8845 Y-0.4766
G01 X38.9722 Y-0.3584
G01 X39.0479 Y-0.2321
G01 X39.1108 Y-0.0990
G01 X39.1604 Y0.0396
G01 X39.1962 Y0.1824
G01 X39.2178 Y0.3280
G01 X39.2250 Y0.4750
G01 X39.2250 Y9.7500
G00 Z2.0000
M05
G00 Z2.0000
G00 Z2.00


